booooza/IsaacLabUR10eSim2Real/analysis/debug_logs/reach/play_log_1.csv
step,sim_time,env_id,episode_id,episode_step,shoulder_pan_joint_pos,shoulder_lift_joint_pos,elbow_joint_pos,wrist_1_joint_pos,wrist_2_joint_pos,wrist_3_joint_pos,shoulder_pan_joint_pos_target,shoulder_lift_joint_pos_target,elbow_joint_pos_target,wrist_1_joint_pos_target,wrist_2_joint_pos_target,wrist_3_joint_pos_target,shoulder_pan_joint_vel,shoulder_lift_joint_vel,elbow_joint_vel,wrist_1_joint_vel,wrist_2_joint_vel,wrist_3_joint_vel,shoulder_pan_joint_vel_target,shoulder_lift_joint_vel_target,elbow_joint_vel_target,wrist_1_joint_vel_target,wrist_2_joint_vel_target,wrist_3_joint_vel_target,shoulder_pan_joint_pos_limit_lower,shoulder_pan_joint_pos_limit_upper,shoulder_lift_joint_pos_limit_lower,shoulder_lift_joint_pos_limit_upper,elbow_joint_pos_limit_lower,elbow_joint_pos_limit_upper,wrist_1_joint_pos_limit_lower,wrist_1_joint_pos_limit_upper,wrist_2_joint_pos_limit_lower,wrist_2_joint_pos_limit_upper,wrist_3_joint_pos_limit_lower,wrist_3_joint_pos_limit_upper,shoulder_pan_joint_soft_pos_limit_lower,shoulder_pan_joint_soft_pos_limit_upper,shoulder_lift_joint_soft_pos_limit_lower,shoulder_lift_joint_soft_pos_limit_upper,elbow_joint_soft_pos_limit_lower,elbow_joint_soft_pos_limit_upper,wrist_1_joint_soft_pos_limit_lower,wrist_1_joint_soft_pos_limit_upper,wrist_2_joint_soft_pos_limit_lower,wrist_2_joint_soft_pos_limit_upper,wrist_3_joint_soft_pos_limit_lower,wrist_3_joint_soft_pos_limit_upper,shoulder_pan_joint_vel_limit,shoulder_lift_joint_vel_limit,elbow_joint_vel_limit,wrist_1_joint_vel_limit,wrist_2_joint_vel_limit,wrist_3_joint_vel_limit,shoulder_pan_joint_soft_vel_limit,shoulder_lift_joint_soft_vel_limit,elbow_joint_soft_vel_limit,wrist_1_joint_soft_vel_limit,wrist_2_joint_soft_vel_limit,wrist_3_joint_soft_vel_limit,ee_frame_pos_x,ee_frame_pos_y,ee_frame_pos_z,ee_frame_rot_w,ee_frame_rot_x,ee_frame_rot_y,ee_frame_rot_z,object_pos_x,object_pos_y,object_pos_z,object_rot_w,object_rot_x,object_rot_y,object_rot_z,target_pos_x,target_pos_y,target_pos_z,target_rot_w,target_rot_x,target_rot_y,target_rot_z
1,0.008,0,0,1,0.005313453264534473,-1.5686383247375488,1.5694688558578491,-1.5600208044052124,-1.5908130407333374,-0.025128711014986038,0.0,-1.5700000524520874,1.5700000524520874,-1.5700000524520874,-1.5700000524520874,0.0,0.774495542049408,0.2756527066230774,-0.14895062148571014,1.2973833084106445,-2.582745313644409,-3.141585350036621,2.0937845706939697,0.4344148337841034,1.2883950471878052,1.2909066677093506,-2.580023765563965,-3.141590118408203,-6.2831854820251465,6.2831854820251465,-6.2831854820251465,6.2831854820251465,-3.1415927410125732,3.1415927410125732,-6.2831854820251465,6.2831854820251465,-6.2831854820251465,6.2831854820251465,-6.2831854820251465,6.2831854820251465,-5.654866695404053,5.654866695404053,-5.654866695404053,5.654866695404053,-2.8274333477020264,2.8274333477020264,-5.654866695404053,5.654866695404053,-5.654866695404053,5.654866695404053,-5.654866695404053,5.654866695404053,2.094399929046631,2.094399929046631,3.1415998935699463,3.1415998935699463,3.1415998935699463,3.1415998935699463,2.094399929046631,2.094399929046631,3.1415998935699463,3.1415998935699463,3.1415998935699463,3.1415998935699463,0.6904386281967163,0.17548812925815582,0.6750137209892273,-0.011208772659301758,-0.7177799344062805,0.696173906326294,-0.002862289547920227,NA,NA,NA,NA,NA,NA,NA,0.7451295852661133,-0.2362738847732544,0.45156875252723694,-3.748380450474542e-08,0.8575294613838196,0.5144348740577698,-2.248666319815129e-08
2,0.016,0,0,2,0.01470280159264803,-1.5669550895690918,1.570831060409546,-1.5498147010803223,-1.6114429235458374,-0.05026082694530487,0.0,-1.5700000524520874,1.5700000524520874,-1.5700000524520874,-1.5700000524520874,0.0,1.3007934093475342,0.226787731051445,0.1762692630290985,1.3149653673171997,-2.5459401607513428,-3.1415905952453613,2.094399929046631,0.22561310231685638,1.1917723417282104,1.3150132894515991,-2.545958995819092,-3.141590118408203,-6.2831854820251465,6.2831854820251465,-6.2831854820251465,6.2831854820251465,-3.1415927410125732,3.1415927410125732,-6.2831854820251465,6.2831854820251465,-6.2831854820251465,6.2831854820251465,-6.2831854820251465,6.2831854820251465,-5.654866695404053,5.654866695404053,-5.654866695404053,5.654866695404053,-2.8274333477020264,2.8274333477020264,-5.654866695404053,5.654866695404053,-5.654866695404053,5.654866695404053,-5.654866695404053,5.654866695404053,2.094399929046631,2.094399929046631,3.1415998935699463,3.1415998935699463,3.1415998935699463,3.1415998935699463,2.094399929046631,2.094399929046631,3.1415998935699463,3.1415998935699463,3.1415998935699463,3.1415998935699463,0.6882521510124207,0.17955227196216583,0.6717836260795593,-0.0232505202293396,-0.729663610458374,0.683391273021698,-0.005169525742530823,NA,NA,NA,NA,NA,NA,NA,0.7451295852661133,-0.2362738847732544,0.45156875252723694,-3.748380450474542e-08,0.8575294613838196,0.5144348740577698,-2.248666319815129e-08
3,0.024,0,0,3,0.026799801737070084,-1.565787672996521,1.5748684406280518,-1.5406373739242554,-1.6313673257827759,-0.07539302110671997,0.0,-1.5700000524520874,1.5700000524520874,-1.5700000524520874,-1.5700000524520874,0.0,1.687530517578125,0.17493470013141632,0.52529376745224,1.1841951608657837,-2.4816842079162598,-3.141555070877075,1.9128289222717285,0.1979471743106842,0.9874749779701233,1.1836906671524048,-2.4659879207611084,-3.141590118408203,-6.2831854820251465,6.2831854820251465,-6.2831854820251465,6.2831854820251465,-3.1415927410125732,3.1415927410125732,-6.2831854820251465,6.2831854820251465,-6.2831854820251465,6.2831854820251465,-6.2831854820251465,6.2831854820251465,-5.654866695404053,5.654866695404053,-5.654866695404053,5.654866695404053,-2.8274333477020264,2.8274333477020264,-5.654866695404053,5.654866695404053,-5.654866695404053,5.654866695404053,-5.654866695404053,5.654866695404053,2.094399929046631,2.094399929046631,3.1415998935699463,3.1415998935699463,3.1415998935699463,3.1415998935699463,2.094399929046631,2.094399929046631,3.1415998935699463,3.1415998935699463,3.1415998935699463,3.1415998935699463,0.6850639581680298,0.1855185478925705,0.6672534942626953,-0.035446733236312866,-0.7422136068344116,0.669191837310791,-0.006682306528091431,NA,NA,NA,NA,NA,NA,NA,0.7451295852661133,-0.2362738847732544,0.45156875252723694,-3.748380450474542e-08,0.8575294613838196,0.5144348740577698,-2.248666319815129e-08
4,0.032,0,0,4,0.04023296758532524,-1.5646480321884155,1.580188512802124,-1.532699704170227,-1.6508686542510986,-0.10052564740180969,0.0,-1.5700000524520874,1.5700000524520874,-1.5700000524520874,-1.5700000524520874,0.0,1.6797951459884644,0.13182735443115234,0.7224208116531372,0.9996820688247681,-2.438598155975342,-3.141587495803833,1.687760591506958,0.18662039935588837,0.7768612504005432,1.0062052011489868,-2.4378232955932617,-3.141590118408203,-6.2831854820251465,6.2831854820251465,-6.2831854820251465,6.2831854820251465,-3.1415927410125732,3.1415927410125732,-6.2831854820251465,6.2831854820251465,-6.2831854820251465,6.2831854820251465,-6.2831854820251465,6.2831854820251465,-5.654866695404053,5.654866695404053,-5.654866695404053,5.654866695404053,-2.8274333477020264,2.8274333477020264,-5.654866695404053,5.654866695404053,-5.654866695404053,5.654866695404053,-5.654866695404053,5.654866695404053,2.094399929046631,2.094399929046631,3.1415998935699463,3.1415998935699463,3.1415998935699463,3.1415998935699463,2.094399929046631,2.094399929046631,3.1415998935699463,3.1415998935699463,3.1415998935699463,3.1415998935699463,0.681510329246521,0.19239476323127747,0.6620715260505676,-0.047498464584350586,-0.7549083232879639,0.6540601253509521,-0.007917627692222595,NA,NA,NA,NA,NA,NA,NA,0.7451295852661133,-0.2362738847732544,0.45156875252723694,-3.748380450474542e-08,0.8575294613838196,0.5144348740577698,-2.248666319815129e-08
5,0.04,0,0,5,0.05322546139359474,-1.5633776187896729,1.5856910943984985,-1.526053786277771,-1.6699166297912598,-0.1256582885980606,0.0,-1.5700000524520874,1.5700000524520874,-1.5700000524520874,-1.5700000524520874,0.0,1.5822840929031372,0.16625407338142395,0.6612657904624939,0.8243745565414429,-2.383384943008423,-3.1415977478027344,1.5192633867263794,0.1709822118282318,0.6386299133300781,0.8202878832817078,-2.387298822402954,-3.141590118408203,-6.2831854820251465,6.2831854820251465,-6.2831854820251465,6.2831854820251465,-3.1415927410125732,3.1415927410125732,-6.2831854820251465,6.2831854820251465,-6.2831854820251465,6.2831854820251465,-6.2831854820251465,6.2831854820251465,-5.654866695404053,5.654866695404053,-5.654866695404053,5.654866695404053,-2.8274333477020264,2.8274333477020264,-5.654866695404053,5.654866695404053,-5.654866695404053,5.654866695404053,-5.654866695404053,5.654866695404053,2.094399929046631,2.094399929046631,3.1415998935699463,3.1415998935699463,3.1415998935699463,3.1415998935699463,2.094399929046631,2.094399929046631,3.1415998935699463,3.1415998935699463,3.1415998935699463,3.1415998935699463,0.6781373023986816,0.19897499680519104,0.6568824052810669,-0.05905669927597046,-0.7671324014663696,0.638698160648346,-0.009203299880027771,NA,NA,NA,NA,NA,NA,NA,0.7451295852661133,-0.2362738847732544,0.45156875252723694,-3.748380450474542e-08,0.8575294613838196,0.5144348740577698,-2.248666319815129e-08
6,0.048,0,0,6,0.06488288193941116,-1.562144160270691,1.5910732746124268,-1.5204336643218994,-1.6875507831573486,-0.15079140663146973,0.0,-1.5700000524520874,1.5700000524520874,-1.5700000524520874,-1.5700000524520874,0.0,1.37943434715271,0.14569416642189026,0.66546231508255,0.7001628279685974,-2.208798885345459,-3.141598701477051,1.2755990028381348,0.14755868911743164,0.6413066983222961,0.6956961154937744,-2.215517044067383,-3.141590118408203,-6.2831854820251465,6.2831854820251465,-6.2831854820251465,6.2831854820251465,-3.1415927410125732,3.1415927410125732,-6.2831854820251465,6.2831854820251465,-6.2831854820251465,6.2831854820251465,-6.2831854820251465,6.2831854820251465,-5.654866695404053,5.654866695404053,-5.654866695404053,5.654866695404053,-2.8274333477020264,2.8274333477020264,-5.654866695404053,5.654866695404053,-5.654866695404053,5.654866695404053,-5.654866695404053,5.654866695404053,2.094399929046631,2.094399929046631,3.1415998935699463,3.1415998935699463,3.1415998935699463,3.1415998935699463,2.094399929046631,2.094399929046631,3.1415998935699463,3.1415998935699463,3.1415998935699463,3.1415998935699463,0.6750597953796387,0.2047731727361679,0.6519588828086853,-0.06970661878585815,-0.7786154747009277,0.6235331892967224,-0.010260224342346191,NA,NA,NA,NA,NA,NA,NA,0.7451295852661133,-0.2362738847732544,0.45156875252723694,-3.748380450474542e-08,0.8575294613838196,0.5144348740577698,-2.248666319815129e-08
7,0.056,0,0,7,0.07503563165664673,-1.5610183477401733,1.5963497161865234,-1.5159109830856323,-1.704262137413025,-0.17592452466487885,0.0,-1.5700000524520874,1.5700000524520874,-1.5700000524520874,-1.5700000524520874,0.0,1.1976193189620972,0.13568423688411713,0.6427080631256104,0.561100959777832,-2.0931873321533203,-3.141599655151367,1.1003684997558594,0.13050992786884308,0.6120073199272156,0.5558344125747681,-2.099536657333374,-3.141590118408203,-6.2831854820251465,6.2831854820251465,-6.2831854820251465,6.2831854820251465,-3.1415927410125732,3.1415927410125732,-6.2831854820251465,6.2831854820251465,-6.2831854820251465,6.2831854820251465,-6.2831854820251465,6.2831854820251465,-5.654866695404053,5.654866695404053,-5.654866695404053,5.654866695404053,-2.8274333477020264,2.8274333477020264,-5.654866695404053,5.654866695404053,-5.654866695404053,5.654866695404053,-5.654866695404053,5.654866695404053,2.094399929046631,2.094399929046631,3.1415998935699463,3.1415998935699463,3.1415998935699463,3.1415998935699463,2.094399929046631,2.094399929046631,3.1415998935699463,3.1415998935699463,3.1415998935699463,3.1415998935699463,0.6723164319992065,0.20963090658187866,0.647339403629303,-0.07958948612213135,-0.7893255949020386,0.6086896657943726,-0.011290669441223145,NA,NA,NA,NA,NA,NA,NA,0.7451295852661133,-0.2362738847732544,0.45156875252723694,-3.748380450474542e-08,0.8575294613838196,0.5144348740577698,-2.248666319815129e-08
8,0.064,0,0,8,0.08372632414102554,-1.5600202083587646,1.6015146970748901,-1.512351393699646,-1.7199281454086304,-0.20105764269828796,0.0,-1.5700000524520874,1.5700000524520874,-1.5700000524520874,-1.5700000524520874,0.0,1.016098141670227,0.11847767233848572,0.6335009932518005,0.44165709614753723,-1.9623464345932007,-3.141599178314209,0.9214185476303101,0.11584405601024628,0.6066603064537048,0.4368458390235901,-1.968530535697937,-3.141590118408203,-6.2831854820251465,6.2831854820251465,-6.2831854820251465,6.2831854820251465,-3.1415927410125732,3.1415927410125732,-6.2831854820251465,6.2831854820251465,-6.2831854820251465,6.2831854820251465,-6.2831854820251465,6.2831854820251465,-5.654866695404053,5.654866695404053,-5.654866695404053,5.654866695404053,-2.8274333477020264,2.8274333477020264,-5.654866695404053,5.654866695404053,-5.654866695404053,5.654866695404053,-5.654866695404053,5.654866695404053,2.094399929046631,2.094399929046631,3.1415998935699463,3.1415998935699463,3.1415998935699463,3.1415998935699463,2.094399929046631,2.094399929046631,3.1415998935699463,3.1415998935699463,3.1415998935699463,3.1415998935699463,0.669896125793457,0.21360363066196442,0.6430155038833618,-0.08870124816894531,-0.7993080019950867,0.5942133665084839,-0.012210309505462646,NA,NA,NA,NA,NA,NA,NA,0.7451295852661133,-0.2362738847732544,0.45156875252723694,-3.748380450474542e-08,0.8575294613838196,0.5144348740577698,-2.248666319815129e-08
9,0.07200000000000001,0,0,9,0.09104417264461517,-1.559147834777832,1.6065959930419922,-1.5096988677978516,-1.7346664667129517,-0.22619077563285828,0.0,-1.5700000524520874,1.5700000524520874,-1.5700000524520874,-1.5700000524520874,0.0,0.85063236951828,0.10442223399877548,0.6228473782539368,0.328266441822052,-1.84599769115448,-3.141598701477051,0.7636346220970154,0.10366734862327576,0.5984361171722412,0.3237551152706146,-1.85166597366333,-3.141590118408203,-6.2831854820251465,6.2831854820251465,-6.2831854820251465,6.2831854820251465,-3.1415927410125732,3.1415927410125732,-6.2831854820251465,6.2831854820251465,-6.2831854820251465,6.2831854820251465,-6.2831854820251465,6.2831854820251465,-5.654866695404053,5.654866695404053,-5.654866695404053,5.654866695404053,-2.8274333477020264,2.8274333477020264,-5.654866695404053,5.654866695404053,-5.654866695404053,5.654866695404053,-5.654866695404053,5.654866695404053,2.094399929046631,2.094399929046631,3.1415998935699463,3.1415998935699463,3.1415998935699463,3.1415998935699463,2.094399929046631,2.094399929046631,3.1415998935699463,3.1415998935699463,3.1415998935699463,3.1415998935699463,0.6677904725074768,0.21674844622612,0.6389537453651428,-0.09711775183677673,-0.808618426322937,0.5801160335540771,-0.013029545545578003,NA,NA,NA,NA,NA,NA,NA,0.7451295852661133,-0.2362738847732544,0.45156875252723694,-3.748380450474542e-08,0.8575294613838196,0.5144348740577698,-2.248666319815129e-08
10,0.08,0,0,10,0.09709015488624573,-1.5583901405334473,1.6116104125976562,-1.5078743696212769,-1.7484960556030273,-0.2513239085674286,0.0,-1.5700000524520874,1.5700000524520874,-1.5700000524520874,-1.5700000524520874,0.0,0.6962972283363342,0.09098191559314728,0.6163357496261597,0.22509054839611053,-1.7321137189865112,-3.141599416732788,0.6154068112373352,0.0933762863278389,0.5955916047096252,0.2210245579481125,-1.7373528480529785,-3.141590118408203,-6.2831854820251465,6.2831854820251465,-6.2831854820251465,6.2831854820251465,-3.1415927410125732,3.1415927410125732,-6.2831854820251465,6.2831854820251465,-6.2831854820251465,6.2831854820251465,-6.2831854820251465,6.2831854820251465,-5.654866695404053,5.654866695404053,-5.654866695404053,5.654866695404053,-2.8274333477020264,2.8274333477020264,-5.654866695404053,5.654866695404053,-5.654866695404053,5.654866695404053,-5.654866695404053,5.654866695404053,2.094399929046631,2.094399929046631,3.1415998935699463,3.1415998935699463,3.1415998935699463,3.1415998935699463,2.094399929046631,2.094399929046631,3.1415998935699463,3.1415998935699463,3.1415998935699463,3.1415998935699463,0.6659848690032959,0.2191387414932251,0.6351187825202942,-0.10488420724868774,-0.8173149228096008,0.5663985013961792,-0.01372063159942627,NA,NA,NA,NA,NA,NA,NA,0.7451295852661133,-0.2362738847732544,0.45156875252723694,-3.748380450474542e-08,0.8575294613838196,0.5144348740577698,-2.248666319815129e-08
11,0.088,0,0,11,0.10196328908205032,-1.5577312707901,1.6165764331817627,-1.5068188905715942,-1.7614747285842896,-0.2764570415019989,0.0,-1.5700000524520874,1.5700000524520874,-1.5700000524520874,-1.5700000524520874,0.0,0.5547552108764648,0.07975448668003082,0.6113227009773254,0.12914802134037018,-1.6254162788391113,-3.1416008472442627,0.48036062717437744,0.0847974568605423,0.59369957447052,0.1254769265651703,-1.6301993131637573,-3.141590118408203,-6.2831854820251465,6.2831854820251465,-6.2831854820251465,6.2831854820251465,-3.1415927410125732,3.1415927410125732,-6.2831854820251465,6.2831854820251465,-6.2831854820251465,6.2831854820251465,-6.2831854820251465,6.2831854820251465,-5.654866695404053,5.654866695404053,-5.654866695404053,5.654866695404053,-2.8274333477020264,2.8274333477020264,-5.654866695404053,5.654866695404053,-5.654866695404053,5.654866695404053,-5.654866695404053,5.654866695404053,2.094399929046631,2.094399929046631,3.1415998935699463,3.1415998935699463,3.1415998935699463,3.1415998935699463,2.094399929046631,2.094399929046631,3.1415998935699463,3.1415998935699463,3.1415998935699463,3.1415998935699463,0.6644647717475891,0.22084136307239532,0.6314749121665955,-0.11205616593360901,-0.8254518508911133,0.5530539751052856,-0.014275774359703064,NA,NA,NA,NA,NA,NA,NA,0.7451295852661133,-0.2362738847732544,0.45156875252723694,-3.748380450474542e-08,0.8575294613838196,0.5144348740577698,-2.248666319815129e-08
12,0.096,0,0,12,0.10575840622186661,-1.5571553707122803,1.621509075164795,-1.506474494934082,-1.77364182472229,-0.3015901744365692,0.0,-1.5700000524520874,1.5700000524520874,-1.5700000524520874,-1.5700000524520874,0.0,0.42453616857528687,0.07021451741456985,0.6084511280059814,0.0405132956802845,-1.5236668586730957,-3.1416001319885254,0.3560667932033539,0.07765776664018631,0.5938308238983154,0.03723416104912758,-1.528031826019287,-3.141590118408203,-6.2831854820251465,6.2831854820251465,-6.2831854820251465,6.2831854820251465,-3.1415927410125732,3.1415927410125732,-6.2831854820251465,6.2831854820251465,-6.2831854820251465,6.2831854820251465,-6.2831854820251465,6.2831854820251465,-5.654866695404053,5.654866695404053,-5.654866695404053,5.654866695404053,-2.8274333477020264,2.8274333477020264,-5.654866695404053,5.654866695404053,-5.654866695404053,5.654866695404053,-5.654866695404053,5.654866695404053,2.094399929046631,2.094399929046631,3.1415998935699463,3.1415998935699463,3.1415998935699463,3.1415998935699463,2.094399929046631,2.094399929046631,3.1415998935699463,3.1415998935699463,3.1415998935699463,3.1415998935699463,0.6632137894630432,0.22191955149173737,0.6279911994934082,-0.11867859959602356,-0.8330801725387573,0.5400713682174683,-0.014685407280921936,NA,NA,NA,NA,NA,NA,NA,0.7451295852661133,-0.2362738847732544,0.45156875252723694,-3.748380450474542e-08,0.8575294613838196,0.5144348740577698,-2.248666319815129e-08
13,0.10400000000000001,0,0,13,0.10856490582227707,-1.5566496849060059,1.6264222860336304,-1.5067905187606812,-1.785041093826294,-0.3267233073711395,0.0,-1.5700000524520874,1.5700000524520874,-1.5700000524520874,-1.5700000524520874,0.0,0.30531561374664307,0.06247352063655853,0.607103705406189,-0.041762132197618484,-1.4273802042007446,-3.141597270965576,0.24255941808223724,0.07182285934686661,0.5951120257377625,-0.04468075931072235,-1.4313437938690186,-3.141590118408203,-6.2831854820251465,6.2831854820251465,-6.2831854820251465,6.2831854820251465,-3.1415927410125732,3.1415927410125732,-6.2831854820251465,6.2831854820251465,-6.2831854820251465,6.2831854820251465,-6.2831854820251465,6.2831854820251465,-5.654866695404053,5.654866695404053,-5.654866695404053,5.654866695404053,-2.8274333477020264,2.8274333477020264,-5.654866695404053,5.654866695404053,-5.654866695404053,5.654866695404053,-5.654866695404053,5.654866695404053,2.094399929046631,2.094399929046631,3.1415998935699463,3.1415998935699463,3.1415998935699463,3.1415998935699463,2.094399929046631,2.094399929046631,3.1415998935699463,3.1415998935699463,3.1415998935699463,3.1415998935699463,0.6622137427330017,0.22243179380893707,0.6246387958526611,-0.12479346990585327,-0.840246319770813,0.5274366140365601,-0.014944657683372498,NA,NA,NA,NA,NA,NA,NA,0.7451295852661133,-0.2362738847732544,0.45156875252723694,-3.748380450474542e-08,0.8575294613838196,0.5144348740577698,-2.248666319815129e-08
14,0.112,0,0,14,0.11046676337718964,-1.5561972856521606,1.631327509880066,-1.5077166557312012,-1.7957096099853516,-0.35185644030570984,0.0,-1.5700000524520874,1.5700000524520874,-1.5700000524520874,-1.5700000524520874,0.0,0.19626832008361816,0.05632895976305008,0.6072278618812561,-0.11785613745450974,-1.3357738256454468,-3.1415982246398926,0.13885536789894104,0.06725050508975983,0.5976296663284302,-0.1204327940940857,-1.3393632173538208,-3.141590118408203,-6.2831854820251465,6.2831854820251465,-6.2831854820251465,6.2831854820251465,-3.1415927410125732,3.1415927410125732,-6.2831854820251465,6.2831854820251465,-6.2831854820251465,6.2831854820251465,-6.2831854820251465,6.2831854820251465,-5.654866695404053,5.654866695404053,-5.654866695404053,5.654866695404053,-2.8274333477020264,2.8274333477020264,-5.654866695404053,5.654866695404053,-5.654866695404053,5.654866695404053,-5.654866695404053,5.654866695404053,2.094399929046631,2.094399929046631,3.1415998935699463,3.1415998935699463,3.1415998935699463,3.1415998935699463,2.094399929046631,2.094399929046631,3.1415998935699463,3.1415998935699463,3.1415998935699463,3.1415998935699463,0.6614468097686768,0.22243177890777588,0.6213908791542053,-0.13044039905071259,-0.8469929695129395,0.5151327848434448,-0.015048310160636902,NA,NA,NA,NA,NA,NA,NA,0.7451295852661133,-0.2362738847732544,0.45156875252723694,-3.748380450474542e-08,0.8575294613838196,0.5144348740577698,-2.248666319815129e-08
15,0.12,0,0,15,0.11154239624738693,-1.5557868480682373,1.6362351179122925,-1.5092077255249023,-1.8056843280792236,-0.37698957324028015,0.0,-1.5700000524520874,1.5700000524520874,-1.5700000524520874,-1.5700000524520874,0.0,0.09674547612667084,0.05167734995484352,0.6085221767425537,-0.18821528553962708,-1.2488571405410767,-3.141596794128418,0.044338978826999664,0.0637882873415947,0.6010144352912903,-0.19047801196575165,-1.2520984411239624,-3.141590118408203,-6.2831854820251465,6.2831854820251465,-6.2831854820251465,6.2831854820251465,-3.1415927410125732,3.1415927410125732,-6.2831854820251465,6.2831854820251465,-6.2831854820251465,6.2831854820251465,-6.2831854820251465,6.2831854820251465,-5.654866695404053,5.654866695404053,-5.654866695404053,5.654866695404053,-2.8274333477020264,2.8274333477020264,-5.654866695404053,5.654866695404053,-5.654866695404053,5.654866695404053,-5.654866695404053,5.654866695404053,2.094399929046631,2.094399929046631,3.1415998935699463,3.1415998935699463,3.1415998935699463,3.1415998935699463,2.094399929046631,2.094399929046631,3.1415998935699463,3.1415998935699463,3.1415998935699463,3.1415998935699463,0.6608941555023193,0.22196905314922333,0.6182259321212769,-0.13565325736999512,-0.8533586263656616,0.5031424164772034,-0.014995992183685303,NA,NA,NA,NA,NA,NA,NA,0.7451295852661133,-0.2362738847732544,0.45156875252723694,-3.748380450474542e-08,0.8575294613838196,0.5144348740577698,-2.248666319815129e-08
16,0.128,0,0,16,0.11186476796865463,-1.5554064512252808,1.6411542892456055,-1.511222243309021,-1.8150018453598022,-0.40212270617485046,0.0,-1.5700000524520874,1.5700000524520874,-1.5700000524520874,-1.5700000524520874,0.0,0.006059977225959301,0.04835600033402443,0.610827624797821,-0.25338345766067505,-1.1664955615997314,-3.1415956020355225,-0.041686151176691055,0.06132815033197403,0.6051456332206726,-0.25535765290260315,-1.1694145202636719,-3.141590118408203,-6.2831854820251465,6.2831854820251465,-6.2831854820251465,6.2831854820251465,-3.1415927410125732,3.1415927410125732,-6.2831854820251465,6.2831854820251465,-6.2831854820251465,6.2831854820251465,-6.2831854820251465,6.2831854820251465,-5.654866695404053,5.654866695404053,-5.654866695404053,5.654866695404053,-2.8274333477020264,2.8274333477020264,-5.654866695404053,5.654866695404053,-5.654866695404053,5.654866695404053,-5.654866695404053,5.654866695404053,2.094399929046631,2.094399929046631,3.1415998935699463,3.1415998935699463,3.1415998935699463,3.1415998935699463,2.094399929046631,2.094399929046631,3.1415998935699463,3.1415998935699463,3.1415998935699463,3.1415998935699463,0.6605368852615356,0.22108817100524902,0.6151223182678223,-0.14046509563922882,-0.8593788146972656,0.4914456009864807,-0.014787346124649048,NA,NA,NA,NA,NA,NA,NA,0.7451295852661133,-0.2362738847732544,0.45156875252723694,-3.748380450474542e-08,0.8575294613838196,0.5144348740577698,-2.248666319815129e-08
17,0.136,0,0,17,0.11150152236223221,-1.5550448894500732,1.6460919380187988,-1.513723373413086,-1.8236976861953735,-0.4272558391094208,0.0,-1.5700000524520874,1.5700000524520874,-1.5700000524520874,-1.5700000524520874,0.0,-0.07644646614789963,0.046226151287555695,0.6139926910400391,-0.3139846920967102,-1.088586688041687,-3.1415956020355225,-0.11987386643886566,0.05978827178478241,0.6098971962928772,-0.31569573283195496,-1.091209053993225,-3.141590118408203,-6.2831854820251465,6.2831854820251465,-6.2831854820251465,6.2831854820251465,-3.1415927410125732,3.1415927410125732,-6.2831854820251465,6.2831854820251465,-6.2831854820251465,6.2831854820251465,-6.2831854820251465,6.2831854820251465,-5.654866695404053,5.654866695404053,-5.654866695404053,5.654866695404053,-2.8274333477020264,2.8274333477020264,-5.654866695404053,5.654866695404053,-5.654866695404053,5.654866695404053,-5.654866695404053,5.654866695404053,2.094399929046631,2.094399929046631,3.1415998935699463,3.1415998935699463,3.1415998935699463,3.1415998935699463,2.094399929046631,2.094399929046631,3.1415998935699463,3.1415998935699463,3.1415998935699463,3.1415998935699463,0.660357654094696,0.2198306769132614,0.612062931060791,-0.14490486681461334,-0.8650846481323242,0.4800240993499756,-0.014425709843635559,NA,NA,NA,NA,NA,NA,NA,0.7451295852661133,-0.2362738847732544,0.45156875252723694,-3.748380450474542e-08,0.8575294613838196,0.5144348740577698,-2.248666319815129e-08
18,0.14400000000000002,0,0,18,0.1105150431394577,-1.5546947717666626,1.651054859161377,-1.5166771411895752,-1.831805944442749,-0.4523889720439911,0.0,-1.5700000524520874,1.5700000524520874,-1.5700000524520874,-1.5700000524520874,0.0,-0.15143249928951263,0.045163825154304504,0.6179199814796448,-0.3704898953437805,-1.014945149421692,-3.141594886779785,-0.19088461995124817,0.05913251265883446,0.6152237057685852,-0.3719589114189148,-1.0172958374023438,-3.141590118408203,-6.2831854820251465,6.2831854820251465,-6.2831854820251465,6.2831854820251465,-3.1415927410125732,3.1415927410125732,-6.2831854820251465,6.2831854820251465,-6.2831854820251465,6.2831854820251465,-6.2831854820251465,6.2831854820251465,-5.654866695404053,5.654866695404053,-5.654866695404053,5.654866695404053,-2.8274333477020264,2.8274333477020264,-5.654866695404053,5.654866695404053,-5.654866695404053,5.654866695404053,-5.654866695404053,5.654866695404053,2.094399929046631,2.094399929046631,3.1415998935699463,3.1415998935699463,3.1415998935699463,3.1415998935699463,2.094399929046631,2.094399929046631,3.1415998935699463,3.1415998935699463,3.1415998935699463,3.1415998935699463,0.6603382229804993,0.2182336151599884,0.6090338826179504,-0.1489979326725006,-0.87050461769104,0.46885788440704346,-0.01391574740409851,NA,NA,NA,NA,NA,NA,NA,0.7451295852661133,-0.2362738847732544,0.45156875252723694,-3.748380450474542e-08,0.8575294613838196,0.5144348740577698,-2.248666319815129e-08
19,0.152,0,0,19,0.10896264016628265,-1.5543466806411743,1.656049370765686,-1.520056128501892,-1.8393594026565552,-0.4775221049785614,0.0,-1.5700000524520874,1.5700000524520874,-1.5700000524520874,-1.5700000524520874,0.0,-0.21949082612991333,0.045074962079524994,0.6224952340126038,-0.4233292043209076,-0.9454194903373718,-3.141594409942627,-0.2552834749221802,0.05930178984999657,0.6210319995880127,-0.42457646131515503,-0.9475218653678894,-3.141590118408203,-6.2831854820251465,6.2831854820251465,-6.2831854820251465,6.2831854820251465,-3.1415927410125732,3.1415927410125732,-6.2831854820251465,6.2831854820251465,-6.2831854820251465,6.2831854820251465,-6.2831854820251465,6.2831854820251465,-5.654866695404053,5.654866695404053,-5.654866695404053,5.654866695404053,-2.8274333477020264,2.8274333477020264,-5.654866695404053,5.654866695404053,-5.654866695404053,5.654866695404053,-5.654866695404053,5.654866695404053,2.094399929046631,2.094399929046631,3.1415998935699463,3.1415998935699463,3.1415998935699463,3.1415998935699463,2.094399929046631,2.094399929046631,3.1415998935699463,3.1415998935699463,3.1415998935699463,3.1415998935699463,0.6604626774787903,0.21632999181747437,0.6060202121734619,-0.15276817977428436,-0.875663697719574,0.4579288363456726,-0.013263091444969177,NA,NA,NA,NA,NA,NA,NA,0.7451295852661133,-0.2362738847732544,0.45156875252723694,-3.748380450474542e-08,0.8575294613838196,0.5144348740577698,-2.248666319815129e-08
20,0.16,0,0,20,0.10689718276262283,-1.5539929866790771,1.6610792875289917,-1.5238322019577026,-1.8463891744613647,-0.502655029296875,0.0,-1.5700000524520874,1.5700000524520874,-1.5700000524520874,-1.5700000524520874,0.0,-0.28115931153297424,0.04588054120540619,0.6275726556777954,-0.47287461161613464,-0.879858136177063,-3.1415936946868896,-0.31358200311660767,0.06022176519036293,0.627177357673645,-0.4739200472831726,-0.8817334175109863,-3.141590118408203,-6.2831854820251465,6.2831854820251465,-6.2831854820251465,6.2831854820251465,-3.1415927410125732,3.1415927410125732,-6.2831854820251465,6.2831854820251465,-6.2831854820251465,6.2831854820251465,-6.2831854820251465,6.2831854820251465,-5.654866695404053,5.654866695404053,-5.654866695404053,5.654866695404053,-2.8274333477020264,2.8274333477020264,-5.654866695404053,5.654866695404053,-5.654866695404053,5.654866695404053,-5.654866695404053,5.654866695404053,2.094399929046631,2.094399929046631,3.1415998935699463,3.1415998935699463,3.1415998935699463,3.1415998935699463,2.094399929046631,2.094399929046631,3.1415998935699463,3.1415998935699463,3.1415998935699463,3.1415998935699463,0.6607157588005066,0.21415108442306519,0.6030110120773315,-0.15623748302459717,-0.8805850744247437,0.4472181797027588,-0.012473702430725098,NA,NA,NA,NA,NA,NA,NA,0.7451295852661133,-0.2362738847732544,0.45156875252723694,-3.748380450474542e-08,0.8575294613838196,0.5144348740577698,-2.248666319815129e-08
21,0.168,0,0,21,0.10436777770519257,-1.553627610206604,1.6661485433578491,-1.5279821157455444,-1.8529274463653564,-0.5277862548828125,0.0,-1.5700000524520874,1.5700000524520874,-1.5700000524520874,-1.5700000524520874,0.0,-0.33687129616737366,0.047546759247779846,0.6329436302185059,-0.5194849371910095,-0.818224310874939,-3.141594886779785,-0.3661709427833557,0.06186603754758835,0.6334528923034668,-0.5203501582145691,-0.8198907375335693,-3.141590118408203,-6.2831854820251465,6.2831854820251465,-6.2831854820251465,6.2831854820251465,-3.1415927410125732,3.1415927410125732,-6.2831854820251465,6.2831854820251465,-6.2831854820251465,6.2831854820251465,-6.2831854820251465,6.2831854820251465,-5.654866695404053,5.654866695404053,-5.654866695404053,5.654866695404053,-2.8274333477020264,2.8274333477020264,-5.654866695404053,5.654866695404053,-5.654866695404053,5.654866695404053,-5.654866695404053,5.654866695404053,2.094399929046631,2.094399929046631,3.1415998935699463,3.1415998935699463,3.1415998935699463,3.1415998935699463,2.094399929046631,2.094399929046631,3.1415998935699463,3.1415998935699463,3.1415998935699463,3.1415998935699463,0.6610825657844543,0.2117246836423874,0.5999972224235535,-0.1594252586364746,-0.8852882385253906,0.4367089569568634,-0.011556625366210938,NA,NA,NA,NA,NA,NA,NA,0.7451295852661133,-0.2362738847732544,0.45156875252723694,-3.748380450474542e-08,0.8575294613838196,0.5144348740577698,-2.248666319815129e-08
22,0.176,0,0,22,0.10141948610544205,-1.5532435178756714,1.6712584495544434,-1.5324829816818237,-1.859002709388733,-0.55291748046875,0.0,-1.5700000524520874,1.5700000524520874,-1.5700000524520874,-1.5700000524520874,0.0,-0.3871607780456543,0.04993295669555664,0.6386398673057556,-0.5632810592651367,-0.7602325081825256,-3.1415932178497314,-0.4136011004447937,0.06415604799985886,0.6399599313735962,-0.5639781355857849,-0.7617087364196777,-3.141590118408203,-6.2831854820251465,6.2831854820251465,-6.2831854820251465,6.2831854820251465,-3.1415927410125732,3.1415927410125732,-6.2831854820251465,6.2831854820251465,-6.2831854820251465,6.2831854820251465,-6.2831854820251465,6.2831854820251465,-5.654866695404053,5.654866695404053,-5.654866695404053,5.654866695404053,-2.8274333477020264,2.8274333477020264,-5.654866695404053,5.654866695404053,-5.654866695404053,5.654866695404053,-5.654866695404053,5.654866695404053,2.094399929046631,2.094399929046631,3.1415998935699463,3.1415998935699463,3.1415998935699463,3.1415998935699463,2.094399929046631,2.094399929046631,3.1415998935699463,3.1415998935699463,3.1415998935699463,3.1415998935699463,0.6615508794784546,0.20907597243785858,0.5969703197479248,-0.16234982013702393,-0.8897918462753296,0.42638278007507324,-0.010518908500671387,NA,NA,NA,NA,NA,NA,NA,0.7451295852661133,-0.2362738847732544,0.45156875252723694,-3.748380450474542e-08,0.8575294613838196,0.5144348740577698,-2.248666319815129e-08
23,0.184,0,0,23,0.09809375554323196,-1.5528351068496704,1.6764123439788818,-1.5373129844665527,-1.8646425008773804,-0.5780487060546875,0.0,-1.5700000524520874,1.5700000524520874,-1.5700000524520874,-1.5700000524520874,0.0,-0.4324321448802948,0.052950967103242874,0.644525945186615,-0.6043249368667603,-0.7056808471679688,-3.141592264175415,-0.4562215209007263,0.06694481521844864,0.6465195417404175,-0.6048716902732849,-0.7069829702377319,-3.141590118408203,-6.2831854820251465,6.2831854820251465,-6.2831854820251465,6.2831854820251465,-3.1415927410125732,3.1415927410125732,-6.2831854820251465,6.2831854820251465,-6.2831854820251465,6.2831854820251465,-6.2831854820251465,6.2831854820251465,-5.654866695404053,5.654866695404053,-5.654866695404053,5.654866695404053,-2.8274333477020264,2.8274333477020264,-5.654866695404053,5.654866695404053,-5.654866695404053,5.654866695404053,-5.654866695404053,5.654866695404053,2.094399929046631,2.094399929046631,3.1415998935699463,3.1415998935699463,3.1415998935699463,3.1415998935699463,2.094399929046631,2.094399929046631,3.1415998935699463,3.1415998935699463,3.1415998935699463,3.1415998935699463,0.6621071696281433,0.2062285989522934,0.5939221382141113,-0.16502836346626282,-0.8941118717193604,0.4162231981754303,-0.009367555379867554,NA,NA,NA,NA,NA,NA,NA,0.7451295852661133,-0.2362738847732544,0.45156875252723694,-3.748380450474542e-08,0.8575294613838196,0.5144348740577698,-2.248666319815129e-08
24,0.192,0,0,24,0.09442833811044693,-1.5523992776870728,1.6816109418869019,-1.5424537658691406,-1.8698716163635254,-0.603179931640625,0.0,-1.5700000524520874,1.5700000524520874,-1.5700000524520874,-1.5700000524520874,0.0,-0.4731651544570923,0.05647522583603859,0.650554895401001,-0.642724871635437,-0.6542693376541138,-3.1415927410125732,-0.4945404529571533,0.07013776898384094,0.6531041860580444,-0.6431372761726379,-0.6554145216941833,-3.141590118408203,-6.2831854820251465,6.2831854820251465,-6.2831854820251465,6.2831854820251465,-3.1415927410125732,3.1415927410125732,-6.2831854820251465,6.2831854820251465,-6.2831854820251465,6.2831854820251465,-6.2831854820251465,6.2831854820251465,-5.654866695404053,5.654866695404053,-5.654866695404053,5.654866695404053,-2.8274333477020264,2.8274333477020264,-5.654866695404053,5.654866695404053,-5.654866695404053,5.654866695404053,-5.654866695404053,5.654866695404053,2.094399929046631,2.094399929046631,3.1415998935699463,3.1415998935699463,3.1415998935699463,3.1415998935699463,2.094399929046631,2.094399929046631,3.1415998935699463,3.1415998935699463,3.1415998935699463,3.1415998935699463,0.6627394556999207,0.2032036930322647,0.5908485054969788,-0.16747431457042694,-0.8982626795768738,0.40621495246887207,-0.00811074674129486,NA,NA,NA,NA,NA,NA,NA,0.7451295852661133,-0.2362738847732544,0.45156875252723694,-3.748380450474542e-08,0.8575294613838196,0.5144348740577698,-2.248666319815129e-08
25,0.2,0,0,25,0.0904572606086731,-1.5519317388534546,1.6868560314178467,-1.5478806495666504,-1.8747130632400513,-0.6283111572265625,0.0,-1.5700000524520874,1.5700000524520874,-1.5700000524520874,-1.5700000524520874,0.0,-0.5098276138305664,0.06040755286812782,0.6567150950431824,-0.6786548495292664,-0.6057530045509338,-3.141592264175415,-0.5290273427963257,0.07369539141654968,0.6597362160682678,-0.6789470314979553,-0.6067585945129395,-3.141590118408203,-6.2831854820251465,6.2831854820251465,-6.2831854820251465,6.2831854820251465,-3.1415927410125732,3.1415927410125732,-6.2831854820251465,6.2831854820251465,-6.2831854820251465,6.2831854820251465,-6.2831854820251465,6.2831854820251465,-5.654866695404053,5.654866695404053,-5.654866695404053,5.654866695404053,-2.8274333477020264,2.8274333477020264,-5.654866695404053,5.654866695404053,-5.654866695404053,5.654866695404053,-5.654866695404053,5.654866695404053,2.094399929046631,2.094399929046631,3.1415998935699463,3.1415998935699463,3.1415998935699463,3.1415998935699463,2.094399929046631,2.094399929046631,3.1415998935699463,3.1415998935699463,3.1415998935699463,3.1415998935699463,0.6634366512298584,0.20001961290836334,0.5877434611320496,-0.16970324516296387,-0.9022564888000488,0.3963437080383301,-0.0067528486251831055,NA,NA,NA,NA,NA,NA,NA,0.7451295852661133,-0.2362738847732544,0.45156875252723694,-3.748380450474542e-08,0.8575294613838196,0.5144348740577698,-2.248666319815129e-08
26,0.20800000000000002,0,0,26,0.08621114492416382,-1.551429033279419,1.6921485662460327,-1.5535789728164673,-1.879189372062683,-0.6534423828125,0.0,-1.5700000524520874,1.5700000524520874,-1.5700000524520874,-1.5700000524520874,0.0,-0.5428212881088257,0.06468050926923752,0.6629606485366821,-0.7123345136642456,-0.5599868893623352,-3.141592025756836,-0.5600574612617493,0.07755356281995773,0.6663691401481628,-0.7125207185745239,-0.5608678460121155,-3.141590118408203,-6.2831854820251465,6.2831854820251465,-6.2831854820251465,6.2831854820251465,-3.1415927410125732,3.1415927410125732,-6.2831854820251465,6.2831854820251465,-6.2831854820251465,6.2831854820251465,-6.2831854820251465,6.2831854820251465,-5.654866695404053,5.654866695404053,-5.654866695404053,5.654866695404053,-2.8274333477020264,2.8274333477020264,-5.654866695404053,5.654866695404053,-5.654866695404053,5.654866695404053,-5.654866695404053,5.654866695404053,2.094399929046631,2.094399929046631,3.1415998935699463,3.1415998935699463,3.1415998935699463,3.1415998935699463,2.094399929046631,2.094399929046631,3.1415998935699463,3.1415998935699463,3.1415998935699463,3.1415998935699463,0.6641885638237,0.19669342041015625,0.5846022367477417,-0.17172689735889435,-0.9061048626899719,0.38659507036209106,-0.005301550030708313,NA,NA,NA,NA,NA,NA,NA,0.7451295852661133,-0.2362738847732544,0.45156875252723694,-3.748380450474542e-08,0.8575294613838196,0.5144348740577698,-2.248666319815129e-08
27,0.216,0,0,27,0.08171727508306503,-1.550889253616333,1.6974892616271973,-1.5595293045043945,-1.8833200931549072,-0.6785736083984375,0.0,-1.5700000524520874,1.5700000524520874,-1.5700000524520874,-1.5700000524520874,0.0,-0.5725618600845337,0.0692160427570343,0.6692801117897034,-0.7438885569572449,-0.5167308449745178,-3.1415910720825195,-0.5880464315414429,0.08165469020605087,0.6730100512504578,-0.7439796328544617,-0.5175016522407532,-3.141590118408203,-6.2831854820251465,6.2831854820251465,-6.2831854820251465,6.2831854820251465,-3.1415927410125732,3.1415927410125732,-6.2831854820251465,6.2831854820251465,-6.2831854820251465,6.2831854820251465,-6.2831854820251465,6.2831854820251465,-5.654866695404053,5.654866695404053,-5.654866695404053,5.654866695404053,-2.8274333477020264,2.8274333477020264,-5.654866695404053,5.654866695404053,-5.654866695404053,5.654866695404053,-5.654866695404053,5.654866695404053,2.094399929046631,2.094399929046631,3.1415998935699463,3.1415998935699463,3.1415998935699463,3.1415998935699463,2.094399929046631,2.094399929046631,3.1415998935699463,3.1415998935699463,3.1415998935699463,3.1415998935699463,0.6649852395057678,0.19324028491973877,0.5814218521118164,-0.1735568642616272,-0.9098169207572937,0.37695738673210144,-0.0037621259689331055,NA,NA,NA,NA,NA,NA,NA,0.7451295852661133,-0.2362738847732544,0.45156875252723694,-3.748380450474542e-08,0.8575294613838196,0.5144348740577698,-2.248666319815129e-08
28,0.224,0,0,28,0.07699915766716003,-1.5503113269805908,1.7028782367706299,-1.5657163858413696,-1.8871240615844727,-0.703704833984375,0.0,-1.5700000524520874,1.5700000524520874,-1.5700000524520874,-1.5700000524520874,0.0,-0.599567174911499,0.07392974197864532,0.6756924390792847,-0.7734126448631287,-0.4757954478263855,-3.1415915489196777,-0.6135667562484741,0.08594971895217896,0.6796887516975403,-0.7734227180480957,-0.47647371888160706,-3.141590118408203,-6.2831854820251465,6.2831854820251465,-6.2831854820251465,6.2831854820251465,-3.1415927410125732,3.1415927410125732,-6.2831854820251465,6.2831854820251465,-6.2831854820251465,6.2831854820251465,-6.2831854820251465,6.2831854820251465,-5.654866695404053,5.654866695404053,-5.654866695404053,5.654866695404053,-2.8274333477020264,2.8274333477020264,-5.654866695404053,5.654866695404053,-5.654866695404053,5.654866695404053,-5.654866695404053,5.654866695404053,2.094399929046631,2.094399929046631,3.1415998935699463,3.1415998935699463,3.1415998935699463,3.1415998935699463,2.094399929046631,2.094399929046631,3.1415998935699463,3.1415998935699463,3.1415998935699463,3.1415998935699463,0.6658177375793457,0.18967239558696747,0.5782002210617065,-0.1752026081085205,-0.9134012460708618,0.367419958114624,-0.002141237258911133,NA,NA,NA,NA,NA,NA,NA,0.7451295852661133,-0.2362738847732544,0.45156875252723694,-3.748380450474542e-08,0.8575294613838196,0.5144348740577698,-2.248666319815129e-08
29,0.232,0,0,29,0.07207666337490082,-1.5496939420700073,1.7083173990249634,-1.5721250772476196,-1.8906174898147583,-0.7288360595703125,0.0,-1.5700000524520874,1.5700000524520874,-1.5700000524520874,-1.5700000524520874,0.0,-0.6242374181747437,0.07877439260482788,0.6821756362915039,-0.8010131120681763,-0.43704164028167725,-3.1415915489196777,-0.6369640827178955,0.09038753062486649,0.6863858699798584,-0.800953209400177,-0.43764111399650574,-3.141590118408203,-6.2831854820251465,6.2831854820251465,-6.2831854820251465,6.2831854820251465,-3.1415927410125732,3.1415927410125732,-6.2831854820251465,6.2831854820251465,-6.2831854820251465,6.2831854820251465,-6.2831854820251465,6.2831854820251465,-5.654866695404053,5.654866695404053,-5.654866695404053,5.654866695404053,-2.8274333477020264,2.8274333477020264,-5.654866695404053,5.654866695404053,-5.654866695404053,5.654866695404053,-5.654866695404053,5.654866695404053,2.094399929046631,2.094399929046631,3.1415998935699463,3.1415998935699463,3.1415998935699463,3.1415998935699463,2.094399929046631,2.094399929046631,3.1415998935699463,3.1415998935699463,3.1415998935699463,3.1415998935699463,0.6666783094406128,0.186000257730484,0.5749335289001465,-0.17667372524738312,-0.916864812374115,0.357973575592041,-0.0004428178071975708,NA,NA,NA,NA,NA,NA,NA,0.7451295852661133,-0.2362738847732544,0.45156875252723694,-3.748380450474542e-08,0.8575294613838196,0.5144348740577698,-2.248666319815129e-08
30,0.24,0,0,30,0.06696732342243195,-1.5490347146987915,1.7138068675994873,-1.5787405967712402,-1.8938183784484863,-0.75396728515625,0.0,-1.5700000524520874,1.5700000524520874,-1.5700000524520874,-1.5700000524520874,0.0,-0.6468214988708496,0.08371836692094803,0.6886789202690125,-0.8268062472343445,-0.4003618359565735,-3.141592502593994,-0.6584062576293945,0.09490586072206497,0.6930503845214844,-0.8266856074333191,-0.40089190006256104,-3.141590118408203,-6.2831854820251465,6.2831854820251465,-6.2831854820251465,6.2831854820251465,-3.1415927410125732,3.1415927410125732,-6.2831854820251465,6.2831854820251465,-6.2831854820251465,6.2831854820251465,-6.2831854820251465,6.2831854820251465,-5.654866695404053,5.654866695404053,-5.654866695404053,5.654866695404053,-2.8274333477020264,2.8274333477020264,-5.654866695404053,5.654866695404053,-5.654866695404053,5.654866695404053,-5.654866695404053,5.654866695404053,2.094399929046631,2.094399929046631,3.1415998935699463,3.1415998935699463,3.1415998935699463,3.1415998935699463,2.094399929046631,2.094399929046631,3.1415998935699463,3.1415998935699463,3.1415998935699463,3.1415998935699463,0.6675600409507751,0.18223293125629425,0.5716201066970825,-0.17797978222370148,-0.9202134013175964,0.3486095666885376,0.0013277381658554077,NA,NA,NA,NA,NA,NA,NA,0.7451295852661133,-0.2362738847732544,0.45156875252723694,-3.748380450474542e-08,0.8575294613838196,0.5144348740577698,-2.248666319815129e-08
31,0.248,0,0,31,0.06168650835752487,-1.5483357906341553,1.7193467617034912,-1.585549235343933,-1.8967409133911133,-0.7790985107421875,0.0,-1.5700000524520874,1.5700000524520874,-1.5700000524520874,-1.5700000524520874,0.0,-0.6675828099250793,0.08871761709451675,0.6951791644096375,-0.8509476780891418,-0.3656338155269623,-3.141592025756836,-0.6781615018844604,0.09946323186159134,0.6996610164642334,-0.8507766723632812,-0.36610397696495056,-3.141590118408203,-6.2831854820251465,6.2831854820251465,-6.2831854820251465,6.2831854820251465,-3.1415927410125732,3.1415927410125732,-6.2831854820251465,6.2831854820251465,-6.2831854820251465,6.2831854820251465,-6.2831854820251465,6.2831854820251465,-5.654866695404053,5.654866695404053,-5.654866695404053,5.654866695404053,-2.8274333477020264,2.8274333477020264,-5.654866695404053,5.654866695404053,-5.654866695404053,5.654866695404053,-5.654866695404053,5.654866695404053,2.094399929046631,2.094399929046631,3.1415998935699463,3.1415998935699463,3.1415998935699463,3.1415998935699463,2.094399929046631,2.094399929046631,3.1415998935699463,3.1415998935699463,3.1415998935699463,3.1415998935699463,0.6684551239013672,0.1783779263496399,0.5682603120803833,-0.1791272759437561,-0.9234525561332703,0.3393208980560303,0.003165125846862793,NA,NA,NA,NA,NA,NA,NA,0.7451295852661133,-0.2362738847732544,0.45156875252723694,-3.748380450474542e-08,0.8575294613838196,0.5144348740577698,-2.248666319815129e-08
32,0.256,0,0,32,0.0562480092048645,-1.5475940704345703,1.7249369621276855,-1.5925402641296387,-1.8994026184082031,-0.804229736328125,0.0,-1.5700000524520874,1.5700000524520874,-1.5700000524520874,-1.5700000524520874,0.0,-0.6866840124130249,0.09374426305294037,0.7016154527664185,-0.8736956715583801,-0.3329262435436249,-3.1415908336639404,-0.6963485479354858,0.10400112718343735,0.706143319606781,-0.8734833598136902,-0.3333441913127899,-3.141590118408203,-6.2831854820251465,6.2831854820251465,-6.2831854820251465,6.2831854820251465,-3.1415927410125732,3.1415927410125732,-6.2831854820251465,6.2831854820251465,-6.2831854820251465,6.2831854820251465,-6.2831854820251465,6.2831854820251465,-5.654866695404053,5.654866695404053,-5.654866695404053,5.654866695404053,-2.8274333477020264,2.8274333477020264,-5.654866695404053,5.654866695404053,-5.654866695404053,5.654866695404053,-5.654866695404053,5.654866695404053,2.094399929046631,2.094399929046631,3.1415998935699463,3.1415998935699463,3.1415998935699463,3.1415998935699463,2.094399929046631,2.094399929046631,3.1415998935699463,3.1415998935699463,3.1415998935699463,3.1415998935699463,0.6693585515022278,0.17444264888763428,0.5648503303527832,-0.1801254004240036,-0.9265870451927185,0.330099493265152,0.005065113306045532,NA,NA,NA,NA,NA,NA,NA,0.7451295852661133,-0.2362738847732544,0.45156875252723694,-3.748380450474542e-08,0.8575294613838196,0.5144348740577698,-2.248666319815129e-08
33,0.264,0,0,33,0.05066381394863129,-1.5468127727508545,1.7305768728256226,-1.5997048616409302,-1.9018174409866333,-0.8293609619140625,0.0,-1.5700000524520874,1.5700000524520874,-1.5700000524520874,-1.5700000524520874,0.0,-0.7043837308883667,0.09872175008058548,0.7079904675483704,-0.8951417207717896,-0.30205637216567993,-3.141592025756836,-0.7132558822631836,0.10845335572957993,0.7125105261802673,-0.8948975205421448,-0.3024307191371918,-3.141590118408203,-6.2831854820251465,6.2831854820251465,-6.2831854820251465,6.2831854820251465,-3.1415927410125732,3.1415927410125732,-6.2831854820251465,6.2831854820251465,-6.2831854820251465,6.2831854820251465,-6.2831854820251465,6.2831854820251465,-5.654866695404053,5.654866695404053,-5.654866695404053,5.654866695404053,-2.8274333477020264,2.8274333477020264,-5.654866695404053,5.654866695404053,-5.654866695404053,5.654866695404053,-5.654866695404053,5.654866695404053,2.094399929046631,2.094399929046631,3.1415998935699463,3.1415998935699463,3.1415998935699463,3.1415998935699463,2.094399929046631,2.094399929046631,3.1415998935699463,3.1415998935699463,3.1415998935699463,3.1415998935699463,0.6702643036842346,0.17043223977088928,0.5613939762115479,-0.18097934126853943,-0.9296202659606934,0.3209412097930908,0.007019549608230591,NA,NA,NA,NA,NA,NA,NA,0.7451295852661133,-0.2362738847732544,0.45156875252723694,-3.748380450474542e-08,0.8575294613838196,0.5144348740577698,-2.248666319815129e-08
34,0.272,0,0,34,0.044944435358047485,-1.545991063117981,1.7362663745880127,-1.6070306301116943,-1.90399968624115,-0.8544921875,0.0,-1.5700000524520874,1.5700000524520874,-1.5700000524520874,-1.5700000524520874,0.0,-0.7208213806152344,0.1036209911108017,0.7142652273178101,-0.9153534173965454,-0.2729412019252777,-3.1415915489196777,-0.7289714217185974,0.11280109733343124,0.7187380194664001,-0.9150843620300293,-0.2732774317264557,-3.141590118408203,-6.2831854820251465,6.2831854820251465,-6.2831854820251465,6.2831854820251465,-3.1415927410125732,3.1415927410125732,-6.2831854820251465,6.2831854820251465,-6.2831854820251465,6.2831854820251465,-6.2831854820251465,6.2831854820251465,-5.654866695404053,5.654866695404053,-5.654866695404053,5.654866695404053,-2.8274333477020264,2.8274333477020264,-5.654866695404053,5.654866695404053,-5.654866695404053,5.654866695404053,-5.654866695404053,5.654866695404053,2.094399929046631,2.094399929046631,3.1415998935699463,3.1415998935699463,3.1415998935699463,3.1415998935699463,2.094399929046631,2.094399929046631,3.1415998935699463,3.1415998935699463,3.1415998935699463,3.1415998935699463,0.6711666584014893,0.1663527637720108,0.5578898191452026,-0.1816965639591217,-0.9325562715530396,0.31183916330337524,0.009025007486343384,NA,NA,NA,NA,NA,NA,NA,0.7451295852661133,-0.2362738847732544,0.45156875252723694,-3.748380450474542e-08,0.8575294613838196,0.5144348740577698,-2.248666319815129e-08
35,0.28,0,0,35,0.03909922018647194,-1.5451281070709229,1.7420040369033813,-1.6145094633102417,-1.905961275100708,-0.8796234130859375,0.0,-1.5700000524520874,1.5700000524520874,-1.5700000524520874,-1.5700000524520874,0.0,-0.7361493706703186,0.10839776694774628,0.7204075455665588,-0.9344379901885986,-0.2455071061849594,-3.1415913105010986,-0.7436520457267761,0.11698583513498306,0.7247823476791382,-0.9341520667076111,-0.24581128358840942,-3.141590118408203,-6.2831854820251465,6.2831854820251465,-6.2831854820251465,6.2831854820251465,-3.1415927410125732,3.1415927410125732,-6.2831854820251465,6.2831854820251465,-6.2831854820251465,6.2831854820251465,-6.2831854820251465,6.2831854820251465,-5.654866695404053,5.654866695404053,-5.654866695404053,5.654866695404053,-2.8274333477020264,2.8274333477020264,-5.654866695404053,5.654866695404053,-5.654866695404053,5.654866695404053,-5.654866695404053,5.654866695404053,2.094399929046631,2.094399929046631,3.1415998935699463,3.1415998935699463,3.1415998935699463,3.1415998935699463,2.094399929046631,2.094399929046631,3.1415998935699463,3.1415998935699463,3.1415998935699463,3.1415998935699463,0.6720622181892395,0.16220785677433014,0.5543380975723267,-0.18228211998939514,-0.935397744178772,0.30278968811035156,0.011076420545578003,NA,NA,NA,NA,NA,NA,NA,0.7451295852661133,-0.2362738847732544,0.45156875252723694,-3.748380450474542e-08,0.8575294613838196,0.5144348740577698,-2.248666319815129e-08
36,0.28800000000000003,0,0,36,0.033136460930109024,-1.544227123260498,1.7477891445159912,-1.6221328973770142,-1.9077168703079224,-0.904754638671875,0.0,-1.5700000524520874,1.5700000524520874,-1.5700000524520874,-1.5700000524520874,0.0,-0.7504808306694031,0.11300165951251984,0.7263969779014587,-0.9524457454681396,-0.2196744680404663,-3.141589879989624,-0.7573860883712769,0.12095298618078232,0.7306312322616577,-0.9521487355232239,-0.21995121240615845,-3.141590118408203,-6.2831854820251465,6.2831854820251465,-6.2831854820251465,6.2831854820251465,-3.1415927410125732,3.1415927410125732,-6.2831854820251465,6.2831854820251465,-6.2831854820251465,6.2831854820251465,-6.2831854820251465,6.2831854820251465,-5.654866695404053,5.654866695404053,-5.654866695404053,5.654866695404053,-2.8274333477020264,2.8274333477020264,-5.654866695404053,5.654866695404053,-5.654866695404053,5.654866695404053,-5.654866695404053,5.654866695404053,2.094399929046631,2.094399929046631,3.1415998935699463,3.1415998935699463,3.1415998935699463,3.1415998935699463,2.094399929046631,2.094399929046631,3.1415998935699463,3.1415998935699463,3.1415998935699463,3.1415998935699463,0.672944962978363,0.15800201892852783,0.5507403016090393,-0.18274284899234772,-0.9381473064422607,0.2937875986099243,0.013167962431907654,NA,NA,NA,NA,NA,NA,NA,0.7451295852661133,-0.2362738847732544,0.45156875252723694,-3.748380450474542e-08,0.8575294613838196,0.5144348740577698,-2.248666319815129e-08
37,0.296,0,0,37,0.02706350013613701,-1.543290376663208,1.7536201477050781,-1.6298933029174805,-1.9092789888381958,-0.9298858642578125,0.0,-1.5700000524520874,1.5700000524520874,-1.5700000524520874,-1.5700000524520874,0.0,-0.7639369964599609,0.11739272624254227,0.7322017550468445,-0.9694411158561707,-0.19534558057785034,-3.141591787338257,-0.7703019380569458,0.12467099726200104,0.7362531423568726,-0.9691404700279236,-0.19559966027736664,-3.141590118408203,-6.2831854820251465,6.2831854820251465,-6.2831854820251465,6.2831854820251465,-3.1415927410125732,3.1415927410125732,-6.2831854820251465,6.2831854820251465,-6.2831854820251465,6.2831854820251465,-6.2831854820251465,6.2831854820251465,-5.654866695404053,5.654866695404053,-5.654866695404053,5.654866695404053,-2.8274333477020264,2.8274333477020264,-5.654866695404053,5.654866695404053,-5.654866695404053,5.654866695404053,-5.654866695404053,5.654866695404053,2.094399929046631,2.094399929046631,3.1415998935699463,3.1415998935699463,3.1415998935699463,3.1415998935699463,2.094399929046631,2.094399929046631,3.1415998935699463,3.1415998935699463,3.1415998935699463,3.1415998935699463,0.6738107800483704,0.15373854339122772,0.5471002459526062,-0.18308305740356445,-0.9408073425292969,0.2848299741744995,0.015293240547180176,NA,NA,NA,NA,NA,NA,NA,0.7451295852661133,-0.2362738847732544,0.45156875252723694,-3.748380450474542e-08,0.8575294613838196,0.5144348740577698,-2.248666319815129e-08
38,0.304,0,0,38,0.020886845886707306,-1.5423191785812378,1.759495735168457,-1.6377805471420288,-1.9106577634811401,-0.95501708984375,0.0,-1.5700000524520874,1.5700000524520874,-1.5700000524520874,-1.5700000524520874,0.0,-0.7766174077987671,0.12153514474630356,0.7378027439117432,-0.9854613542556763,-0.17242300510406494,-3.1415913105010986,-0.7824869751930237,0.1281144917011261,0.7416403889656067,-0.9851628541946411,-0.17265811562538147,-3.141590118408203,-6.2831854820251465,6.2831854820251465,-6.2831854820251465,6.2831854820251465,-3.1415927410125732,3.1415927410125732,-6.2831854820251465,6.2831854820251465,-6.2831854820251465,6.2831854820251465,-6.2831854820251465,6.2831854820251465,-5.654866695404053,5.654866695404053,-5.654866695404053,5.654866695404053,-2.8274333477020264,2.8274333477020264,-5.654866695404053,5.654866695404053,-5.654866695404053,5.654866695404053,-5.654866695404053,5.654866695404053,2.094399929046631,2.094399929046631,3.1415998935699463,3.1415998935699463,3.1415998935699463,3.1415998935699463,2.094399929046631,2.094399929046631,3.1415998935699463,3.1415998935699463,3.1415998935699463,3.1415998935699463,0.6746553182601929,0.14942032098770142,0.5434182286262512,-0.18330837786197662,-0.9433797597885132,0.27591317892074585,0.017449185252189636,NA,NA,NA,NA,NA,NA,NA,0.7451295852661133,-0.2362738847732544,0.45156875252723694,-3.748380450474542e-08,0.8575294613838196,0.5144348740577698,-2.248666319815129e-08
39,0.312,0,0,39,0.01461226586252451,-1.5413159132003784,1.7654142379760742,-1.645788550376892,-1.9118638038635254,-0.9801483154296875,0.0,-1.5700000524520874,1.5700000524520874,-1.5700000524520874,-1.5700000524520874,0.0,-0.7886041402816772,0.12539228796958923,0.7431705594062805,-1.0005754232406616,-0.1508762389421463,-3.1415903568267822,-0.7940167188644409,0.13123422861099243,0.7467542886734009,-1.0002851486206055,-0.1510958969593048,-3.141590118408203,-6.2831854820251465,6.2831854820251465,-6.2831854820251465,6.2831854820251465,-3.1415927410125732,3.1415927410125732,-6.2831854820251465,6.2831854820251465,-6.2831854820251465,6.2831854820251465,-6.2831854820251465,6.2831854820251465,-5.654866695404053,5.654866695404053,-5.654866695404053,5.654866695404053,-2.8274333477020264,2.8274333477020264,-5.654866695404053,5.654866695404053,-5.654866695404053,5.654866695404053,-5.654866695404053,5.654866695404053,2.094399929046631,2.094399929046631,3.1415998935699463,3.1415998935699463,3.1415998935699463,3.1415998935699463,2.094399929046631,2.094399929046631,3.1415998935699463,3.1415998935699463,3.1415998935699463,3.1415998935699463,0.6754744052886963,0.14505009353160858,0.5396970510482788,-0.18342280387878418,-0.9458664655685425,0.2670341730117798,0.019630074501037598,NA,NA,NA,NA,NA,NA,NA,0.7451295852661133,-0.2362738847732544,0.45156875252723694,-3.748380450474542e-08,0.8575294613838196,0.5144348740577698,-2.248666319815129e-08
40,0.32,0,0,40,0.00824486743658781,-1.5402816534042358,1.7713735103607178,-1.6539106369018555,-1.912908673286438,-1.005279541015625,0.0,-1.5700000524520874,1.5700000524520874,-1.5700000524520874,-1.5700000524520874,0.0,-0.7999836802482605,0.1289261430501938,0.7482851147651672,-1.0148121118545532,-0.13062766194343567,-3.1415913105010986,-0.8049774169921875,0.13400107622146606,0.7515830993652344,-1.0145353078842163,-0.13083545863628387,-3.141590118408203,-6.2831854820251465,6.2831854820251465,-6.2831854820251465,6.2831854820251465,-3.1415927410125732,3.1415927410125732,-6.2831854820251465,6.2831854820251465,-6.2831854820251465,6.2831854820251465,-6.2831854820251465,6.2831854820251465,-5.654866695404053,5.654866695404053,-5.654866695404053,5.654866695404053,-2.8274333477020264,2.8274333477020264,-5.654866695404053,5.654866695404053,-5.654866695404053,5.654866695404053,-5.654866695404053,5.654866695404053,2.094399929046631,2.094399929046631,3.1415998935699463,3.1415998935699463,3.1415998935699463,3.1415998935699463,2.094399929046631,2.094399929046631,3.1415998935699463,3.1415998935699463,3.1415998935699463,3.1415998935699463,0.6762653589248657,0.14063066244125366,0.5359402894973755,-0.18343135714530945,-0.9482688903808594,0.2581905722618103,0.021830767393112183,NA,NA,NA,NA,NA,NA,NA,0.7451295852661133,-0.2362738847732544,0.45156875252723694,-3.748380450474542e-08,0.8575294613838196,0.5144348740577698,-2.248666319815129e-08
41,0.328,0,0,41,0.0017890830058604479,-1.5392202138900757,1.7773716449737549,-1.6621400117874146,-1.9138013124465942,-1.0304107666015625,0.0,-1.5700000524520874,1.5700000524520874,-1.5700000524520874,-1.5700000524520874,0.0,-0.8108359575271606,0.1321018934249878,0.7531256079673767,-1.0282164812088013,-0.11159245669841766,-3.1415910720825195,-0.8154460787773132,0.13638238608837128,0.7561060190200806,-1.0279580354690552,-0.11179141700267792,-3.141590118408203,-6.2831854820251465,6.2831854820251465,-6.2831854820251465,6.2831854820251465,-3.1415927410125732,3.1415927410125732,-6.2831854820251465,6.2831854820251465,-6.2831854820251465,6.2831854820251465,-6.2831854820251465,6.2831854820251465,-5.654866695404053,5.654866695404053,-5.654866695404053,5.654866695404053,-2.8274333477020264,2.8274333477020264,-5.654866695404053,5.654866695404053,-5.654866695404053,5.654866695404053,-5.654866695404053,5.654866695404053,2.094399929046631,2.094399929046631,3.1415998935699463,3.1415998935699463,3.1415998935699463,3.1415998935699463,2.094399929046631,2.094399929046631,3.1415998935699463,3.1415998935699463,3.1415998935699463,3.1415998935699463,0.6770239472389221,0.13616353273391724,0.5321498513221741,-0.18333785235881805,-0.9505882859230042,0.24938063323497772,0.024046555161476135,NA,NA,NA,NA,NA,NA,NA,0.7451295852661133,-0.2362738847732544,0.45156875252723694,-3.748380450474542e-08,0.8575294613838196,0.5144348740577698,-2.248666319815129e-08
42,0.336,0,0,42,-0.004751150496304035,-1.5381343364715576,1.7834062576293945,-1.6704707145690918,-1.914549469947815,-1.0555419921875,0.0,-1.5700000524520874,1.5700000524520874,-1.5700000524520874,-1.5700000524520874,0.0,-0.8212153315544128,0.13489046692848206,0.7576598525047302,-1.0408114194869995,-0.09373361617326736,-3.141589879989624,-0.8254659175872803,0.1383453607559204,0.7602913975715637,-1.0405770540237427,-0.0939263254404068,-3.141590118408203,-6.2831854820251465,6.2831854820251465,-6.2831854820251465,6.2831854820251465,-3.1415927410125732,3.1415927410125732,-6.2831854820251465,6.2831854820251465,-6.2831854820251465,6.2831854820251465,-6.2831854820251465,6.2831854820251465,-5.654866695404053,5.654866695404053,-5.654866695404053,5.654866695404053,-2.8274333477020264,2.8274333477020264,-5.654866695404053,5.654866695404053,-5.654866695404053,5.654866695404053,-5.654866695404053,5.654866695404053,2.094399929046631,2.094399929046631,3.1415998935699463,3.1415998935699463,3.1415998935699463,3.1415998935699463,2.094399929046631,2.094399929046631,3.1415998935699463,3.1415998935699463,3.1415998935699463,3.1415998935699463,0.6777474284172058,0.13165134191513062,0.5283304452896118,-0.1831454634666443,-0.9528263211250305,0.24060237407684326,0.026271820068359375,NA,NA,NA,NA,NA,NA,NA,0.7451295852661133,-0.2362738847732544,0.45156875252723694,-3.748380450474542e-08,0.8575294613838196,0.5144348740577698,-2.248666319815129e-08
43,0.34400000000000003,0,0,43,-0.011372469365596771,-1.5370272397994995,1.7894752025604248,-1.678896188735962,-1.9151644706726074,-1.0806732177734375,0.0,-1.5700000524520874,1.5700000524520874,-1.5700000524520874,-1.5700000524520874,0.0,-0.8312013745307922,0.13726012408733368,0.7618785500526428,-1.052611231803894,-0.076973095536232,-3.141590118408203,-0.8351283669471741,0.13987615704536438,0.7641398906707764,-1.0524041652679443,-0.07716228067874908,-3.141590118408203,-6.2831854820251465,6.2831854820251465,-6.2831854820251465,6.2831854820251465,-3.1415927410125732,3.1415927410125732,-6.2831854820251465,6.2831854820251465,-6.2831854820251465,6.2831854820251465,-6.2831854820251465,6.2831854820251465,-5.654866695404053,5.654866695404053,-5.654866695404053,5.654866695404053,-2.8274333477020264,2.8274333477020264,-5.654866695404053,5.654866695404053,-5.654866695404053,5.654866695404053,-5.654866695404053,5.654866695404053,2.094399929046631,2.094399929046631,3.1415998935699463,3.1415998935699463,3.1415998935699463,3.1415998935699463,2.094399929046631,2.094399929046631,3.1415998935699463,3.1415998935699463,3.1415998935699463,3.1415998935699463,0.6784318089485168,0.1270955204963684,0.5244849324226379,-0.18286019563674927,-0.9549834132194519,0.23185394704341888,0.028502628207206726,NA,NA,NA,NA,NA,NA,NA,0.7451295852661133,-0.2362738847732544,0.45156875252723694,-3.748380450474542e-08,0.8575294613838196,0.5144348740577698,-2.248666319815129e-08
44,0.352,0,0,44,-0.01807197369635105,-1.5359026193618774,1.795575499534607,-1.687409520149231,-1.9156532287597656,-1.105804443359375,0.0,-1.5700000524520874,1.5700000524520874,-1.5700000524520874,-1.5700000524520874,0.0,-0.8408397436141968,0.13918937742710114,0.7657431364059448,-1.0636632442474365,-0.06127152964472771,-3.141589879989624,-0.8444650769233704,0.14093928039073944,0.7676026821136475,-1.0634902715682983,-0.06145958602428436,-3.141590118408203,-6.2831854820251465,6.2831854820251465,-6.2831854820251465,6.2831854820251465,-3.1415927410125732,3.1415927410125732,-6.2831854820251465,6.2831854820251465,-6.2831854820251465,6.2831854820251465,-6.2831854820251465,6.2831854820251465,-5.654866695404053,5.654866695404053,-5.654866695404053,5.654866695404053,-2.8274333477020264,2.8274333477020264,-5.654866695404053,5.654866695404053,-5.654866695404053,5.654866695404053,-5.654866695404053,5.654866695404053,2.094399929046631,2.094399929046631,3.1415998935699463,3.1415998935699463,3.1415998935699463,3.1415998935699463,2.094399929046631,2.094399929046631,3.1415998935699463,3.1415998935699463,3.1415998935699463,3.1415998935699463,0.6790749430656433,0.12249740958213806,0.5206185579299927,-0.18248435854911804,-0.9570611715316772,0.22313420474529266,0.03073383867740631,NA,NA,NA,NA,NA,NA,NA,0.7451295852661133,-0.2362738847732544,0.45156875252723694,-3.748380450474542e-08,0.8575294613838196,0.5144348740577698,-2.248666319815129e-08
45,0.36,0,0,45,-0.02484721690416336,-1.5347633361816406,1.8017040491104126,-1.69600510597229,-1.916025161743164,-1.1309356689453125,0.0,-1.5700000524520874,1.5700000524520874,-1.5700000524520874,-1.5700000524520874,0.0,-0.8501945734024048,0.14065499603748322,0.7692447304725647,-1.073983907699585,-0.04655372351408005,-3.1415913105010986,-0.8535467982292175,0.1415337175130844,0.7706863880157471,-1.0738476514816284,-0.04674278199672699,-3.141590118408203,-6.2831854820251465,6.2831854820251465,-6.2831854820251465,6.2831854820251465,-3.1415927410125732,3.1415927410125732,-6.2831854820251465,6.2831854820251465,-6.2831854820251465,6.2831854820251465,-6.2831854820251465,6.2831854820251465,-5.654866695404053,5.654866695404053,-5.654866695404053,5.654866695404053,-2.8274333477020264,2.8274333477020264,-5.654866695404053,5.654866695404053,-5.654866695404053,5.654866695404053,-5.654866695404053,5.654866695404053,2.094399929046631,2.094399929046631,3.1415998935699463,3.1415998935699463,3.1415998935699463,3.1415998935699463,2.094399929046631,2.094399929046631,3.1415998935699463,3.1415998935699463,3.1415998935699463,3.1415998935699463,0.6796736121177673,0.11785836517810822,0.5167344212532043,-0.18202254176139832,-0.9590598344802856,0.21444229781627655,0.03296118974685669,NA,NA,NA,NA,NA,NA,NA,0.7451295852661133,-0.2362738847732544,0.45156875252723694,-3.748380450474542e-08,0.8575294613838196,0.5144348740577698,-2.248666319815129e-08
46,0.368,0,0,46,-0.03169628232717514,-1.5336138010025024,1.8078588247299194,-1.7046773433685303,-1.9162847995758057,-1.15606689453125,0.0,-1.5700000524520874,1.5700000524520874,-1.5700000524520874,-1.5700000524520874,0.0,-0.8593341112136841,0.14167270064353943,0.7723569273948669,-1.0835715532302856,-0.03272142633795738,-3.1415910720825195,-0.8624526858329773,0.14171357452869415,0.7733816504478455,-1.083475112915039,-0.032913558185100555,-3.141590118408203,-6.2831854820251465,6.2831854820251465,-6.2831854820251465,6.2831854820251465,-3.1415927410125732,3.1415927410125732,-6.2831854820251465,6.2831854820251465,-6.2831854820251465,6.2831854820251465,-6.2831854820251465,6.2831854820251465,-5.654866695404053,5.654866695404053,-5.654866695404053,5.654866695404053,-2.8274333477020264,2.8274333477020264,-5.654866695404053,5.654866695404053,-5.654866695404053,5.654866695404053,-5.654866695404053,5.654866695404053,2.094399929046631,2.094399929046631,3.1415998935699463,3.1415998935699463,3.1415998935699463,3.1415998935699463,2.094399929046631,2.094399929046631,3.1415998935699463,3.1415998935699463,3.1415998935699463,3.1415998935699463,0.6802249550819397,0.11317962408065796,0.5128370523452759,-0.18147771060466766,-0.9609804749488831,0.20577776432037354,0.035180285573005676,NA,NA,NA,NA,NA,NA,NA,0.7451295852661133,-0.2362738847732544,0.45156875252723694,-3.748380450474542e-08,0.8575294613838196,0.5144348740577698,-2.248666319815129e-08
47,0.376,0,0,47,-0.03861761838197708,-1.5324580669403076,1.8140358924865723,-1.7134225368499756,-1.9164420366287231,-1.1811981201171875,0.0,-1.5700000524520874,1.5700000524520874,-1.5700000524520874,-1.5700000524520874,0.0,-0.8682901859283447,0.14227120578289032,0.7750687599182129,-1.0924855470657349,-0.019769692793488503,-3.1415915489196777,-0.8712005019187927,0.14151939749717712,0.7756862640380859,-1.0924280881881714,-0.01996573805809021,-3.141590118408203,-6.2831854820251465,6.2831854820251465,-6.2831854820251465,6.2831854820251465,-3.1415927410125732,3.1415927410125732,-6.2831854820251465,6.2831854820251465,-6.2831854820251465,6.2831854820251465,-6.2831854820251465,6.2831854820251465,-5.654866695404053,5.654866695404053,-5.654866695404053,5.654866695404053,-2.8274333477020264,2.8274333477020264,-5.654866695404053,5.654866695404053,-5.654866695404053,5.654866695404053,-5.654866695404053,5.654866695404053,2.094399929046631,2.094399929046631,3.1415998935699463,3.1415998935699463,3.1415998935699463,3.1415998935699463,2.094399929046631,2.094399929046631,3.1415998935699463,3.1415998935699463,3.1415998935699463,3.1415998935699463,0.6807272434234619,0.10846208781003952,0.5089322924613953,-0.18085362017154694,-0.9628239870071411,0.1971401870250702,0.037384673953056335,NA,NA,NA,NA,NA,NA,NA,0.7451295852661133,-0.2362738847732544,0.45156875252723694,-3.748380450474542e-08,0.8575294613838196,0.5144348740577698,-2.248666319815129e-08
48,0.384,0,0,48,-0.04560992866754532,-1.5312985181808472,1.8202322721481323,-1.722232460975647,-1.9165031909942627,-1.206329345703125,0.0,-1.5700000524520874,1.5700000524520874,-1.5700000524520874,-1.5700000524520874,0.0,-0.8770908117294312,0.14249642193317413,0.7774243354797363,-1.100786566734314,-0.007660853676497936,-3.141591787338257,-0.8798165917396545,0.14104752242565155,0.7776844501495361,-1.1007651090621948,-0.007860369980335236,-3.141590118408203,-6.2831854820251465,6.2831854820251465,-6.2831854820251465,6.2831854820251465,-3.1415927410125732,3.1415927410125732,-6.2831854820251465,6.2831854820251465,-6.2831854820251465,6.2831854820251465,-6.2831854820251465,6.2831854820251465,-5.654866695404053,5.654866695404053,-5.654866695404053,5.654866695404053,-2.8274333477020264,2.8274333477020264,-5.654866695404053,5.654866695404053,-5.654866695404053,5.654866695404053,-5.654866695404053,5.654866695404053,2.094399929046631,2.094399929046631,3.1415998935699463,3.1415998935699463,3.1415998935699463,3.1415998935699463,2.094399929046631,2.094399929046631,3.1415998935699463,3.1415998935699463,3.1415998935699463,3.1415998935699463,0.6811781525611877,0.10370579361915588,0.5050229430198669,-0.18015465140342712,-0.9645905494689941,0.18852907419204712,0.03957279026508331,NA,NA,NA,NA,NA,NA,NA,0.7451295852661133,-0.2362738847732544,0.45156875252723694,-3.748380450474542e-08,0.8575294613838196,0.5144348740577698,-2.248666319815129e-08
49,0.392,0,0,49,-0.05267179757356644,-1.5301382541656494,1.8264451026916504,-1.7311049699783325,-1.9164727926254272,-1.2314605712890625,0.0,-1.5700000524520874,1.5700000524520874,-1.5700000524520874,-1.5700000524520874,0.0,-0.8857088685035706,0.14237895607948303,0.7793595194816589,-1.1085591316223145,0.003531284863129258,-3.1415927410125732,-0.8882476687431335,0.14023353159427643,0.7792455554008484,-1.1085766553878784,0.0033282062504440546,-3.141590118408203,-6.2831854820251465,6.2831854820251465,-6.2831854820251465,6.2831854820251465,-3.1415927410125732,3.1415927410125732,-6.2831854820251465,6.2831854820251465,-6.2831854820251465,6.2831854820251465,-6.2831854820251465,6.2831854820251465,-5.654866695404053,5.654866695404053,-5.654866695404053,5.654866695404053,-2.8274333477020264,2.8274333477020264,-5.654866695404053,5.654866695404053,-5.654866695404053,5.654866695404053,-5.654866695404053,5.654866695404053,2.094399929046631,2.094399929046631,3.1415998935699463,3.1415998935699463,3.1415998935699463,3.1415998935699463,2.094399929046631,2.094399929046631,3.1415998935699463,3.1415998935699463,3.1415998935699463,3.1415998935699463,0.6815757751464844,0.09891294687986374,0.5011139512062073,-0.17938292026519775,-0.9662812948226929,0.17994409799575806,0.04173910617828369,NA,NA,NA,NA,NA,NA,NA,0.7451295852661133,-0.2362738847732544,0.45156875252723694,-3.748380450474542e-08,0.8575294613838196,0.5144348740577698,-2.248666319815129e-08
50,0.4,0,0,50,-0.05980202928185463,-1.5289802551269531,1.8326712846755981,-1.740034818649292,-1.916358470916748,-1.256591796875,0.0,-1.5700000524520874,1.5700000524520874,-1.5700000524520874,-1.5700000524520874,0.0,-0.8941934704780579,0.14190420508384705,0.780860185623169,-1.115797519683838,0.013883917592465878,-3.141589879989624,-0.8965693712234497,0.13906174898147583,0.780360758304596,-1.1158572435379028,0.013675639405846596,-3.141590118408203,-6.2831854820251465,6.2831854820251465,-6.2831854820251465,6.2831854820251465,-3.1415927410125732,3.1415927410125732,-6.2831854820251465,6.2831854820251465,-6.2831854820251465,6.2831854820251465,-6.2831854820251465,6.2831854820251465,-5.654866695404053,5.654866695404053,-5.654866695404053,5.654866695404053,-2.8274333477020264,2.8274333477020264,-5.654866695404053,5.654866695404053,-5.654866695404053,5.654866695404053,-5.654866695404053,5.654866695404053,2.094399929046631,2.094399929046631,3.1415998935699463,3.1415998935699463,3.1415998935699463,3.1415998935699463,2.094399929046631,2.094399929046631,3.1415998935699463,3.1415998935699463,3.1415998935699463,3.1415998935699463,0.6819190979003906,0.09408420324325562,0.4972091317176819,-0.17854313552379608,-0.9678965210914612,0.17138539254665375,0.043880462646484375,NA,NA,NA,NA,NA,NA,NA,0.7451295852661133,-0.2362738847732544,0.45156875252723694,-3.748380450474542e-08,0.8575294613838196,0.5144348740577698,-2.248666319815129e-08
51,0.40800000000000003,0,0,51,-0.0669996440410614,-1.5278273820877075,1.8389064073562622,-1.7490184307098389,-1.9161678552627563,-1.2817230224609375,0.0,-1.5700000524520874,1.5700000524520874,-1.5700000524520874,-1.5700000524520874,0.0,-0.9025610089302063,0.14106275141239166,0.781884491443634,-1.1225531101226807,0.023416945710778236,-3.1415908336639404,-0.9047837853431702,0.13750304281711578,0.7809725999832153,-1.1226592063903809,0.02320215478539467,-3.141590118408203,-6.2831854820251465,6.2831854820251465,-6.2831854820251465,6.2831854820251465,-3.1415927410125732,3.1415927410125732,-6.2831854820251465,6.2831854820251465,-6.2831854820251465,6.2831854820251465,-6.2831854820251465,6.2831854820251465,-5.654866695404053,5.654866695404053,-5.654866695404053,5.654866695404053,-2.8274333477020264,2.8274333477020264,-5.654866695404053,5.654866695404053,-5.654866695404053,5.654866695404053,-5.654866695404053,5.654866695404053,2.094399929046631,2.094399929046631,3.1415998935699463,3.1415998935699463,3.1415998935699463,3.1415998935699463,2.094399929046631,2.094399929046631,3.1415998935699463,3.1415998935699463,3.1415998935699463,3.1415998935699463,0.6822068691253662,0.08921919763088226,0.49331310391426086,-0.17763978242874146,-0.9694368243217468,0.16285264492034912,0.04599177837371826,NA,NA,NA,NA,NA,NA,NA,0.7451295852661133,-0.2362738847732544,0.45156875252723694,-3.748380450474542e-08,0.8575294613838196,0.5144348740577698,-2.248666319815129e-08
52,0.41600000000000004,0,0,52,-0.07426383346319199,-1.5266822576522827,1.845146656036377,-1.7580533027648926,-1.9159085750579834,-1.306854248046875,0.0,-1.5700000524520874,1.5700000524520874,-1.5700000524520874,-1.5700000524520874,0.0,-0.9108304381370544,0.13984014093875885,0.782400906085968,-1.1288425922393799,0.03219243511557579,-3.1415903568267822,-0.9129095077514648,0.13554704189300537,0.7810547947883606,-1.1289973258972168,0.031970106065273285,-3.141590118408203,-6.2831854820251465,6.2831854820251465,-6.2831854820251465,6.2831854820251465,-3.1415927410125732,3.1415927410125732,-6.2831854820251465,6.2831854820251465,-6.2831854820251465,6.2831854820251465,-6.2831854820251465,6.2831854820251465,-5.654866695404053,5.654866695404053,-5.654866695404053,5.654866695404053,-2.8274333477020264,2.8274333477020264,-5.654866695404053,5.654866695404053,-5.654866695404053,5.654866695404053,-5.654866695404053,5.654866695404053,2.094399929046631,2.094399929046631,3.1415998935699463,3.1415998935699463,3.1415998935699463,3.1415998935699463,2.094399929046631,2.094399929046631,3.1415998935699463,3.1415998935699463,3.1415998935699463,3.1415998935699463,0.6824384331703186,0.08431953936815262,0.489431232213974,-0.17667749524116516,-0.9709024429321289,0.1543463170528412,0.04806831479072571,NA,NA,NA,NA,NA,NA,NA,0.7451295852661133,-0.2362738847732544,0.45156875252723694,-3.748380450474542e-08,0.8575294613838196,0.5144348740577698,-2.248666319815129e-08
53,0.424,0,0,53,-0.08159395307302475,-1.5255485773086548,1.8513879776000977,-1.767134428024292,-1.9155850410461426,-1.3319854736328125,0.0,-1.5700000524520874,1.5700000524520874,-1.5700000524520874,-1.5700000524520874,0.0,-0.9190365076065063,0.13822442293167114,0.7823748588562012,-1.1346850395202637,0.040285635739564896,-3.141589403152466,-0.9209901094436646,0.1331864297389984,0.7805734872817993,-1.1348944902420044,0.040054209530353546,-3.141590118408203,-6.2831854820251465,6.2831854820251465,-6.2831854820251465,6.2831854820251465,-3.1415927410125732,3.1415927410125732,-6.2831854820251465,6.2831854820251465,-6.2831854820251465,6.2831854820251465,-6.2831854820251465,6.2831854820251465,-5.654866695404053,5.654866695404053,-5.654866695404053,5.654866695404053,-2.8274333477020264,2.8274333477020264,-5.654866695404053,5.654866695404053,-5.654866695404053,5.654866695404053,-5.654866695404053,5.654866695404053,2.094399929046631,2.094399929046631,3.1415998935699463,3.1415998935699463,3.1415998935699463,3.1415998935699463,2.094399929046631,2.094399929046631,3.1415998935699463,3.1415998935699463,3.1415998935699463,3.1415998935699463,0.6826122999191284,0.07938534021377563,0.48556751012802124,-0.1756593883037567,-0.9722942113876343,0.14586637914180756,0.050106942653656006,NA,NA,NA,NA,NA,NA,NA,0.7451295852661133,-0.2362738847732544,0.45156875252723694,-3.748380450474542e-08,0.8575294613838196,0.5144348740577698,-2.248666319815129e-08
54,0.432,0,0,54,-0.08898979425430298,-1.5244293212890625,1.8576263189315796,-1.776260495185852,-1.9152030944824219,-1.35711669921875,0.0,-1.5700000524520874,1.5700000524520874,-1.5700000524520874,-1.5700000524520874,0.0,-0.9272422790527344,0.1362473964691162,0.7817684412002563,-1.1402132511138916,0.04765109345316887,-3.141589641571045,-0.9291178584098816,0.13049733638763428,0.7795014381408691,-1.1404799222946167,0.04740802198648453,-3.141590118408203,-6.2831854820251465,6.2831854820251465,-6.2831854820251465,6.2831854820251465,-3.1415927410125732,3.1415927410125732,-6.2831854820251465,6.2831854820251465,-6.2831854820251465,6.2831854820251465,-6.2831854820251465,6.2831854820251465,-5.654866695404053,5.654866695404053,-5.654866695404053,5.654866695404053,-2.8274333477020264,2.8274333477020264,-5.654866695404053,5.654866695404053,-5.654866695404053,5.654866695404053,-5.654866695404053,5.654866695404053,2.094399929046631,2.094399929046631,3.1415998935699463,3.1415998935699463,3.1415998935699463,3.1415998935699463,2.094399929046631,2.094399929046631,3.1415998935699463,3.1415998935699463,3.1415998935699463,3.1415998935699463,0.6827283501625061,0.07441731542348862,0.4817277193069458,-0.17458941042423248,-0.9736125469207764,0.13741350173950195,0.052102550864219666,NA,NA,NA,NA,NA,NA,NA,0.7451295852661133,-0.2362738847732544,0.45156875252723694,-3.748380450474542e-08,0.8575294613838196,0.5144348740577698,-2.248666319815129e-08
55,0.44,0,0,55,-0.09645181149244308,-1.5233263969421387,1.8638558387756348,-1.785427212715149,-1.9147682189941406,-1.3822479248046875,0.0,-1.5700000524520874,1.5700000524520874,-1.5700000524520874,-1.5700000524520874,0.0,-0.9355392456054688,0.13397422432899475,0.7805585861206055,-1.1455771923065186,0.05424073338508606,-3.1415908336639404,-0.9374064207077026,0.12759391963481903,0.7778386473655701,-1.1459029912948608,0.053983237594366074,-3.141590118408203,-6.2831854820251465,6.2831854820251465,-6.2831854820251465,6.2831854820251465,-3.1415927410125732,3.1415927410125732,-6.2831854820251465,6.2831854820251465,-6.2831854820251465,6.2831854820251465,-6.2831854820251465,6.2831854820251465,-5.654866695404053,5.654866695404053,-5.654866695404053,5.654866695404053,-2.8274333477020264,2.8274333477020264,-5.654866695404053,5.654866695404053,-5.654866695404053,5.654866695404053,-5.654866695404053,5.654866695404053,2.094399929046631,2.094399929046631,3.1415998935699463,3.1415998935699463,3.1415998935699463,3.1415998935699463,2.094399929046631,2.094399929046631,3.1415998935699463,3.1415998935699463,3.1415998935699463,3.1415998935699463,0.6827865839004517,0.06941483914852142,0.4779161512851715,-0.17347200214862823,-0.9748578667640686,0.12898871302604675,0.05405198037624359,NA,NA,NA,NA,NA,NA,NA,0.7451295852661133,-0.2362738847732544,0.45156875252723694,-3.748380450474542e-08,0.8575294613838196,0.5144348740577698,-2.248666319815129e-08
56,0.448,0,0,56,-0.10398060828447342,-1.522242784500122,1.8700722455978394,-1.7946370840072632,-1.914286494255066,-1.407379150390625,0.0,-1.5700000524520874,1.5700000524520874,-1.5700000524520874,-1.5700000524520874,0.0,-0.943912923336029,0.13143415749073029,0.7786778807640076,-1.1508121490478516,0.0600578673183918,-3.1415905952453613,-0.9457756280899048,0.12442681938409805,0.7754887938499451,-1.151200294494629,0.05978565663099289,-3.141590118408203,-6.2831854820251465,6.2831854820251465,-6.2831854820251465,6.2831854820251465,-3.1415927410125732,3.1415927410125732,-6.2831854820251465,6.2831854820251465,-6.2831854820251465,6.2831854820251465,-6.2831854820251465,6.2831854820251465,-5.654866695404053,5.654866695404053,-5.654866695404053,5.654866695404053,-2.8274333477020264,2.8274333477020264,-5.654866695404053,5.654866695404053,-5.654866695404053,5.654866695404053,-5.654866695404053,5.654866695404053,2.094399929046631,2.094399929046631,3.1415998935699463,3.1415998935699463,3.1415998935699463,3.1415998935699463,2.094399929046631,2.094399929046631,3.1415998935699463,3.1415998935699463,3.1415998935699463,3.1415998935699463,0.6827874779701233,0.06437792629003525,0.4741389751434326,-0.1723122000694275,-0.9760304093360901,0.12059330940246582,0.05594801902770996,NA,NA,NA,NA,NA,NA,NA,0.7451295852661133,-0.2362738847732544,0.45156875252723694,-3.748380450474542e-08,0.8575294613838196,0.5144348740577698,-2.248666319815129e-08
57,0.456,0,0,57,-0.11157678812742233,-1.521180272102356,1.8762712478637695,-1.803885817527771,-1.9137622117996216,-1.4325103759765625,0.0,-1.5700000524520874,1.5700000524520874,-1.5700000524520874,-1.5700000524520874,0.0,-0.9523594975471497,0.12862728536128998,0.7760958075523376,-1.1558785438537598,0.06522122025489807,-3.1415905952453613,-0.9542158246040344,0.1209922656416893,0.7724283337593079,-1.1563303470611572,0.06493418663740158,-3.141590118408203,-6.2831854820251465,6.2831854820251465,-6.2831854820251465,6.2831854820251465,-3.1415927410125732,3.1415927410125732,-6.2831854820251465,6.2831854820251465,-6.2831854820251465,6.2831854820251465,-6.2831854820251465,6.2831854820251465,-5.654866695404053,5.654866695404053,-5.654866695404053,5.654866695404053,-2.8274333477020264,2.8274333477020264,-5.654866695404053,5.654866695404053,-5.654866695404053,5.654866695404053,-5.654866695404053,5.654866695404053,2.094399929046631,2.094399929046631,3.1415998935699463,3.1415998935699463,3.1415998935699463,3.1415998935699463,2.094399929046631,2.094399929046631,3.1415998935699463,3.1415998935699463,3.1415998935699463,3.1415998935699463,0.6827308535575867,0.059306319802999496,0.4703998565673828,-0.1711132526397705,-0.9771311283111572,0.1122283786535263,0.057788997888565063,NA,NA,NA,NA,NA,NA,NA,0.7451295852661133,-0.2362738847732544,0.45156875252723694,-3.748380450474542e-08,0.8575294613838196,0.5144348740577698,-2.248666319815129e-08
58,0.464,0,0,58,-0.11924073100090027,-1.5201408863067627,1.8824443817138672,-1.8131731748580933,-1.913203239440918,-1.4576416015625,0.0,-1.5700000524520874,1.5700000524520874,-1.5700000524520874,-1.5700000524520874,0.0,-0.9608403444290161,0.12557891011238098,0.7727344036102295,-1.160820722579956,0.06969691812992096,-3.1415908336639404,-0.9626836776733398,0.11730486899614334,0.7685641646385193,-1.161340355873108,0.06939531117677689,-3.141590118408203,-6.2831854820251465,6.2831854820251465,-6.2831854820251465,6.2831854820251465,-3.1415927410125732,3.1415927410125732,-6.2831854820251465,6.2831854820251465,-6.2831854820251465,6.2831854820251465,-6.2831854820251465,6.2831854820251465,-5.654866695404053,5.654866695404053,-5.654866695404053,5.654866695404053,-2.8274333477020264,2.8274333477020264,-5.654866695404053,5.654866695404053,-5.654866695404053,5.654866695404053,-5.654866695404053,5.654866695404053,2.094399929046631,2.094399929046631,3.1415998935699463,3.1415998935699463,3.1415998935699463,3.1415998935699463,2.094399929046631,2.094399929046631,3.1415998935699463,3.1415998935699463,3.1415998935699463,3.1415998935699463,0.6826189160346985,0.054199568927288055,0.4667052626609802,-0.16988152265548706,-0.9781603217124939,0.10389482975006104,0.05956888198852539,NA,NA,NA,NA,NA,NA,NA,0.7451295852661133,-0.2362738847732544,0.45156875252723694,-3.748380450474542e-08,0.8575294613838196,0.5144348740577698,-2.248666319815129e-08
59,0.47200000000000003,0,0,59,-0.1269727498292923,-1.5191267728805542,1.8885875940322876,-1.8224984407424927,-1.9126123189926147,-1.4827728271484375,0.0,-1.5700000524520874,1.5700000524520874,-1.5700000524520874,-1.5700000524520874,0.0,-0.9693558812141418,0.12228846549987793,0.7685666084289551,-1.1656244993209839,0.07363615185022354,-3.141592025756836,-0.9711877107620239,0.11337704211473465,0.7638856768608093,-1.1662133932113647,0.07331995666027069,-3.141590118408203,-6.2831854820251465,6.2831854820251465,-6.2831854820251465,6.2831854820251465,-3.1415927410125732,3.1415927410125732,-6.2831854820251465,6.2831854820251465,-6.2831854820251465,6.2831854820251465,-6.2831854820251465,6.2831854820251465,-5.654866695404053,5.654866695404053,-5.654866695404053,5.654866695404053,-2.8274333477020264,2.8274333477020264,-5.654866695404053,5.654866695404053,-5.654866695404053,5.654866695404053,-5.654866695404053,5.654866695404053,2.094399929046631,2.094399929046631,3.1415998935699463,3.1415998935699463,3.1415998935699463,3.1415998935699463,2.094399929046631,2.094399929046631,3.1415998935699463,3.1415998935699463,3.1415998935699463,3.1415998935699463,0.6824519634246826,0.0490577258169651,0.4630601406097412,-0.16862086951732635,-0.9791185259819031,0.09559372067451477,0.06128360331058502,NA,NA,NA,NA,NA,NA,NA,0.7451295852661133,-0.2362738847732544,0.45156875252723694,-3.748380450474542e-08,0.8575294613838196,0.5144348740577698,-2.248666319815129e-08
60,0.48,0,0,60,-0.13477282226085663,-1.5181388854980469,1.8946932554244995,-1.8318605422973633,-1.9119926691055298,-1.507904052734375,0.0,-1.5700000524520874,1.5700000524520874,-1.5700000524520874,-1.5700000524520874,0.0,-0.9778420925140381,0.11892296373844147,0.7635468244552612,-1.170021891593933,0.07724395394325256,-3.141591787338257,-0.9796565771102905,0.10954892635345459,0.7584499716758728,-1.1706693172454834,0.07691728323698044,-3.141590118408203,-6.2831854820251465,6.2831854820251465,-6.2831854820251465,6.2831854820251465,-3.1415927410125732,3.1415927410125732,-6.2831854820251465,6.2831854820251465,-6.2831854820251465,6.2831854820251465,-6.2831854820251465,6.2831854820251465,-5.654866695404053,5.654866695404053,-5.654866695404053,5.654866695404053,-2.8274333477020264,2.8274333477020264,-5.654866695404053,5.654866695404053,-5.654866695404053,5.654866695404053,-5.654866695404053,5.654866695404053,2.094399929046631,2.094399929046631,3.1415998935699463,3.1415998935699463,3.1415998935699463,3.1415998935699463,2.094399929046631,2.094399929046631,3.1415998935699463,3.1415998935699463,3.1415998935699463,3.1415998935699463,0.6822316646575928,0.04388049617409706,0.45947062969207764,-0.16733570396900177,-0.9800065159797668,0.0873267650604248,0.06292848289012909,NA,NA,NA,NA,NA,NA,NA,0.7451295852661133,-0.2362738847732544,0.45156875252723694,-3.748380450474542e-08,0.8575294613838196,0.5144348740577698,-2.248666319815129e-08
61,0.488,0,0,61,-0.14264017343521118,-1.5171772241592407,1.9007538557052612,-1.8412530422210693,-1.911344051361084,-1.5330352783203125,0.0,-1.5700000524520874,1.5700000524520874,-1.5700000524520874,-1.5700000524520874,0.0,-0.9861983060836792,0.11566271632909775,0.7576153874397278,-1.1738032102584839,0.08066549897193909,-3.141592502593994,-0.9879778623580933,0.10599378496408463,0.7521923780441284,-1.1744985580444336,0.08033334463834763,-3.141590118408203,-6.2831854820251465,6.2831854820251465,-6.2831854820251465,6.2831854820251465,-3.1415927410125732,3.1415927410125732,-6.2831854820251465,6.2831854820251465,-6.2831854820251465,6.2831854820251465,-6.2831854820251465,6.2831854820251465,-5.654866695404053,5.654866695404053,-5.654866695404053,5.654866695404053,-2.8274333477020264,2.8274333477020264,-5.654866695404053,5.654866695404053,-5.654866695404053,5.654866695404053,-5.654866695404053,5.654866695404053,2.094399929046631,2.094399929046631,3.1415998935699463,3.1415998935699463,3.1415998935699463,3.1415998935699463,2.094399929046631,2.094399929046631,3.1415998935699463,3.1415998935699463,3.1415998935699463,3.1415998935699463,0.6819596886634827,0.03866949677467346,0.4559394419193268,-0.16602833569049835,-0.9808252453804016,0.0790930837392807,0.0645035058259964,NA,NA,NA,NA,NA,NA,NA,0.7451295852661133,-0.2362738847732544,0.45156875252723694,-3.748380450474542e-08,0.8575294613838196,0.5144348740577698,-2.248666319815129e-08
62,0.496,0,0,62,-0.15057356655597687,-1.5162405967712402,1.9067609310150146,-1.8506685495376587,-1.910671353340149,-1.55816650390625,0.0,-1.5700000524520874,1.5700000524520874,-1.5700000524520874,-1.5700000524520874,0.0,-0.994403064250946,0.11255823075771332,0.7506844401359558,-1.1769967079162598,0.0838879942893982,-3.1415908336639404,-0.9961576461791992,0.10260487347841263,0.7449163198471069,-1.177741289138794,0.08354998379945755,-3.141590118408203,-6.2831854820251465,6.2831854820251465,-6.2831854820251465,6.2831854820251465,-3.1415927410125732,3.1415927410125732,-6.2831854820251465,6.2831854820251465,-6.2831854820251465,6.2831854820251465,-6.2831854820251465,6.2831854820251465,-5.654866695404053,5.654866695404053,-5.654866695404053,5.654866695404053,-2.8274333477020264,2.8274333477020264,-5.654866695404053,5.654866695404053,-5.654866695404053,5.654866695404053,-5.654866695404053,5.654866695404053,2.094399929046631,2.094399929046631,3.1415998935699463,3.1415998935699463,3.1415998935699463,3.1415998935699463,2.094399929046631,2.094399929046631,3.1415998935699463,3.1415998935699463,3.1415998935699463,3.1415998935699463,0.681638240814209,0.03342462331056595,0.45247137546539307,-0.16470444202423096,-0.9815750122070312,0.07089352607727051,0.06600749492645264,NA,NA,NA,NA,NA,NA,NA,0.7451295852661133,-0.2362738847732544,0.45156875252723694,-3.748380450474542e-08,0.8575294613838196,0.5144348740577698,-2.248666319815129e-08
63,0.504,0,0,63,-0.15857179462909698,-1.5153274536132812,1.912706971168518,-1.8601067066192627,-1.9099736213684082,-1.5832977294921875,0.0,-1.5700000524520874,1.5700000524520874,-1.5700000524520874,-1.5700000524520874,0.0,-1.0024524927139282,0.109632708132267,0.7426852583885193,-1.1796493530273438,0.08698970079421997,-3.1415913105010986,-1.0041937828063965,0.09939010441303253,0.7365480065345764,-1.180450201034546,0.08664490282535553,-3.141590118408203,-6.2831854820251465,6.2831854820251465,-6.2831854820251465,6.2831854820251465,-3.1415927410125732,3.1415927410125732,-6.2831854820251465,6.2831854820251465,-6.2831854820251465,6.2831854820251465,-6.2831854820251465,6.2831854820251465,-5.654866695404053,5.654866695404053,-5.654866695404053,5.654866695404053,-2.8274333477020264,2.8274333477020264,-5.654866695404053,5.654866695404053,-5.654866695404053,5.654866695404053,-5.654866695404053,5.654866695404053,2.094399929046631,2.094399929046631,3.1415998935699463,3.1415998935699463,3.1415998935699463,3.1415998935699463,2.094399929046631,2.094399929046631,3.1415998935699463,3.1415998935699463,3.1415998935699463,3.1415998935699463,0.681270182132721,0.028147589415311813,0.44906994700431824,-0.16336648166179657,-0.9822569489479065,0.06272710859775543,0.06743709743022919,NA,NA,NA,NA,NA,NA,NA,0.7451295852661133,-0.2362738847732544,0.45156875252723694,-3.748380450474542e-08,0.8575294613838196,0.5144348740577698,-2.248666319815129e-08
64,0.512,0,0,64,-0.1666337549686432,-1.5144366025924683,1.9185813665390015,-1.8695602416992188,-1.9092499017715454,-1.608428955078125,0.0,-1.5700000524520874,1.5700000524520874,-1.5700000524520874,-1.5700000524520874,0.0,-1.010373592376709,0.10688616335391998,0.7335693836212158,-1.1817569732666016,0.09006434679031372,-3.141592025756836,-1.0121231079101562,0.09634453058242798,0.7270378470420837,-1.1826163530349731,0.08971118181943893,-3.141590118408203,-6.2831854820251465,6.2831854820251465,-6.2831854820251465,6.2831854820251465,-3.1415927410125732,3.1415927410125732,-6.2831854820251465,6.2831854820251465,-6.2831854820251465,6.2831854820251465,-6.2831854820251465,6.2831854820251465,-5.654866695404053,5.654866695404053,-5.654866695404053,5.654866695404053,-2.8274333477020264,2.8274333477020264,-5.654866695404053,5.654866695404053,-5.654866695404053,5.654866695404053,-5.654866695404053,5.654866695404053,2.094399929046631,2.094399929046631,3.1415998935699463,3.1415998935699463,3.1415998935699463,3.1415998935699463,2.094399929046631,2.094399929046631,3.1415998935699463,3.1415998935699463,3.1415998935699463,3.1415998935699463,0.6808587312698364,0.022838689386844635,0.4457399547100067,-0.16201691329479218,-0.9828720688819885,0.05459512770175934,0.06879101693630219,NA,NA,NA,NA,NA,NA,NA,0.7451295852661133,-0.2362738847732544,0.45156875252723694,-3.748380450474542e-08,0.8575294613838196,0.5144348740577698,-2.248666319815129e-08
65,0.52,0,0,65,-0.17475827038288116,-1.513566255569458,1.9243769645690918,-1.8790289163589478,-1.9085018634796143,-1.6335601806640625,0.0,-1.5700000524520874,1.5700000524520874,-1.5700000524520874,-1.5700000524520874,0.0,-1.0181419849395752,0.10433947294950485,0.7232683300971985,-1.183349847793579,0.09312690794467926,-3.141590118408203,-1.0199030637741089,0.09348844736814499,0.7163178324699402,-1.184270977973938,0.09276490658521652,-3.141590118408203,-6.2831854820251465,6.2831854820251465,-6.2831854820251465,6.2831854820251465,-3.1415927410125732,3.1415927410125732,-6.2831854820251465,6.2831854820251465,-6.2831854820251465,6.2831854820251465,-6.2831854820251465,6.2831854820251465,-5.654866695404053,5.654866695404053,-5.654866695404053,5.654866695404053,-2.8274333477020264,2.8274333477020264,-5.654866695404053,5.654866695404053,-5.654866695404053,5.654866695404053,-5.654866695404053,5.654866695404053,2.094399929046631,2.094399929046631,3.1415998935699463,3.1415998935699463,3.1415998935699463,3.1415998935699463,2.094399929046631,2.094399929046631,3.1415998935699463,3.1415998935699463,3.1415998935699463,3.1415998935699463,0.6804066300392151,0.017498567700386047,0.4424850642681122,-0.16066037118434906,-0.9834209680557251,0.04649698734283447,0.07006658613681793,NA,NA,NA,NA,NA,NA,NA,0.7451295852661133,-0.2362738847732544,0.45156875252723694,-3.748380450474542e-08,0.8575294613838196,0.5144348740577698,-2.248666319815129e-08
66,0.528,0,0,66,-0.18294425308704376,-1.5127134323120117,1.9300832748413086,-1.888505220413208,-1.9077305793762207,-1.65869140625,0.0,-1.5700000524520874,1.5700000524520874,-1.5700000524520874,-1.5700000524520874,0.0,-1.0258305072784424,0.10228943079710007,0.7116014957427979,-1.1844542026519775,0.09623090922832489,-3.141591787338257,-1.0277138948440552,0.09136129915714264,0.7042871713638306,-1.1854333877563477,0.09585795551538467,-3.141590118408203,-6.2831854820251465,6.2831854820251465,-6.2831854820251465,6.2831854820251465,-3.1415927410125732,3.1415927410125732,-6.2831854820251465,6.2831854820251465,-6.2831854820251465,6.2831854820251465,-6.2831854820251465,6.2831854820251465,-5.654866695404053,5.654866695404053,-5.654866695404053,5.654866695404053,-2.8274333477020264,2.8274333477020264,-5.654866695404053,5.654866695404053,-5.654866695404053,5.654866695404053,-5.654866695404053,5.654866695404053,2.094399929046631,2.094399929046631,3.1415998935699463,3.1415998935699463,3.1415998935699463,3.1415998935699463,2.094399929046631,2.094399929046631,3.1415998935699463,3.1415998935699463,3.1415998935699463,3.1415998935699463,0.6799179315567017,0.012127318419516087,0.43930888175964355,-0.1593003273010254,-0.983904242515564,0.03843341022729874,0.07126384973526001,NA,NA,NA,NA,NA,NA,NA,0.7451295852661133,-0.2362738847732544,0.45156875252723694,-3.748380450474542e-08,0.8575294613838196,0.5144348740577698,-2.248666319815129e-08
67,0.536,0,0,67,-0.19119128584861755,-1.5118731260299683,1.9356874227523804,-1.897984266281128,-1.9069336652755737,-1.6838226318359375,0.0,-1.5700000524520874,1.5700000524520874,-1.5700000524520874,-1.5700000524520874,0.0,-1.033474087715149,0.10104155540466309,0.6983482837677002,-1.1851534843444824,0.09939113259315491,-3.1415908336639404,-1.035576581954956,0.09024123847484589,0.6907052397727966,-1.1861903667449951,0.0990053117275238,-3.141590118408203,-6.2831854820251465,6.2831854820251465,-6.2831854820251465,6.2831854820251465,-3.1415927410125732,3.1415927410125732,-6.2831854820251465,6.2831854820251465,-6.2831854820251465,6.2831854820251465,-6.2831854820251465,6.2831854820251465,-5.654866695404053,5.654866695404053,-5.654866695404053,5.654866695404053,-2.8274333477020264,2.8274333477020264,-5.654866695404053,5.654866695404053,-5.654866695404053,5.654866695404053,-5.654866695404053,5.654866695404053,2.094399929046631,2.094399929046631,3.1415998935699463,3.1415998935699463,3.1415998935699463,3.1415998935699463,2.094399929046631,2.094399929046631,3.1415998935699463,3.1415998935699463,3.1415998935699463,3.1415998935699463,0.6793978214263916,0.006724539212882519,0.43621495366096497,-0.15793927013874054,-0.9843229651451111,0.030404001474380493,0.07238148152828217,NA,NA,NA,NA,NA,NA,NA,0.7451295852661133,-0.2362738847732544,0.45156875252723694,-3.748380450474542e-08,0.8575294613838196,0.5144348740577698,-2.248666319815129e-08
