booooza/IsaacLabUR10eSim2Real/analysis/debug_logs/reach/play_log_4.csv
step,sim_time,env_id,episode_id,episode_step,shoulder_pan_joint_pos,shoulder_lift_joint_pos,elbow_joint_pos,wrist_1_joint_pos,wrist_2_joint_pos,wrist_3_joint_pos,shoulder_pan_joint_pos_target,shoulder_lift_joint_pos_target,elbow_joint_pos_target,wrist_1_joint_pos_target,wrist_2_joint_pos_target,wrist_3_joint_pos_target,shoulder_pan_joint_vel,shoulder_lift_joint_vel,elbow_joint_vel,wrist_1_joint_vel,wrist_2_joint_vel,wrist_3_joint_vel,shoulder_pan_joint_vel_target,shoulder_lift_joint_vel_target,elbow_joint_vel_target,wrist_1_joint_vel_target,wrist_2_joint_vel_target,wrist_3_joint_vel_target,shoulder_pan_joint_pos_limit_lower,shoulder_pan_joint_pos_limit_upper,shoulder_lift_joint_pos_limit_lower,shoulder_lift_joint_pos_limit_upper,elbow_joint_pos_limit_lower,elbow_joint_pos_limit_upper,wrist_1_joint_pos_limit_lower,wrist_1_joint_pos_limit_upper,wrist_2_joint_pos_limit_lower,wrist_2_joint_pos_limit_upper,wrist_3_joint_pos_limit_lower,wrist_3_joint_pos_limit_upper,shoulder_pan_joint_soft_pos_limit_lower,shoulder_pan_joint_soft_pos_limit_upper,shoulder_lift_joint_soft_pos_limit_lower,shoulder_lift_joint_soft_pos_limit_upper,elbow_joint_soft_pos_limit_lower,elbow_joint_soft_pos_limit_upper,wrist_1_joint_soft_pos_limit_lower,wrist_1_joint_soft_pos_limit_upper,wrist_2_joint_soft_pos_limit_lower,wrist_2_joint_soft_pos_limit_upper,wrist_3_joint_soft_pos_limit_lower,wrist_3_joint_soft_pos_limit_upper,shoulder_pan_joint_vel_limit,shoulder_lift_joint_vel_limit,elbow_joint_vel_limit,wrist_1_joint_vel_limit,wrist_2_joint_vel_limit,wrist_3_joint_vel_limit,shoulder_pan_joint_soft_vel_limit,shoulder_lift_joint_soft_vel_limit,elbow_joint_soft_vel_limit,wrist_1_joint_soft_vel_limit,wrist_2_joint_soft_vel_limit,wrist_3_joint_soft_vel_limit,ee_frame_pos_x,ee_frame_pos_y,ee_frame_pos_z,ee_frame_rot_w,ee_frame_rot_x,ee_frame_rot_y,ee_frame_rot_z,object_pos_x,object_pos_y,object_pos_z,object_rot_w,object_rot_x,object_rot_y,object_rot_z,target_pos_x,target_pos_y,target_pos_z,target_rot_w,target_rot_x,target_rot_y,target_rot_z
1,0.008,0,0,1,0.0036512981168925762,-1.5729548931121826,1.572514533996582,-1.5509083271026611,-1.5866351127624512,-0.02512899786233902,0.0,-1.5700000524520874,1.5700000524520874,-1.5700000524520874,-1.5700000524520874,0.0,0.5161030888557434,-0.4225498139858246,0.38409024477005005,2.2920475006103516,-2.0684866905212402,-3.1415915489196777,2.094399929046631,-2.094399929046631,3.141590118408203,3.141590118408203,-2.0684852600097656,-3.141590118408203,-6.2831854820251465,6.2831854820251465,-6.2831854820251465,6.2831854820251465,-3.1415927410125732,3.1415927410125732,-6.2831854820251465,6.2831854820251465,-6.2831854820251465,6.2831854820251465,-6.2831854820251465,6.2831854820251465,-5.654866695404053,5.654866695404053,-5.654866695404053,5.654866695404053,-2.8274333477020264,2.8274333477020264,-5.654866695404053,5.654866695404053,-5.654866695404053,5.654866695404053,-5.654866695404053,5.654866695404053,2.094399929046631,2.094399929046631,3.1415998935699463,3.1415998935699463,3.1415998935699463,3.1415998935699463,2.094399929046631,2.094399929046631,3.1415998935699463,3.1415998935699463,3.1415998935699463,3.1415998935699463,0.6871548891067505,0.17481423914432526,0.6748062372207642,-0.012460768222808838,-0.7172058820724487,0.6967483758926392,0.001409962773323059,NA,NA,NA,NA,NA,NA,NA,0.36621516942977905,0.248762845993042,0.4527476727962494,-1.875928923311676e-08,0.42916250228881836,0.9032273292541504,-3.948132132336468e-08
2,0.016,0,0,2,0.010420541279017925,-1.5798317193984985,1.5802533626556396,-1.5263433456420898,-1.6057730913162231,-0.05026121810078621,0.0,-1.5700000524520874,1.5700000524520874,-1.5700000524520874,-1.5700000524520874,0.0,0.922749936580658,-0.9256382584571838,1.0305737257003784,3.1415905952453613,-2.3706414699554443,-3.141590118408203,2.094399929046631,-2.094399929046631,3.141590118408203,3.141590118408203,-2.3706414699554443,-3.141590118408203,-6.2831854820251465,6.2831854820251465,-6.2831854820251465,6.2831854820251465,-3.1415927410125732,3.1415927410125732,-6.2831854820251465,6.2831854820251465,-6.2831854820251465,6.2831854820251465,-6.2831854820251465,6.2831854820251465,-5.654866695404053,5.654866695404053,-5.654866695404053,5.654866695404053,-2.8274333477020264,2.8274333477020264,-5.654866695404053,5.654866695404053,-5.654866695404053,5.654866695404053,-5.654866695404053,5.654866695404053,2.094399929046631,2.094399929046631,3.1415998935699463,3.1415998935699463,3.1415998935699463,3.1415998935699463,2.094399929046631,2.094399929046631,3.1415998935699463,3.1415998935699463,3.1415998935699463,3.1415998935699463,0.6787090301513672,0.1771562099456787,0.6713957786560059,-0.028148774057626724,-0.7282065749168396,0.6847673058509827,0.0040612369775772095,NA,NA,NA,NA,NA,NA,NA,0.36621516942977905,0.248762845993042,0.4527476727962494,-1.875928923311676e-08,0.42916250228881836,0.9032273292541504,-3.948132132336468e-08
3,0.024,0,0,3,0.020163841545581818,-1.5906060934066772,1.5938043594360352,-1.5017120838165283,-1.6240465641021729,-0.0753934308886528,0.0,-1.5700000524520874,1.5700000524520874,-1.5700000524520874,-1.5700000524520874,0.0,1.3220463991165161,-1.4598761796951294,1.8056470155715942,3.1415910720825195,-2.2598280906677246,-3.141589641571045,2.094399929046631,-2.094399929046631,3.141590118408203,3.141590118408203,-2.259827136993408,-3.141590118408203,-6.2831854820251465,6.2831854820251465,-6.2831854820251465,6.2831854820251465,-3.1415927410125732,3.1415927410125732,-6.2831854820251465,6.2831854820251465,-6.2831854820251465,6.2831854820251465,-6.2831854820251465,6.2831854820251465,-5.654866695404053,5.654866695404053,-5.654866695404053,5.654866695404053,-2.8274333477020264,2.8274333477020264,-5.654866695404053,5.654866695404053,-5.654866695404053,5.654866695404053,-5.654866695404053,5.654866695404053,2.094399929046631,2.094399929046631,3.1415998935699463,3.1415998935699463,3.1415998935699463,3.1415998935699463,2.094399929046631,2.094399929046631,3.1415998935699463,3.1415998935699463,3.1415998935699463,3.1415998935699463,0.6670194268226624,0.18143242597579956,0.6667152643203735,-0.04415082931518555,-0.739973247051239,0.6711385846138,0.007951140403747559,NA,NA,NA,NA,NA,NA,NA,0.36621516942977905,0.248762845993042,0.4527476727962494,-1.875928923311676e-08,0.42916250228881836,0.9032273292541504,-3.948132132336468e-08
4,0.032,0,0,4,0.03274897113442421,-1.6044681072235107,1.6122239828109741,-1.4770300388336182,-1.6406208276748657,-0.10052555054426193,0.0,-1.5700000524520874,1.5700000524520874,-1.5700000524520874,-1.5700000524520874,0.0,1.7733172178268433,-1.8359172344207764,2.4202489852905273,3.1292710304260254,-2.062570571899414,-3.1415531635284424,2.094399929046631,-2.094399929046631,3.023048162460327,3.141590118408203,-2.0449228286743164,-3.141590118408203,-6.2831854820251465,6.2831854820251465,-6.2831854820251465,6.2831854820251465,-3.1415927410125732,3.1415927410125732,-6.2831854820251465,6.2831854820251465,-6.2831854820251465,6.2831854820251465,-6.2831854820251465,6.2831854820251465,-5.654866695404053,5.654866695404053,-5.654866695404053,5.654866695404053,-2.8274333477020264,2.8274333477020264,-5.654866695404053,5.654866695404053,-5.654866695404053,5.654866695404053,-5.654866695404053,5.654866695404053,2.094399929046631,2.094399929046631,3.1415998935699463,3.1415998935699463,3.1415998935699463,3.1415998935699463,2.094399929046631,2.094399929046631,3.1415998935699463,3.1415998935699463,3.1415998935699463,3.1415998935699463,0.6525667905807495,0.1874859631061554,0.6608059406280518,-0.06009167432785034,-0.7523608207702637,0.655870795249939,0.01325005292892456,NA,NA,NA,NA,NA,NA,NA,0.36621516942977905,0.248762845993042,0.4527476727962494,-1.875928923311676e-08,0.42916250228881836,0.9032273292541504,-3.948132132336468e-08
5,0.04,0,0,5,0.04802468419075012,-1.6197144985198975,1.6323020458221436,-1.4520366191864014,-1.6562488079071045,-0.1256580799818039,0.0,-1.5700000524520874,1.5700000524520874,-1.5700000524520874,-1.5700000524520874,0.0,1.9760596752166748,-1.9655694961547852,2.571943759918213,3.136873960494995,-1.9508169889450073,-3.1415762901306152,2.094399929046631,-2.094399929046631,2.5625271797180176,3.141590118408203,-1.9447059631347656,-3.141590118408203,-6.2831854820251465,6.2831854820251465,-6.2831854820251465,6.2831854820251465,-3.1415927410125732,3.1415927410125732,-6.2831854820251465,6.2831854820251465,-6.2831854820251465,6.2831854820251465,-6.2831854820251465,6.2831854820251465,-5.654866695404053,5.654866695404053,-5.654866695404053,5.654866695404053,-2.8274333477020264,2.8274333477020264,-5.654866695404053,5.654866695404053,-5.654866695404053,5.654866695404053,-5.654866695404053,5.654866695404053,2.094399929046631,2.094399929046631,3.1415998935699463,3.1415998935699463,3.1415998935699463,3.1415998935699463,2.094399929046631,2.094399929046631,3.1415998935699463,3.1415998935699463,3.1415998935699463,3.1415998935699463,0.6365265250205994,0.1949848234653473,0.6546514630317688,-0.07581283897161484,-0.7652257680892944,0.6389943361282349,0.019181400537490845,NA,NA,NA,NA,NA,NA,NA,0.36621516942977905,0.248762845993042,0.4527476727962494,-1.875928923311676e-08,0.42916250228881836,0.9032273292541504,-3.948132132336468e-08
6,0.048,0,0,6,0.06449640542268753,-1.6352790594100952,1.6519697904586792,-1.4269057512283325,-1.6708707809448242,-0.15079107880592346,0.0,-1.5700000524520874,1.5700000524520874,-1.5700000524520874,-1.5700000524520874,0.0,2.0694801807403564,-1.969443678855896,2.425483465194702,3.141589879989624,-1.8273767232894897,-3.141592264175415,2.094399929046631,-2.094399929046631,2.35330867767334,3.141590118408203,-1.8270493745803833,-3.141590118408203,-6.2831854820251465,6.2831854820251465,-6.2831854820251465,6.2831854820251465,-3.1415927410125732,3.1415927410125732,-6.2831854820251465,6.2831854820251465,-6.2831854820251465,6.2831854820251465,-6.2831854820251465,6.2831854820251465,-5.654866695404053,5.654866695404053,-5.654866695404053,5.654866695404053,-2.8274333477020264,2.8274333477020264,-5.654866695404053,5.654866695404053,-5.654866695404053,5.654866695404053,-5.654866695404053,5.654866695404053,2.094399929046631,2.094399929046631,3.1415998935699463,3.1415998935699463,3.1415998935699463,3.1415998935699463,2.094399929046631,2.094399929046631,3.1415998935699463,3.1415998935699463,3.1415998935699463,3.1415998935699463,0.6199674010276794,0.20288540422916412,0.6489496827125549,-0.09088695049285889,-0.7780168652534485,0.6211180090904236,0.025333046913146973,NA,NA,NA,NA,NA,NA,NA,0.36621516942977905,0.248762845993042,0.4527476727962494,-1.875928923311676e-08,0.42916250228881836,0.9032273292541504,-3.948132132336468e-08
7,0.056,0,0,7,0.08120541274547577,-1.6510934829711914,1.6709506511688232,-1.4017754793167114,-1.6842918395996094,-0.1759241223335266,0.0,-1.5700000524520874,1.5700000524520874,-1.5700000524520874,-1.5700000524520874,0.0,2.084465265274048,-2.0041861534118652,2.3643665313720703,3.1416025161743164,-1.6806682348251343,-3.1415932178497314,2.094399929046631,-2.094399929046631,2.317203998565674,3.141590118408203,-1.6811141967773438,-3.141590118408203,-6.2831854820251465,6.2831854820251465,-6.2831854820251465,6.2831854820251465,-3.1415927410125732,3.1415927410125732,-6.2831854820251465,6.2831854820251465,-6.2831854820251465,6.2831854820251465,-6.2831854820251465,6.2831854820251465,-5.654866695404053,5.654866695404053,-5.654866695404053,5.654866695404053,-2.8274333477020264,2.8274333477020264,-5.654866695404053,5.654866695404053,-5.654866695404053,5.654866695404053,-5.654866695404053,5.654866695404053,2.094399929046631,2.094399929046631,3.1415998935699463,3.1415998935699463,3.1415998935699463,3.1415998935699463,2.094399929046631,2.094399929046631,3.1415998935699463,3.1415998935699463,3.1415998935699463,3.1415998935699463,0.6031750440597534,0.2105715423822403,0.6438336372375488,-0.10511767864227295,-0.790397584438324,0.6026771068572998,0.03165765106678009,NA,NA,NA,NA,NA,NA,NA,0.36621516942977905,0.248762845993042,0.4527476727962494,-1.875928923311676e-08,0.42916250228881836,0.9032273292541504,-3.948132132336468e-08
8,0.064,0,0,8,0.09794001281261444,-1.6671031713485718,1.6893235445022583,-1.3766437768936157,-1.697035312652588,-0.20105718076229095,0.0,-1.5700000524520874,1.5700000524520874,-1.5700000524520874,-1.5700000524520874,0.0,2.088209629058838,-2.0200231075286865,2.2803828716278076,3.1416032314300537,-1.5972623825073242,-3.1415929794311523,2.094399929046631,-2.094399929046631,2.2365243434906006,3.141590118408203,-1.597774863243103,-3.141590118408203,-6.2831854820251465,6.2831854820251465,-6.2831854820251465,6.2831854820251465,-3.1415927410125732,3.1415927410125732,-6.2831854820251465,6.2831854820251465,-6.2831854820251465,6.2831854820251465,-6.2831854820251465,6.2831854820251465,-5.654866695404053,5.654866695404053,-5.654866695404053,5.654866695404053,-2.8274333477020264,2.8274333477020264,-5.654866695404053,5.654866695404053,-5.654866695404053,5.654866695404053,-5.654866695404053,5.654866695404053,2.094399929046631,2.094399929046631,3.1415998935699463,3.1415998935699463,3.1415998935699463,3.1415998935699463,2.094399929046631,2.094399929046631,3.1415998935699463,3.1415998935699463,3.1415998935699463,3.1415998935699463,0.5862331986427307,0.21784363687038422,0.6392046213150024,-0.11873799562454224,-0.8022863268852234,0.5837737321853638,0.03802645206451416,NA,NA,NA,NA,NA,NA,NA,0.36621516942977905,0.248762845993042,0.4527476727962494,-1.875928923311676e-08,0.42916250228881836,0.9032273292541504,-3.948132132336468e-08
9,0.07200000000000001,0,0,9,0.1146807074546814,-1.683236837387085,1.707073450088501,-1.3515113592147827,-1.709887146949768,-0.2261902391910553,0.0,-1.5700000524520874,1.5700000524520874,-1.5700000524520874,-1.5700000524520874,0.0,2.0891449451446533,-2.0327401161193848,2.2049643993377686,3.1416015625,-1.6120681762695312,-3.1415936946868896,2.094399929046631,-2.094399929046631,2.1683413982391357,3.141590118408203,-1.6125229597091675,-3.141590118408203,-6.2831854820251465,6.2831854820251465,-6.2831854820251465,6.2831854820251465,-3.1415927410125732,3.1415927410125732,-6.2831854820251465,6.2831854820251465,-6.2831854820251465,6.2831854820251465,-6.2831854820251465,6.2831854820251465,-5.654866695404053,5.654866695404053,-5.654866695404053,5.654866695404053,-2.8274333477020264,2.8274333477020264,-5.654866695404053,5.654866695404053,-5.654866695404053,5.654866695404053,-5.654866695404053,5.654866695404053,2.094399929046631,2.094399929046631,3.1415998935699463,3.1415998935699463,3.1415998935699463,3.1415998935699463,2.094399929046631,2.094399929046631,3.1415998935699463,3.1415998935699463,3.1415998935699463,3.1415998935699463,0.5692171454429626,0.22460146248340607,0.6350265145301819,-0.13205382227897644,-0.813668966293335,0.564403772354126,0.0441916286945343,NA,NA,NA,NA,NA,NA,NA,0.36621516942977905,0.248762845993042,0.4527476727962494,-1.875928923311676e-08,0.42916250228881836,0.9032273292541504,-3.948132132336468e-08
10,0.08,0,0,10,0.13145150244235992,-1.6989631652832031,1.7239503860473633,-1.326377511024475,-1.7233000993728638,-0.25132328271865845,0.0,-1.5700000524520874,1.5700000524520874,-1.5700000524520874,-1.5700000524520874,0.0,2.0944008827209473,-1.938219428062439,2.0845565795898438,3.1415789127349854,-1.6809368133544922,-3.141601800918579,2.094399929046631,-1.893713116645813,2.090758800506592,3.141590118408203,-1.6827917098999023,-3.141590118408203,-6.2831854820251465,6.2831854820251465,-6.2831854820251465,6.2831854820251465,-3.1415927410125732,3.1415927410125732,-6.2831854820251465,6.2831854820251465,-6.2831854820251465,6.2831854820251465,-6.2831854820251465,6.2831854820251465,-5.654866695404053,5.654866695404053,-5.654866695404053,5.654866695404053,-2.8274333477020264,2.8274333477020264,-5.654866695404053,5.654866695404053,-5.654866695404053,5.654866695404053,-5.654866695404053,5.654866695404053,2.094399929046631,2.094399929046631,3.1415998935699463,3.1415998935699463,3.1415998935699463,3.1415998935699463,2.094399929046631,2.094399929046631,3.1415998935699463,3.1415998935699463,3.1415998935699463,3.1415998935699463,0.5524332523345947,0.23084504902362823,0.631152868270874,-0.14532381296157837,-0.8245351314544678,0.5445294976234436,0.050103068351745605,NA,NA,NA,NA,NA,NA,NA,0.36621516942977905,0.248762845993042,0.4527476727962494,-1.875928923311676e-08,0.42916250228881836,0.9032273292541504,-3.948132132336468e-08
11,0.088,0,0,11,0.14822562038898468,-1.7137959003448486,1.739925503730774,-1.3012428283691406,-1.7374670505523682,-0.276456356048584,0.0,-1.5700000524520874,1.5700000524520874,-1.5700000524520874,-1.5700000524520874,0.0,2.094400405883789,-1.8119326829910278,1.9755704402923584,3.1415393352508545,-1.7742562294006348,-3.1416008472442627,2.094399929046631,-1.724457025527954,2.0028953552246094,3.141590118408203,-1.7770835161209106,-3.141590118408203,-6.2831854820251465,6.2831854820251465,-6.2831854820251465,6.2831854820251465,-3.1415927410125732,3.1415927410125732,-6.2831854820251465,6.2831854820251465,-6.2831854820251465,6.2831854820251465,-6.2831854820251465,6.2831854820251465,-5.654866695404053,5.654866695404053,-5.654866695404053,5.654866695404053,-2.8274333477020264,2.8274333477020264,-5.654866695404053,5.654866695404053,-5.654866695404053,5.654866695404053,-5.654866695404053,5.654866695404053,2.094399929046631,2.094399929046631,3.1415998935699463,3.1415998935699463,3.1415998935699463,3.1415998935699463,2.094399929046631,2.094399929046631,3.1415998935699463,3.1415998935699463,3.1415998935699463,3.1415998935699463,0.5361341238021851,0.23658643662929535,0.6273425221443176,-0.15876153111457825,-0.8348451852798462,0.5241248607635498,0.0558682382106781,NA,NA,NA,NA,NA,NA,NA,0.36621516942977905,0.248762845993042,0.4527476727962494,-1.875928923311676e-08,0.42916250228881836,0.9032273292541504,-3.948132132336468e-08
12,0.096,0,0,12,0.16500014066696167,-1.7275965213775635,1.7550827264785767,-1.2761081457138062,-1.7524336576461792,-0.3015894293785095,0.0,-1.5700000524520874,1.5700000524520874,-1.5700000524520874,-1.5700000524520874,0.0,2.094400405883789,-1.680285096168518,1.874619722366333,3.1415188312530518,-1.8740085363388062,-3.1416008472442627,2.094399929046631,-1.5861567258834839,1.9052079916000366,3.141590118408203,-1.87699294090271,-3.141590118408203,-6.2831854820251465,6.2831854820251465,-6.2831854820251465,6.2831854820251465,-3.1415927410125732,3.1415927410125732,-6.2831854820251465,6.2831854820251465,-6.2831854820251465,6.2831854820251465,-6.2831854820251465,6.2831854820251465,-5.654866695404053,5.654866695404053,-5.654866695404053,5.654866695404053,-2.8274333477020264,2.8274333477020264,-5.654866695404053,5.654866695404053,-5.654866695404053,5.654866695404053,-5.654866695404053,5.654866695404053,2.094399929046631,2.094399929046631,3.1415998935699463,3.1415998935699463,3.1415998935699463,3.1415998935699463,2.094399929046631,2.094399929046631,3.1415998935699463,3.1415998935699463,3.1415998935699463,3.1415998935699463,0.5203852653503418,0.2418559044599533,0.6234927773475647,-0.17244744300842285,-0.8445662260055542,0.5031701326370239,0.061558082699775696,NA,NA,NA,NA,NA,NA,NA,0.36621516942977905,0.248762845993042,0.4527476727962494,-1.875928923311676e-08,0.42916250228881836,0.9032273292541504,-3.948132132336468e-08
13,0.10400000000000001,0,0,13,0.18177375197410583,-1.7403810024261475,1.769495964050293,-1.2509733438491821,-1.768134593963623,-0.32672250270843506,0.0,-1.5700000524520874,1.5700000524520874,-1.5700000524520874,-1.5700000524520874,0.0,2.094400405883789,-1.5558737516403198,1.7826504707336426,3.1415066719055176,-1.9655492305755615,-3.1416006088256836,2.094399929046631,-1.4691928625106812,1.8101215362548828,3.141590118408203,-1.9683432579040527,-3.141590118408203,-6.2831854820251465,6.2831854820251465,-6.2831854820251465,6.2831854820251465,-3.1415927410125732,3.1415927410125732,-6.2831854820251465,6.2831854820251465,-6.2831854820251465,6.2831854820251465,-6.2831854820251465,6.2831854820251465,-5.654866695404053,5.654866695404053,-5.654866695404053,5.654866695404053,-2.8274333477020264,2.8274333477020264,-5.654866695404053,5.654866695404053,-5.654866695404053,5.654866695404053,-5.654866695404053,5.654866695404053,2.094399929046631,2.094399929046631,3.1415998935699463,3.1415998935699463,3.1415998935699463,3.1415998935699463,2.094399929046631,2.094399929046631,3.1415998935699463,3.1415998935699463,3.1415998935699463,3.1415998935699463,0.505181074142456,0.24668735265731812,0.6195950508117676,-0.1863672137260437,-0.8536668419837952,0.4816654920578003,0.06721913814544678,NA,NA,NA,NA,NA,NA,NA,0.36621516942977905,0.248762845993042,0.4527476727962494,-1.875928923311676e-08,0.42916250228881836,0.9032273292541504,-3.948132132336468e-08
14,0.112,0,0,14,0.19854775071144104,-1.7522584199905396,1.7833632230758667,-1.2278376817703247,-1.7844682931900024,-0.351855605840683,0.0,-1.5700000524520874,1.5700000524520874,-1.5700000524520874,-1.5700000524520874,0.0,2.094400405883789,-1.441766619682312,1.7045316696166992,2.881638765335083,-2.0447168350219727,-3.14159893989563,2.094399929046631,-1.3664395809173584,1.7193646430969238,2.8796074390411377,-2.0476701259613037,-3.141590118408203,-6.2831854820251465,6.2831854820251465,-6.2831854820251465,6.2831854820251465,-3.1415927410125732,3.1415927410125732,-6.2831854820251465,6.2831854820251465,-6.2831854820251465,6.2831854820251465,-6.2831854820251465,6.2831854820251465,-5.654866695404053,5.654866695404053,-5.654866695404053,5.654866695404053,-2.8274333477020264,2.8274333477020264,-5.654866695404053,5.654866695404053,-5.654866695404053,5.654866695404053,-5.654866695404053,5.654866695404053,2.094399929046631,2.094399929046631,3.1415998935699463,3.1415998935699463,3.1415998935699463,3.1415998935699463,2.094399929046631,2.094399929046631,3.1415998935699463,3.1415998935699463,3.1415998935699463,3.1415998935699463,0.4907436668872833,0.251166969537735,0.61574786901474,-0.19987863302230835,-0.8622241616249084,0.4597938060760498,0.07216507196426392,NA,NA,NA,NA,NA,NA,NA,0.36621516942977905,0.248762845993042,0.4527476727962494,-1.875928923311676e-08,0.42916250228881836,0.9032273292541504,-3.948132132336468e-08
15,0.12,0,0,15,0.21531903743743896,-1.7633094787597656,1.7966727018356323,-1.2065613269805908,-1.801063895225525,-0.3769887089729309,0.0,-1.5700000524520874,1.5700000524520874,-1.5700000524520874,-1.5700000524520874,0.0,2.0944008827209473,-1.3451828956604004,1.6393365859985352,2.6505770683288574,-2.0771100521087646,-3.1415979862213135,2.094399929046631,-1.2828104496002197,1.6509681940078735,2.6487231254577637,-2.0795977115631104,-3.141590118408203,-6.2831854820251465,6.2831854820251465,-6.2831854820251465,6.2831854820251465,-3.1415927410125732,3.1415927410125732,-6.2831854820251465,6.2831854820251465,-6.2831854820251465,6.2831854820251465,-6.2831854820251465,6.2831854820251465,-5.654866695404053,5.654866695404053,-5.654866695404053,5.654866695404053,-2.8274333477020264,2.8274333477020264,-5.654866695404053,5.654866695404053,-5.654866695404053,5.654866695404053,-5.654866695404053,5.654866695404053,2.094399929046631,2.094399929046631,3.1415998935699463,3.1415998935699463,3.1415998935699463,3.1415998935699463,2.094399929046631,2.094399929046631,3.1415998935699463,3.1415998935699463,3.1415998935699463,3.1415998935699463,0.4770236909389496,0.2553659677505493,0.6119873523712158,-0.212871253490448,-0.8702366948127747,0.43762674927711487,0.07653012871742249,NA,NA,NA,NA,NA,NA,NA,0.36621516942977905,0.248762845993042,0.4527476727962494,-1.875928923311676e-08,0.42916250228881836,0.9032273292541504,-3.948132132336468e-08
16,0.128,0,0,16,0.23208872973918915,-1.7736380100250244,1.809477686882019,-1.1869663000106812,-1.8177787065505981,-0.40212181210517883,0.0,-1.5700000524520874,1.5700000524520874,-1.5700000524520874,-1.5700000524520874,0.0,2.0944008827209473,-1.2591443061828613,1.5776175260543823,2.441098213195801,-2.091860294342041,-3.1415998935699463,2.094399929046631,-1.2068054676055908,1.5853811502456665,2.439194440841675,-2.094069004058838,-3.141590118408203,-6.2831854820251465,6.2831854820251465,-6.2831854820251465,6.2831854820251465,-3.1415927410125732,3.1415927410125732,-6.2831854820251465,6.2831854820251465,-6.2831854820251465,6.2831854820251465,-6.2831854820251465,6.2831854820251465,-5.654866695404053,5.654866695404053,-5.654866695404053,5.654866695404053,-2.8274333477020264,2.8274333477020264,-5.654866695404053,5.654866695404053,-5.654866695404053,5.654866695404053,-5.654866695404053,5.654866695404053,2.094399929046631,2.094399929046631,3.1415998935699463,3.1415998935699463,3.1415998935699463,3.1415998935699463,2.094399929046631,2.094399929046631,3.1415998935699463,3.1415998935699463,3.1415998935699463,3.1415998935699463,0.46394655108451843,0.2593212425708771,0.6083181500434875,-0.22534318268299103,-0.877701461315155,0.41520583629608154,0.08040381968021393,NA,NA,NA,NA,NA,NA,NA,0.36621516942977905,0.248762845993042,0.4527476727962494,-1.875928923311676e-08,0.42916250228881836,0.9032273292541504,-3.948132132336468e-08
17,0.136,0,0,17,0.24885697662830353,-1.7833199501037598,1.821810245513916,-1.168903112411499,-1.834479570388794,-0.42725491523742676,0.0,-1.5700000524520874,1.5700000524520874,-1.5700000524520874,-1.5700000524520874,0.0,2.0944008827209473,-1.1818879842758179,1.5200282335281372,2.250251531600952,-2.090045690536499,-3.1416015625,2.094399929046631,-1.1370588541030884,1.5253082513809204,2.2483832836151123,-2.092020034790039,-3.141590118408203,-6.2831854820251465,6.2831854820251465,-6.2831854820251465,6.2831854820251465,-3.1415927410125732,3.1415927410125732,-6.2831854820251465,6.2831854820251465,-6.2831854820251465,6.2831854820251465,-6.2831854820251465,6.2831854820251465,-5.654866695404053,5.654866695404053,-5.654866695404053,5.654866695404053,-2.8274333477020264,2.8274333477020264,-5.654866695404053,5.654866695404053,-5.654866695404053,5.654866695404053,-5.654866695404053,5.654866695404053,2.094399929046631,2.094399929046631,3.1415998935699463,3.1415998935699463,3.1415998935699463,3.1415998935699463,2.094399929046631,2.094399929046631,3.1415998935699463,3.1415998935699463,3.1415998935699463,3.1415998935699463,0.4514542520046234,0.2630678713321686,0.6047452092170715,-0.2372884452342987,-0.8846160173416138,0.39257529377937317,0.08386319875717163,NA,NA,NA,NA,NA,NA,NA,0.36621516942977905,0.248762845993042,0.4527476727962494,-1.875928923311676e-08,0.42916250228881836,0.9032273292541504,-3.948132132336468e-08
18,0.14400000000000002,0,0,18,0.2656240165233612,-1.7924175262451172,1.8336961269378662,-1.1522666215896606,-1.8510715961456299,-0.4523880183696747,0.0,-1.5700000524520874,1.5700000524520874,-1.5700000524520874,-1.5700000524520874,0.0,2.094400405883789,-1.1115972995758057,1.4653244018554688,2.0724358558654785,-2.0762476921081543,-3.1415984630584717,2.094399929046631,-1.0728211402893066,1.4684609174728394,2.070584774017334,-2.0780439376831055,-3.141590118408203,-6.2831854820251465,6.2831854820251465,-6.2831854820251465,6.2831854820251465,-3.1415927410125732,3.1415927410125732,-6.2831854820251465,6.2831854820251465,-6.2831854820251465,6.2831854820251465,-6.2831854820251465,6.2831854820251465,-5.654866695404053,5.654866695404053,-5.654866695404053,5.654866695404053,-2.8274333477020264,2.8274333477020264,-5.654866695404053,5.654866695404053,-5.654866695404053,5.654866695404053,-5.654866695404053,5.654866695404053,2.094399929046631,2.094399929046631,3.1415998935699463,3.1415998935699463,3.1415998935699463,3.1415998935699463,2.094399929046631,2.094399929046631,3.1415998935699463,3.1415998935699463,3.1415998935699463,3.1415998935699463,0.4395015835762024,0.2666352391242981,0.6012725830078125,-0.24870319664478302,-0.8909822106361389,0.3697776198387146,0.08695907890796661,NA,NA,NA,NA,NA,NA,NA,0.36621516942977905,0.248762845993042,0.4527476727962494,-1.875928923311676e-08,0.42916250228881836,0.9032273292541504,-3.948132132336468e-08
19,0.152,0,0,19,0.2823900580406189,-1.8009828329086304,1.8451566696166992,-1.136979579925537,-1.8674801588058472,-0.477521151304245,0.0,-1.5700000524520874,1.5700000524520874,-1.5700000524520874,-1.5700000524520874,0.0,2.0944008827209473,-1.0475358963012695,1.4129096269607544,1.9041242599487305,-2.05326509475708,-3.1416022777557373,2.094399929046631,-1.014175295829773,1.4140450954437256,1.9022881984710693,-2.054908037185669,-3.141590118408203,-6.2831854820251465,6.2831854820251465,-6.2831854820251465,6.2831854820251465,-3.1415927410125732,3.1415927410125732,-6.2831854820251465,6.2831854820251465,-6.2831854820251465,6.2831854820251465,-6.2831854820251465,6.2831854820251465,-5.654866695404053,5.654866695404053,-5.654866695404053,5.654866695404053,-2.8274333477020264,2.8274333477020264,-5.654866695404053,5.654866695404053,-5.654866695404053,5.654866695404053,-5.654866695404053,5.654866695404053,2.094399929046631,2.094399929046631,3.1415998935699463,3.1415998935699463,3.1415998935699463,3.1415998935699463,2.094399929046631,2.094399929046631,3.1415998935699463,3.1415998935699463,3.1415998935699463,3.1415998935699463,0.4280506372451782,0.2700496017932892,0.5979030132293701,-0.2595856189727783,-0.8968033790588379,0.3468545377254486,0.0897272527217865,NA,NA,NA,NA,NA,NA,NA,0.36621516942977905,0.248762845993042,0.4527476727962494,-1.875928923311676e-08,0.42916250228881836,0.9032273292541504,-3.948132132336468e-08
20,0.16,0,0,20,0.29915517568588257,-1.8090609312057495,1.8562074899673462,-1.1229807138442993,-1.8836419582366943,-0.5026540756225586,0.0,-1.5700000524520874,1.5700000524520874,-1.5700000524520874,-1.5700000524520874,0.0,2.094400405883789,-0.9885866641998291,1.3624005317687988,1.7434533834457397,-2.0222465991973877,-3.141602039337158,2.094399929046631,-0.9595412611961365,1.3619736433029175,1.7416399717330933,-2.023766279220581,-3.141590118408203,-6.2831854820251465,6.2831854820251465,-6.2831854820251465,6.2831854820251465,-3.1415927410125732,3.1415927410125732,-6.2831854820251465,6.2831854820251465,-6.2831854820251465,6.2831854820251465,-6.2831854820251465,6.2831854820251465,-5.654866695404053,5.654866695404053,-5.654866695404053,5.654866695404053,-2.8274333477020264,2.8274333477020264,-5.654866695404053,5.654866695404053,-5.654866695404053,5.654866695404053,-5.654866695404053,5.654866695404053,2.094399929046631,2.094399929046631,3.1415998935699463,3.1415998935699463,3.1415998935699463,3.1415998935699463,2.094399929046631,2.094399929046631,3.1415998935699463,3.1415998935699463,3.1415998935699463,3.1415998935699463,0.4170682430267334,0.27333498001098633,0.5946407914161682,-0.2699326276779175,-0.902086615562439,0.32384592294692993,0.09219437837600708,NA,NA,NA,NA,NA,NA,NA,0.36621516942977905,0.248762845993042,0.4527476727962494,-1.875928923311676e-08,0.42916250228881836,0.9032273292541504,-3.948132132336468e-08
21,0.168,0,0,21,0.3159196078777313,-1.8166862726211548,1.8668620586395264,-1.110222339630127,-1.8995012044906616,-0.5277853012084961,0.0,-1.5700000524520874,1.5700000524520874,-1.5700000524520874,-1.5700000524520874,0.0,2.0944008827209473,-0.9335307478904724,1.313385009765625,1.5887070894241333,-1.984304428100586,-3.141601324081421,2.094399929046631,-0.9076814651489258,1.3118222951889038,1.5869190692901611,-1.9857350587844849,-3.141590118408203,-6.2831854820251465,6.2831854820251465,-6.2831854820251465,6.2831854820251465,-3.1415927410125732,3.1415927410125732,-6.2831854820251465,6.2831854820251465,-6.2831854820251465,6.2831854820251465,-6.2831854820251465,6.2831854820251465,-5.654866695404053,5.654866695404053,-5.654866695404053,5.654866695404053,-2.8274333477020264,2.8274333477020264,-5.654866695404053,5.654866695404053,-5.654866695404053,5.654866695404053,-5.654866695404053,5.654866695404053,2.094399929046631,2.094399929046631,3.1415998935699463,3.1415998935699463,3.1415998935699463,3.1415998935699463,2.094399929046631,2.094399929046631,3.1415998935699463,3.1415998935699463,3.1415998935699463,3.1415998935699463,0.4065271019935608,0.2765142321586609,0.5914859771728516,-0.27974292635917664,-0.906840443611145,0.3007928431034088,0.0943816602230072,NA,NA,NA,NA,NA,NA,NA,0.36621516942977905,0.248762845993042,0.4527476727962494,-1.875928923311676e-08,0.42916250228881836,0.9032273292541504,-3.948132132336468e-08
22,0.176,0,0,22,0.3326834738254547,-1.8238855600357056,1.8771297931671143,-1.0986645221710205,-1.915009617805481,-0.5529165267944336,0.0,-1.5700000524520874,1.5700000524520874,-1.5700000524520874,-1.5700000524520874,0.0,2.094399929046631,-0.8812221884727478,1.2655075788497925,1.4388777017593384,-1.940307855606079,-3.1416008472442627,2.094399929046631,-0.8575559854507446,1.26320481300354,1.437111735343933,-1.941675066947937,-3.141590118408203,-6.2831854820251465,6.2831854820251465,-6.2831854820251465,6.2831854820251465,-3.1415927410125732,3.1415927410125732,-6.2831854820251465,6.2831854820251465,-6.2831854820251465,6.2831854820251465,-6.2831854820251465,6.2831854820251465,-5.654866695404053,5.654866695404053,-5.654866695404053,5.654866695404053,-2.8274333477020264,2.8274333477020264,-5.654866695404053,5.654866695404053,-5.654866695404053,5.654866695404053,-5.654866695404053,5.654866695404053,2.094399929046631,2.094399929046631,3.1415998935699463,3.1415998935699463,3.1415998935699463,3.1415998935699463,2.094399929046631,2.094399929046631,3.1415998935699463,3.1415998935699463,3.1415998935699463,3.1415998935699463,0.3964037597179413,0.2796081304550171,0.5884376168251038,-0.28901731967926025,-0.9110758304595947,0.27773112058639526,0.09630799293518066,NA,NA,NA,NA,NA,NA,NA,0.36621516942977905,0.248762845993042,0.4527476727962494,-1.875928923311676e-08,0.42916250228881836,0.9032273292541504,-3.948132132336468e-08
23,0.184,0,0,23,0.3494468629360199,-1.8306747674942017,1.8870185613632202,-1.088274598121643,-1.9301257133483887,-0.5780477523803711,0.0,-1.5700000524520874,1.5700000524520874,-1.5700000524520874,-1.5700000524520874,0.0,2.094399929046631,-0.8307141065597534,1.2183767557144165,1.2930848598480225,-1.8912410736083984,-3.1416027545928955,2.094399929046631,-0.8084825277328491,1.2155890464782715,1.2913364171981812,-1.8925694227218628,-3.141590118408203,-6.2831854820251465,6.2831854820251465,-6.2831854820251465,6.2831854820251465,-3.1415927410125732,3.1415927410125732,-6.2831854820251465,6.2831854820251465,-6.2831854820251465,6.2831854820251465,-6.2831854820251465,6.2831854820251465,-5.654866695404053,5.654866695404053,-5.654866695404053,5.654866695404053,-2.8274333477020264,2.8274333477020264,-5.654866695404053,5.654866695404053,-5.654866695404053,5.654866695404053,-5.654866695404053,5.654866695404053,2.094399929046631,2.094399929046631,3.1415998935699463,3.1415998935699463,3.1415998935699463,3.1415998935699463,2.094399929046631,2.094399929046631,3.1415998935699463,3.1415998935699463,3.1415998935699463,3.1415998935699463,0.386679470539093,0.28263789415359497,0.5854920744895935,-0.2977592945098877,-0.9148046970367432,0.25469541549682617,0.09798991680145264,NA,NA,NA,NA,NA,NA,NA,0.36621516942977905,0.248762845993042,0.4527476727962494,-1.875928923311676e-08,0.42916250228881836,0.9032273292541504,-3.948132132336468e-08
24,0.192,0,0,24,0.36620983481407166,-1.8370647430419922,1.8965312242507935,-1.0790274143218994,-1.9448155164718628,-0.6031789779663086,0.0,-1.5700000524520874,1.5700000524520874,-1.5700000524520874,-1.5700000524520874,0.0,2.0944008827209473,-0.7812594175338745,1.1717184782028198,1.1503933668136597,-1.8377677202224731,-3.1415998935699463,2.094399929046631,-0.7598831653594971,1.1686381101608276,1.1486538648605347,-1.839072585105896,-3.141590118408203,-6.2831854820251465,6.2831854820251465,-6.2831854820251465,6.2831854820251465,-3.1415927410125732,3.1415927410125732,-6.2831854820251465,6.2831854820251465,-6.2831854820251465,6.2831854820251465,-6.2831854820251465,6.2831854820251465,-5.654866695404053,5.654866695404053,-5.654866695404053,5.654866695404053,-2.8274333477020264,2.8274333477020264,-5.654866695404053,5.654866695404053,-5.654866695404053,5.654866695404053,-5.654866695404053,5.654866695404053,2.094399929046631,2.094399929046631,3.1415998935699463,3.1415998935699463,3.1415998935699463,3.1415998935699463,2.094399929046631,2.094399929046631,3.1415998935699463,3.1415998935699463,3.1415998935699463,3.1415998935699463,0.3773386478424072,0.28562355041503906,0.5826472640037537,-0.3059731423854828,-0.9180409908294678,0.2317175269126892,0.09943908452987671,NA,NA,NA,NA,NA,NA,NA,0.36621516942977905,0.248762845993042,0.4527476727962494,-1.875928923311676e-08,0.42916250228881836,0.9032273292541504,-3.948132132336468e-08
25,0.2,0,0,25,0.38297247886657715,-1.8430613279342651,1.9056708812713623,-1.0709034204483032,-1.9590482711791992,-0.6283102035522461,0.0,-1.5700000524520874,1.5700000524520874,-1.5700000524520874,-1.5700000524520874,0.0,2.094400405883789,-0.7322155833244324,1.1252983808517456,1.0101104974746704,-1.780439019203186,-3.141599416732788,2.094399929046631,-0.7112206220626831,1.1220815181732178,1.0083754062652588,-1.7817386388778687,-3.141590118408203,-6.2831854820251465,6.2831854820251465,-6.2831854820251465,6.2831854820251465,-3.1415927410125732,3.1415927410125732,-6.2831854820251465,6.2831854820251465,-6.2831854820251465,6.2831854820251465,-6.2831854820251465,6.2831854820251465,-5.654866695404053,5.654866695404053,-5.654866695404053,5.654866695404053,-2.8274333477020264,2.8274333477020264,-5.654866695404053,5.654866695404053,-5.654866695404053,5.654866695404053,-5.654866695404053,5.654866695404053,2.094399929046631,2.094399929046631,3.1415998935699463,3.1415998935699463,3.1415998935699463,3.1415998935699463,2.094399929046631,2.094399929046631,3.1415998935699463,3.1415998935699463,3.1415998935699463,3.1415998935699463,0.36836740374565125,0.2885841429233551,0.5798985362052917,-0.31366369128227234,-0.920799732208252,0.20882821083068848,0.10066595673561096,NA,NA,NA,NA,NA,NA,NA,0.36621516942977905,0.248762845993042,0.4527476727962494,-1.875928923311676e-08,0.42916250228881836,0.9032273292541504,-3.948132132336468e-08
26,0.20800000000000002,0,0,26,0.39973482489585876,-1.8486649990081787,1.914439082145691,-1.063887357711792,-1.9727959632873535,-0.6534414291381836,0.0,-1.5700000524520874,1.5700000524520874,-1.5700000524520874,-1.5700000524520874,0.0,2.094400405883789,-0.683022141456604,1.0789285898208618,0.8717128038406372,-1.7196766138076782,-3.1415982246398926,2.094399929046631,-0.6620110869407654,1.0757046937942505,0.8699750304222107,-1.7209786176681519,-3.141590118408203,-6.2831854820251465,6.2831854820251465,-6.2831854820251465,6.2831854820251465,-3.1415927410125732,3.1415927410125732,-6.2831854820251465,6.2831854820251465,-6.2831854820251465,6.2831854820251465,-6.2831854820251465,6.2831854820251465,-5.654866695404053,5.654866695404053,-5.654866695404053,5.654866695404053,-2.8274333477020264,2.8274333477020264,-5.654866695404053,5.654866695404053,-5.654866695404053,5.654866695404053,-5.654866695404053,5.654866695404053,2.094399929046631,2.094399929046631,3.1415998935699463,3.1415998935699463,3.1415998935699463,3.1415998935699463,2.094399929046631,2.094399929046631,3.1415998935699463,3.1415998935699463,3.1415998935699463,3.1415998935699463,0.35975381731987,0.2915392816066742,0.5772411823272705,-0.3208368420600891,-0.9230970740318298,0.18605515360832214,0.1016797125339508,NA,NA,NA,NA,NA,NA,NA,0.36621516942977905,0.248762845993042,0.4527476727962494,-1.875928923311676e-08,0.42916250228881836,0.9032273292541504,-3.948132132336468e-08
27,0.216,0,0,27,0.4164969325065613,-1.8538721799850464,1.922834873199463,-1.057968258857727,-1.98603355884552,-0.6785726547241211,0.0,-1.5700000524520874,1.5700000524520874,-1.5700000524520874,-1.5700000524520874,0.0,2.094400405883789,-0.6331968307495117,1.032410740852356,0.7346694469451904,-1.6557470560073853,-3.141601324081421,2.094399929046631,-0.6118602156639099,1.0292656421661377,0.7329224348068237,-1.6570634841918945,-3.141590118408203,-6.2831854820251465,6.2831854820251465,-6.2831854820251465,6.2831854820251465,-3.1415927410125732,3.1415927410125732,-6.2831854820251465,6.2831854820251465,-6.2831854820251465,6.2831854820251465,-6.2831854820251465,6.2831854820251465,-5.654866695404053,5.654866695404053,-5.654866695404053,5.654866695404053,-2.8274333477020264,2.8274333477020264,-5.654866695404053,5.654866695404053,-5.654866695404053,5.654866695404053,-5.654866695404053,5.654866695404053,2.094399929046631,2.094399929046631,3.1415998935699463,3.1415998935699463,3.1415998935699463,3.1415998935699463,2.094399929046631,2.094399929046631,3.1415998935699463,3.1415998935699463,3.1415998935699463,3.1415998935699463,0.35148847103118896,0.2945076525211334,0.5746700167655945,-0.3274988532066345,-0.9249501824378967,0.16342444717884064,0.10248839855194092,NA,NA,NA,NA,NA,NA,NA,0.36621516942977905,0.248762845993042,0.4527476727962494,-1.875928923311676e-08,0.42916250228881836,0.9032273292541504,-3.948132132336468e-08
28,0.224,0,0,28,0.4332588315010071,-1.858676791191101,1.9308583736419678,-1.0531303882598877,-1.9987390041351318,-0.7037038803100586,0.0,-1.5700000524520874,1.5700000524520874,-1.5700000524520874,-1.5700000524520874,0.0,2.0944008827209473,-0.5825856924057007,0.9860266447067261,0.5996336936950684,-1.5891318321228027,-3.1416029930114746,2.094399929046631,-0.5607234239578247,0.9831432700157166,0.5978911519050598,-1.5904611349105835,-3.141590118408203,-6.2831854820251465,6.2831854820251465,-6.2831854820251465,6.2831854820251465,-3.1415927410125732,3.1415927410125732,-6.2831854820251465,6.2831854820251465,-6.2831854820251465,6.2831854820251465,-6.2831854820251465,6.2831854820251465,-5.654866695404053,5.654866695404053,-5.654866695404053,5.654866695404053,-2.8274333477020264,2.8274333477020264,-5.654866695404053,5.654866695404053,-5.654866695404053,5.654866695404053,-5.654866695404053,5.654866695404053,2.094399929046631,2.094399929046631,3.1415998935699463,3.1415998935699463,3.1415998935699463,3.1415998935699463,2.094399929046631,2.094399929046631,3.1415998935699463,3.1415998935699463,3.1415998935699463,3.1415998935699463,0.34356021881103516,0.29750773310661316,0.5721799731254578,-0.33365800976753235,-0.9263765811920166,0.140956848859787,0.10310176014900208,NA,NA,NA,NA,NA,NA,NA,0.36621516942977905,0.248762845993042,0.4527476727962494,-1.875928923311676e-08,0.42916250228881836,0.9032273292541504,-3.948132132336468e-08
29,0.232,0,0,29,0.45002052187919617,-1.8630712032318115,1.938509225845337,-1.0493557453155518,-2.0109007358551025,-0.7288351058959961,0.0,-1.5700000524520874,1.5700000524520874,-1.5700000524520874,-1.5700000524520874,0.0,2.094400405883789,-0.5309034585952759,0.9396887421607971,0.46686187386512756,-1.520787000656128,-3.141598701477051,2.094399929046631,-0.5083577036857605,0.9371265172958374,0.4651220440864563,-1.5221327543258667,-3.141590118408203,-6.2831854820251465,6.2831854820251465,-6.2831854820251465,6.2831854820251465,-3.1415927410125732,3.1415927410125732,-6.2831854820251465,6.2831854820251465,-6.2831854820251465,6.2831854820251465,-6.2831854820251465,6.2831854820251465,-5.654866695404053,5.654866695404053,-5.654866695404053,5.654866695404053,-2.8274333477020264,2.8274333477020264,-5.654866695404053,5.654866695404053,-5.654866695404053,5.654866695404053,-5.654866695404053,5.654866695404053,2.094399929046631,2.094399929046631,3.1415998935699463,3.1415998935699463,3.1415998935699463,3.1415998935699463,2.094399929046631,2.094399929046631,3.1415998935699463,3.1415998935699463,3.1415998935699463,3.1415998935699463,0.335958868265152,0.3005563020706177,0.569765031337738,-0.3393273949623108,-0.9273921847343445,0.11867092549800873,0.10352736711502075,NA,NA,NA,NA,NA,NA,NA,0.36621516942977905,0.248762845993042,0.4527476727962494,-1.875928923311676e-08,0.42916250228881836,0.9032273292541504,-3.948132132336468e-08
30,0.24,0,0,30,0.4667821228504181,-1.867045283317566,1.9457868337631226,-1.046640396118164,-2.0225164890289307,-0.7539663314819336,0.0,-1.5700000524520874,1.5700000524520874,-1.5700000524520874,-1.5700000524520874,0.0,2.0944008827209473,-0.4779071509838104,0.8929911851882935,0.3344815969467163,-1.4524362087249756,-3.1416015625,2.094399929046631,-0.4546714425086975,0.8905842900276184,0.33272257447242737,-1.4538089036941528,-3.141590118408203,-6.2831854820251465,6.2831854820251465,-6.2831854820251465,6.2831854820251465,-3.1415927410125732,3.1415927410125732,-6.2831854820251465,6.2831854820251465,-6.2831854820251465,6.2831854820251465,-6.2831854820251465,6.2831854820251465,-5.654866695404053,5.654866695404053,-5.654866695404053,5.654866695404053,-2.8274333477020264,2.8274333477020264,-5.654866695404053,5.654866695404053,-5.654866695404053,5.654866695404053,-5.654866695404053,5.654866695404053,2.094399929046631,2.094399929046631,3.1415998935699463,3.1415998935699463,3.1415998935699463,3.1415998935699463,2.094399929046631,2.094399929046631,3.1415998935699463,3.1415998935699463,3.1415998935699463,3.1415998935699463,0.3286774754524231,0.30367031693458557,0.5674199461936951,-0.34451985359191895,-0.9280141592025757,0.09658204019069672,0.10376715660095215,NA,NA,NA,NA,NA,NA,NA,0.36621516942977905,0.248762845993042,0.4527476727962494,-1.875928923311676e-08,0.42916250228881836,0.9032273292541504,-3.948132132336468e-08
31,0.248,0,0,31,0.4835435152053833,-1.870593786239624,1.952696681022644,-1.0449762344360352,-2.0336005687713623,-0.7790975570678711,0.0,-1.5700000524520874,1.5700000524520874,-1.5700000524520874,-1.5700000524520874,0.0,2.0944008827209473,-0.4246492087841034,0.8473986983299255,0.2031978815793991,-1.3860199451446533,-3.1415977478027344,2.094399929046631,-0.40109291672706604,0.8453502655029297,0.20147080719470978,-1.3873875141143799,-3.141590118408203,-6.2831854820251465,6.2831854820251465,-6.2831854820251465,6.2831854820251465,-3.1415927410125732,3.1415927410125732,-6.2831854820251465,6.2831854820251465,-6.2831854820251465,6.2831854820251465,-6.2831854820251465,6.2831854820251465,-5.654866695404053,5.654866695404053,-5.654866695404053,5.654866695404053,-2.8274333477020264,2.8274333477020264,-5.654866695404053,5.654866695404053,-5.654866695404053,5.654866695404053,-5.654866695404053,5.654866695404053,2.094399929046631,2.094399929046631,3.1415998935699463,3.1415998935699463,3.1415998935699463,3.1415998935699463,2.094399929046631,2.094399929046631,3.1415998935699463,3.1415998935699463,3.1415998935699463,3.1415998935699463,0.32170477509498596,0.30686283111572266,0.565139651298523,-0.3492535948753357,-0.9282582402229309,0.07470093667507172,0.10381779074668884,NA,NA,NA,NA,NA,NA,NA,0.36621516942977905,0.248762845993042,0.4527476727962494,-1.875928923311676e-08,0.42916250228881836,0.9032273292541504,-3.948132132336468e-08
32,0.256,0,0,32,0.5003046989440918,-1.8737165927886963,1.9592481851577759,-1.0443551540374756,-2.0441741943359375,-0.8042287826538086,0.0,-1.5700000524520874,1.5700000524520874,-1.5700000524520874,-1.5700000524520874,0.0,2.094400405883789,-0.37143850326538086,0.803096354007721,0.07296188920736313,-1.3219937086105347,-3.1416022777557373,2.094399929046631,-0.3477659523487091,0.8013638854026794,0.07127438485622406,-1.323346495628357,-3.141590118408203,-6.2831854820251465,6.2831854820251465,-6.2831854820251465,6.2831854820251465,-3.1415927410125732,3.1415927410125732,-6.2831854820251465,6.2831854820251465,-6.2831854820251465,6.2831854820251465,-6.2831854820251465,6.2831854820251465,-5.654866695404053,5.654866695404053,-5.654866695404053,5.654866695404053,-2.8274333477020264,2.8274333477020264,-5.654866695404053,5.654866695404053,-5.654866695404053,5.654866695404053,-5.654866695404053,5.654866695404053,2.094399929046631,2.094399929046631,3.1415998935699463,3.1415998935699463,3.1415998935699463,3.1415998935699463,2.094399929046631,2.094399929046631,3.1415998935699463,3.1415998935699463,3.1415998935699463,3.1415998935699463,0.315029501914978,0.3101450502872467,0.5629180669784546,-0.35355034470558167,-0.928138256072998,0.053034231066703796,0.10367608070373535,NA,NA,NA,NA,NA,NA,NA,0.36621516942977905,0.248762845993042,0.4527476727962494,-1.875928923311676e-08,0.42916250228881836,0.9032273292541504,-3.948132132336468e-08
33,0.264,0,0,33,0.5170655250549316,-1.8764128684997559,1.9654511213302612,-1.0447715520858765,-2.054253101348877,-0.8293600082397461,0.0,-1.5700000524520874,1.5700000524520874,-1.5700000524520874,-1.5700000524520874,0.0,2.0944008827209473,-0.31810593605041504,0.759965181350708,-0.05658074840903282,-1.26007878780365,-3.1416008472442627,2.094399929046631,-0.29422834515571594,0.7585604190826416,-0.058231253176927567,-1.2614198923110962,-3.141590118408203,-6.2831854820251465,6.2831854820251465,-6.2831854820251465,6.2831854820251465,-3.1415927410125732,3.1415927410125732,-6.2831854820251465,6.2831854820251465,-6.2831854820251465,6.2831854820251465,-6.2831854820251465,6.2831854820251465,-5.654866695404053,5.654866695404053,-5.654866695404053,5.654866695404053,-2.8274333477020264,2.8274333477020264,-5.654866695404053,5.654866695404053,-5.654866695404053,5.654866695404053,-5.654866695404053,5.654866695404053,2.094399929046631,2.094399929046631,3.1415998935699463,3.1415998935699463,3.1415998935699463,3.1415998935699463,2.094399929046631,2.094399929046631,3.1415998935699463,3.1415998935699463,3.1415998935699463,3.1415998935699463,0.3086387813091278,0.31352877616882324,0.5607500076293945,-0.3574274778366089,-0.9276684522628784,0.03158913552761078,0.10333830118179321,NA,NA,NA,NA,NA,NA,NA,0.36621516942977905,0.248762845993042,0.4527476727962494,-1.875928923311676e-08,0.42916250228881836,0.9032273292541504,-3.948132132336468e-08
34,0.272,0,0,34,0.5338261723518372,-1.8786805868148804,1.9713143110275269,-1.0462223291397095,-2.0638535022735596,-0.8544912338256836,0.0,-1.5700000524520874,1.5700000524520874,-1.5700000524520874,-1.5700000524520874,0.0,2.0944008827209473,-0.2643987238407135,0.7179300785064697,-0.18573835492134094,-1.2000411748886108,-3.1416003704071045,2.094399929046631,-0.24014419317245483,0.7169113159179688,-0.18735359609127045,-1.2013767957687378,-3.141590118408203,-6.2831854820251465,6.2831854820251465,-6.2831854820251465,6.2831854820251465,-3.1415927410125732,3.1415927410125732,-6.2831854820251465,6.2831854820251465,-6.2831854820251465,6.2831854820251465,-6.2831854820251465,6.2831854820251465,-5.654866695404053,5.654866695404053,-5.654866695404053,5.654866695404053,-2.8274333477020264,2.8274333477020264,-5.654866695404053,5.654866695404053,-5.654866695404053,5.654866695404053,-5.654866695404053,5.654866695404053,2.094399929046631,2.094399929046631,3.1415998935699463,3.1415998935699463,3.1415998935699463,3.1415998935699463,2.094399929046631,2.094399929046631,3.1415998935699463,3.1415998935699463,3.1415998935699463,3.1415998935699463,0.3025208115577698,0.31702500581741333,0.5586299300193787,-0.360901802778244,-0.9268625974655151,0.010370641946792603,0.10280099511146545,NA,NA,NA,NA,NA,NA,NA,0.36621516942977905,0.248762845993042,0.4527476727962494,-1.875928923311676e-08,0.42916250228881836,0.9032273292541504,-3.948132132336468e-08
35,0.28,0,0,35,0.5505867004394531,-1.8805159330368042,1.9768465757369995,-1.0487065315246582,-2.0729873180389404,-0.8796224594116211,0.0,-1.5700000524520874,1.5700000524520874,-1.5700000524520874,-1.5700000524520874,0.0,2.094400405883789,-0.21004363894462585,0.6769071221351624,-0.31479865312576294,-1.1417118310928345,-3.1415998935699463,2.094399929046631,-0.1852295696735382,0.6763368844985962,-0.3163797855377197,-1.1430457830429077,-3.141590118408203,-6.2831854820251465,6.2831854820251465,-6.2831854820251465,6.2831854820251465,-3.1415927410125732,3.1415927410125732,-6.2831854820251465,6.2831854820251465,-6.2831854820251465,6.2831854820251465,-6.2831854820251465,6.2831854820251465,-5.654866695404053,5.654866695404053,-5.654866695404053,5.654866695404053,-2.8274333477020264,2.8274333477020264,-5.654866695404053,5.654866695404053,-5.654866695404053,5.654866695404053,-5.654866695404053,5.654866695404053,2.094399929046631,2.094399929046631,3.1415998935699463,3.1415998935699463,3.1415998935699463,3.1415998935699463,2.094399929046631,2.094399929046631,3.1415998935699463,3.1415998935699463,3.1415998935699463,3.1415998935699463,0.29666438698768616,0.3206457495689392,0.5565523505210876,-0.36398816108703613,-0.9257340431213379,-0.010616302490234375,0.10206109285354614,NA,NA,NA,NA,NA,NA,NA,0.36621516942977905,0.248762845993042,0.4527476727962494,-1.875928923311676e-08,0.42916250228881836,0.9032273292541504,-3.948132132336468e-08
36,0.28800000000000003,0,0,36,0.5673121809959412,-1.8819161653518677,1.9820603132247925,-1.0522218942642212,-2.0816662311553955,-0.9047536849975586,0.0,-1.5700000524520874,1.5700000524520874,-1.5700000524520874,-1.5700000524520874,0.0,2.0839955806732178,-0.1560744345188141,0.6379335522651672,-0.4433470368385315,-1.085685133934021,-3.141592502593994,2.07141375541687,-0.12871360778808594,0.637392520904541,-0.4454055726528168,-1.0863417387008667,-3.141590118408203,-6.2831854820251465,6.2831854820251465,-6.2831854820251465,6.2831854820251465,-3.1415927410125732,3.1415927410125732,-6.2831854820251465,6.2831854820251465,-6.2831854820251465,6.2831854820251465,-6.2831854820251465,6.2831854820251465,-5.654866695404053,5.654866695404053,-5.654866695404053,5.654866695404053,-2.8274333477020264,2.8274333477020264,-5.654866695404053,5.654866695404053,-5.654866695404053,5.654866695404053,-5.654866695404053,5.654866695404053,2.094399929046631,2.094399929046631,3.1415998935699463,3.1415998935699463,3.1415998935699463,3.1415998935699463,2.094399929046631,2.094399929046631,3.1415998935699463,3.1415998935699463,3.1415998935699463,3.1415998935699463,0.29106807708740234,0.32439106702804565,0.5545094609260559,-0.3666992783546448,-0.9242956042289734,-0.03135240077972412,0.10112464427947998,NA,NA,NA,NA,NA,NA,NA,0.36621516942977905,0.248762845993042,0.4527476727962494,-1.875928923311676e-08,0.42916250228881836,0.9032273292541504,-3.948132132336468e-08
37,0.296,0,0,37,0.5833867192268372,-1.8829686641693115,1.9870052337646484,-1.0567171573638916,-2.0898597240448,-0.9298849105834961,0.0,-1.5700000524520874,1.5700000524520874,-1.5700000524520874,-1.5700000524520874,0.0,1.9666963815689087,-0.11368554830551147,0.603640615940094,-0.566627025604248,-1.027358889579773,-3.1415936946868896,1.9357722997665405,-0.07431100308895111,0.5992547869682312,-0.5704677104949951,-1.0293257236480713,-3.141590118408203,-6.2831854820251465,6.2831854820251465,-6.2831854820251465,6.2831854820251465,-3.1415927410125732,3.1415927410125732,-6.2831854820251465,6.2831854820251465,-6.2831854820251465,6.2831854820251465,-6.2831854820251465,6.2831854820251465,-5.654866695404053,5.654866695404053,-5.654866695404053,5.654866695404053,-2.8274333477020264,2.8274333477020264,-5.654866695404053,5.654866695404053,-5.654866695404053,5.654866695404053,-5.654866695404053,5.654866695404053,2.094399929046631,2.094399929046631,3.1415998935699463,3.1415998935699463,3.1415998935699463,3.1415998935699463,2.094399929046631,2.094399929046631,3.1415998935699463,3.1415998935699463,3.1415998935699463,3.1415998935699463,0.28587648272514343,0.3280717730522156,0.5525053143501282,-0.3690032660961151,-0.9225814342498779,-0.05154559016227722,0.10011515021324158,NA,NA,NA,NA,NA,NA,NA,0.36621516942977905,0.248762845993042,0.4527476727962494,-1.875928923311676e-08,0.42916250228881836,0.9032273292541504,-3.948132132336468e-08
38,0.304,0,0,38,0.5984834432601929,-1.883685827255249,1.9916763305664062,-1.0621068477630615,-2.097564220428467,-0.9550161361694336,0.0,-1.5700000524520874,1.5700000524520874,-1.5700000524520874,-1.5700000524520874,0.0,1.8433973789215088,-0.07134274393320084,0.5695050954818726,-0.6784146428108215,-0.9662789106369019,-3.141594886779785,1.8118367195129395,-0.03086915612220764,0.5653205513954163,-0.682310938835144,-0.9682736396789551,-3.141590118408203,-6.2831854820251465,6.2831854820251465,-6.2831854820251465,6.2831854820251465,-3.1415927410125732,3.1415927410125732,-6.2831854820251465,6.2831854820251465,-6.2831854820251465,6.2831854820251465,-6.2831854820251465,6.2831854820251465,-5.654866695404053,5.654866695404053,-5.654866695404053,5.654866695404053,-2.8274333477020264,2.8274333477020264,-5.654866695404053,5.654866695404053,-5.654866695404053,5.654866695404053,-5.654866695404053,5.654866695404053,2.094399929046631,2.094399929046631,3.1415998935699463,3.1415998935699463,3.1415998935699463,3.1415998935699463,2.094399929046631,2.094399929046631,3.1415998935699463,3.1415998935699463,3.1415998935699463,3.1415998935699463,0.2811810076236725,0.33160609006881714,0.5505451560020447,-0.3709048628807068,-0.9206283688545227,-0.07105088233947754,0.09911894798278809,NA,NA,NA,NA,NA,NA,NA,0.36621516942977905,0.248762845993042,0.4527476727962494,-1.875928923311676e-08,0.42916250228881836,0.9032273292541504,-3.948132132336468e-08
39,0.312,0,0,39,0.6126018762588501,-1.8840759992599487,1.9960893392562866,-1.0683411359786987,-2.104779005050659,-0.9801473617553711,0.0,-1.5700000524520874,1.5700000524520874,-1.5700000524520874,-1.5700000524520874,0.0,1.7228683233261108,-0.03090728633105755,0.5380923748016357,-0.783769428730011,-0.9048892855644226,-3.141594171524048,1.6925262212753296,0.008544236421585083,0.5344792008399963,-0.7874863147735596,-0.9067867398262024,-3.141590118408203,-6.2831854820251465,6.2831854820251465,-6.2831854820251465,6.2831854820251465,-3.1415927410125732,3.1415927410125732,-6.2831854820251465,6.2831854820251465,-6.2831854820251465,6.2831854820251465,-6.2831854820251465,6.2831854820251465,-5.654866695404053,5.654866695404053,-5.654866695404053,5.654866695404053,-2.8274333477020264,2.8274333477020264,-5.654866695404053,5.654866695404053,-5.654866695404053,5.654866695404053,-5.654866695404053,5.654866695404053,2.094399929046631,2.094399929046631,3.1415998935699463,3.1415998935699463,3.1415998935699463,3.1415998935699463,2.094399929046631,2.094399929046631,3.1415998935699463,3.1415998935699463,3.1415998935699463,3.1415998935699463,0.27697062492370605,0.3350069224834442,0.5486211776733398,-0.37242352962493896,-0.9184705018997192,-0.08987544476985931,0.0981583297252655,NA,NA,NA,NA,NA,NA,NA,0.36621516942977905,0.248762845993042,0.4527476727962494,-1.875928923311676e-08,0.42916250228881836,0.9032273292541504,-3.948132132336468e-08
40,0.32,0,0,40,0.6257683038711548,-1.8841559886932373,2.000265598297119,-1.0753757953643799,-2.111506462097168,-1.0052785873413086,0.0,-1.5700000524520874,1.5700000524520874,-1.5700000524520874,-1.5700000524520874,0.0,1.6056501865386963,0.00721438555046916,0.5093967318534851,-0.8835793733596802,-0.8437126874923706,-3.141594409942627,1.5766257047653198,0.04522490128874779,0.5061987042427063,-0.8871086835861206,-0.8455137014389038,-3.141590118408203,-6.2831854820251465,6.2831854820251465,-6.2831854820251465,6.2831854820251465,-3.1415927410125732,3.1415927410125732,-6.2831854820251465,6.2831854820251465,-6.2831854820251465,6.2831854820251465,-6.2831854820251465,6.2831854820251465,-5.654866695404053,5.654866695404053,-5.654866695404053,5.654866695404053,-2.8274333477020264,2.8274333477020264,-5.654866695404053,5.654866695404053,-5.654866695404053,5.654866695404053,-5.654866695404053,5.654866695404053,2.094399929046631,2.094399929046631,3.1415998935699463,3.1415998935699463,3.1415998935699463,3.1415998935699463,2.094399929046631,2.094399929046631,3.1415998935699463,3.1415998935699463,3.1415998935699463,3.1415998935699463,0.27322331070899963,0.33829012513160706,0.5467274785041809,-0.3735773265361786,-0.9161393642425537,-0.10803893208503723,0.0972425639629364,NA,NA,NA,NA,NA,NA,NA,0.36621516942977905,0.248762845993042,0.4527476727962494,-1.875928923311676e-08,0.42916250228881836,0.9032273292541504,-3.948132132336468e-08
41,0.328,0,0,41,0.6380088925361633,-1.8839436769485474,2.0042271614074707,-1.083168387413025,-2.1177477836608887,-1.030409812927246,0.0,-1.5700000524520874,1.5700000524520874,-1.5700000524520874,-1.5700000524520874,0.0,1.4915939569473267,0.043107930570840836,0.4833795130252838,-0.9781439900398254,-0.7827474474906921,-3.1415927410125732,1.4637858867645264,0.07975985109806061,0.48061200976371765,-0.9814900159835815,-0.7844579219818115,-3.141590118408203,-6.2831854820251465,6.2831854820251465,-6.2831854820251465,6.2831854820251465,-3.1415927410125732,3.1415927410125732,-6.2831854820251465,6.2831854820251465,-6.2831854820251465,6.2831854820251465,-6.2831854820251465,6.2831854820251465,-5.654866695404053,5.654866695404053,-5.654866695404053,5.654866695404053,-2.8274333477020264,2.8274333477020264,-5.654866695404053,5.654866695404053,-5.654866695404053,5.654866695404053,-5.654866695404053,5.654866695404053,2.094399929046631,2.094399929046631,3.1415998935699463,3.1415998935699463,3.1415998935699463,3.1415998935699463,2.094399929046631,2.094399929046631,3.1415998935699463,3.1415998935699463,3.1415998935699463,3.1415998935699463,0.2699163854122162,0.3414677381515503,0.5448559522628784,-0.37438440322875977,-0.9136631488800049,-0.12556305527687073,0.09638267755508423,NA,NA,NA,NA,NA,NA,NA,0.36621516942977905,0.248762845993042,0.4527476727962494,-1.875928923311676e-08,0.42916250228881836,0.9032273292541504,-3.948132132336468e-08
42,0.336,0,0,42,0.6493499875068665,-1.8834564685821533,2.0079939365386963,-1.0916796922683716,-2.1235036849975586,-1.0555410385131836,0.0,-1.5700000524520874,1.5700000524520874,-1.5700000524520874,-1.5700000524520874,0.0,1.3806430101394653,0.07669232040643692,0.4599173367023468,-1.0677586793899536,-0.7219793796539307,-3.1415939331054688,1.354003667831421,0.11189354956150055,0.45750531554222107,-1.070924997329712,-0.7236043214797974,-3.141590118408203,-6.2831854820251465,6.2831854820251465,-6.2831854820251465,6.2831854820251465,-3.1415927410125732,3.1415927410125732,-6.2831854820251465,6.2831854820251465,-6.2831854820251465,6.2831854820251465,-6.2831854820251465,6.2831854820251465,-5.654866695404053,5.654866695404053,-5.654866695404053,5.654866695404053,-2.8274333477020264,2.8274333477020264,-5.654866695404053,5.654866695404053,-5.654866695404053,5.654866695404053,-5.654866695404053,5.654866695404053,2.094399929046631,2.094399929046631,3.1415998935699463,3.1415998935699463,3.1415998935699463,3.1415998935699463,2.094399929046631,2.094399929046631,3.1415998935699463,3.1415998935699463,3.1415998935699463,3.1415998935699463,0.2670294940471649,0.3445501923561096,0.5430013537406921,-0.37485969066619873,-0.9110689163208008,-0.14246797561645508,0.09558501839637756,NA,NA,NA,NA,NA,NA,NA,0.36621516942977905,0.248762845993042,0.4527476727962494,-1.875928923311676e-08,0.42916250228881836,0.9032273292541504,-3.948132132336468e-08
43,0.34400000000000003,0,0,43,0.6598168015480042,-1.8827153444290161,2.0115861892700195,-1.1008718013763428,-2.1287758350372314,-1.080672264099121,0.0,-1.5700000524520874,1.5700000524520874,-1.5700000524520874,-1.5700000524520874,0.0,1.2728480100631714,0.10764188319444656,0.4390221834182739,-1.1525955200195312,-0.661325216293335,-3.141594171524048,1.247408390045166,0.14114217460155487,0.4368717074394226,-1.155578374862671,-0.6628668308258057,-3.141590118408203,-6.2831854820251465,6.2831854820251465,-6.2831854820251465,6.2831854820251465,-3.1415927410125732,3.1415927410125732,-6.2831854820251465,6.2831854820251465,-6.2831854820251465,6.2831854820251465,-6.2831854820251465,6.2831854820251465,-5.654866695404053,5.654866695404053,-5.654866695404053,5.654866695404053,-2.8274333477020264,2.8274333477020264,-5.654866695404053,5.654866695404053,-5.654866695404053,5.654866695404053,-5.654866695404053,5.654866695404053,2.094399929046631,2.094399929046631,3.1415998935699463,3.1415998935699463,3.1415998935699463,3.1415998935699463,2.094399929046631,2.094399929046631,3.1415998935699463,3.1415998935699463,3.1415998935699463,3.1415998935699463,0.26454126834869385,0.34754428267478943,0.5411590933799744,-0.3750164210796356,-0.9083808660507202,-0.15877467393875122,0.09485462307929993,NA,NA,NA,NA,NA,NA,NA,0.36621516942977905,0.248762845993042,0.4527476727962494,-1.875928923311676e-08,0.42916250228881836,0.9032273292541504,-3.948132132336468e-08
44,0.352,0,0,44,0.6694348454475403,-1.8817390203475952,2.0150249004364014,-1.1107078790664673,-2.13356614112854,-1.1058034896850586,0.0,-1.5700000524520874,1.5700000524520874,-1.5700000524520874,-1.5700000524520874,0.0,1.168155550956726,0.13610613346099854,0.4206666648387909,-1.2328791618347168,-0.6009082198143005,-3.141592502593994,1.1438384056091309,0.16802777349948883,0.41882169246673584,-1.2356832027435303,-0.6023705005645752,-3.141590118408203,-6.2831854820251465,6.2831854820251465,-6.2831854820251465,6.2831854820251465,-3.1415927410125732,3.1415927410125732,-6.2831854820251465,6.2831854820251465,-6.2831854820251465,6.2831854820251465,-6.2831854820251465,6.2831854820251465,-5.654866695404053,5.654866695404053,-5.654866695404053,5.654866695404053,-2.8274333477020264,2.8274333477020264,-5.654866695404053,5.654866695404053,-5.654866695404053,5.654866695404053,-5.654866695404053,5.654866695404053,2.094399929046631,2.094399929046631,3.1415998935699463,3.1415998935699463,3.1415998935699463,3.1415998935699463,2.094399929046631,2.094399929046631,3.1415998935699463,3.1415998935699463,3.1415998935699463,3.1415998935699463,0.2624317705631256,0.350454717874527,0.5393234491348267,-0.3748682737350464,-0.9056204557418823,-0.17450588941574097,0.09419620037078857,NA,NA,NA,NA,NA,NA,NA,0.36621516942977905,0.248762845993042,0.4527476727962494,-1.875928923311676e-08,0.42916250228881836,0.9032273292541504,-3.948132132336468e-08
45,0.36,0,0,45,0.6782293915748596,-1.8805465698242188,2.01832914352417,-1.121153712272644,-2.1378777027130127,-1.130934715270996,0.0,-1.5700000524520874,1.5700000524520874,-1.5700000524520874,-1.5700000524520874,0.0,1.0664899349212646,0.16229553520679474,0.40475451946258545,-1.3088879585266113,-0.5409514904022217,-3.1415927410125732,1.0432049036026,0.19278520345687866,0.40324416756629944,-1.3115178346633911,-0.5423381924629211,-3.141590118408203,-6.2831854820251465,6.2831854820251465,-6.2831854820251465,6.2831854820251465,-3.1415927410125732,3.1415927410125732,-6.2831854820251465,6.2831854820251465,-6.2831854820251465,6.2831854820251465,-6.2831854820251465,6.2831854820251465,-5.654866695404053,5.654866695404053,-5.654866695404053,5.654866695404053,-2.8274333477020264,2.8274333477020264,-5.654866695404053,5.654866695404053,-5.654866695404053,5.654866695404053,-5.654866695404053,5.654866695404053,2.094399929046631,2.094399929046631,3.1415998935699463,3.1415998935699463,3.1415998935699463,3.1415998935699463,2.094399929046631,2.094399929046631,3.1415998935699463,3.1415998935699463,3.1415998935699463,3.1415998935699463,0.26068177819252014,0.3532855212688446,0.5374897718429565,-0.37442800402641296,-0.9028072357177734,-0.18968290090560913,0.09361150860786438,NA,NA,NA,NA,NA,NA,NA,0.36621516942977905,0.248762845993042,0.4527476727962494,-1.875928923311676e-08,0.42916250228881836,0.9032273292541504,-3.948132132336468e-08
46,0.368,0,0,46,0.6862257719039917,-1.8791552782058716,2.0215187072753906,-1.1321779489517212,-2.141716718673706,-1.1560659408569336,0.0,-1.5700000524520874,1.5700000524520874,-1.5700000524520874,-1.5700000524520874,0.0,0.9679147005081177,0.18640661239624023,0.3911837935447693,-1.3809595108032227,-0.4818325936794281,-3.1415927410125732,0.9456038475036621,0.21557068824768066,0.3900274634361267,-1.383419394493103,-0.48314592242240906,-3.141590118408203,-6.2831854820251465,6.2831854820251465,-6.2831854820251465,6.2831854820251465,-3.1415927410125732,3.1415927410125732,-6.2831854820251465,6.2831854820251465,-6.2831854820251465,6.2831854820251465,-6.2831854820251465,6.2831854820251465,-5.654866695404053,5.654866695404053,-5.654866695404053,5.654866695404053,-2.8274333477020264,2.8274333477020264,-5.654866695404053,5.654866695404053,-5.654866695404053,5.654866695404053,-5.654866695404053,5.654866695404053,2.094399929046631,2.094399929046631,3.1415998935699463,3.1415998935699463,3.1415998935699463,3.1415998935699463,2.094399929046631,2.094399929046631,3.1415998935699463,3.1415998935699463,3.1415998935699463,3.1415998935699463,0.2592732906341553,0.3560386896133423,0.5356525778770447,-0.3737078309059143,-0.899958074092865,-0.20432856678962708,0.09310078620910645,NA,NA,NA,NA,NA,NA,NA,0.36621516942977905,0.248762845993042,0.4527476727962494,-1.875928923311676e-08,0.42916250228881836,0.9032273292541504,-3.948132132336468e-08
47,0.376,0,0,47,0.6934487819671631,-1.8775802850723267,2.024610757827759,-1.1437491178512573,-2.1450915336608887,-1.181197166442871,0.0,-1.5700000524520874,1.5700000524520874,-1.5700000524520874,-1.5700000524520874,0.0,0.8724629878997803,0.2086360901594162,0.3799079954624176,-1.4491550922393799,-0.4236292243003845,-3.1415929794311523,0.8510760068893433,0.23660440742969513,0.37916189432144165,-1.45144522190094,-0.4248693287372589,-3.141590118408203,-6.2831854820251465,6.2831854820251465,-6.2831854820251465,6.2831854820251465,-3.1415927410125732,3.1415927410125732,-6.2831854820251465,6.2831854820251465,-6.2831854820251465,6.2831854820251465,-6.2831854820251465,6.2831854820251465,-5.654866695404053,5.654866695404053,-5.654866695404053,5.654866695404053,-2.8274333477020264,2.8274333477020264,-5.654866695404053,5.654866695404053,-5.654866695404053,5.654866695404053,-5.654866695404053,5.654866695404053,2.094399929046631,2.094399929046631,3.1415998935699463,3.1415998935699463,3.1415998935699463,3.1415998935699463,2.094399929046631,2.094399929046631,3.1415998935699463,3.1415998935699463,3.1415998935699463,3.1415998935699463,0.2581902742385864,0.35871508717536926,0.5338079333305359,-0.3727203607559204,-0.8970874547958374,-0.21846529841423035,0.09266358613967896,NA,NA,NA,NA,NA,NA,NA,0.36621516942977905,0.248762845993042,0.4527476727962494,-1.875928923311676e-08,0.42916250228881836,0.9032273292541504,-3.948132132336468e-08
48,0.384,0,0,48,0.699924647808075,-1.8758354187011719,2.0276246070861816,-1.1558364629745483,-2.1480095386505127,-1.2063283920288086,0.0,-1.5700000524520874,1.5700000524520874,-1.5700000524520874,-1.5700000524520874,0.0,0.7802586555480957,0.22920915484428406,0.37089836597442627,-1.5134258270263672,-0.3663804531097412,-3.1415934562683105,0.759764552116394,0.25612300634384155,0.37064382433891296,-1.5155420303344727,-0.36754655838012695,-3.141590118408203,-6.2831854820251465,6.2831854820251465,-6.2831854820251465,6.2831854820251465,-3.1415927410125732,3.1415927410125732,-6.2831854820251465,6.2831854820251465,-6.2831854820251465,6.2831854820251465,-6.2831854820251465,6.2831854820251465,-5.654866695404053,5.654866695404053,-5.654866695404053,5.654866695404053,-2.8274333477020264,2.8274333477020264,-5.654866695404053,5.654866695404053,-5.654866695404053,5.654866695404053,-5.654866695404053,5.654866695404053,2.094399929046631,2.094399929046631,3.1415998935699463,3.1415998935699463,3.1415998935699463,3.1415998935699463,2.094399929046631,2.094399929046631,3.1415998935699463,3.1415998935699463,3.1415998935699463,3.1415998935699463,0.25741633772850037,0.36131551861763,0.5319485664367676,-0.3714788854122162,-0.8942066431045532,-0.23211714625358582,0.09230086207389832,NA,NA,NA,NA,NA,NA,NA,0.36621516942977905,0.248762845993042,0.4527476727962494,-1.875928923311676e-08,0.42916250228881836,0.9032273292541504,-3.948132132336468e-08
49,0.392,0,0,49,0.7056792974472046,-1.87393319606781,2.030576229095459,-1.1684094667434692,-2.1504781246185303,-1.231459617614746,0.0,-1.5700000524520874,1.5700000524520874,-1.5700000524520874,-1.5700000524520874,0.0,0.6912119388580322,0.24823962152004242,0.36403176188468933,-1.5739495754241943,-0.3102218508720398,-3.1415929794311523,0.6715578436851501,0.2741578221321106,0.3642567992210388,-1.5758997201919556,-0.31131699681282043,-3.141590118408203,-6.2831854820251465,6.2831854820251465,-6.2831854820251465,6.2831854820251465,-3.1415927410125732,3.1415927410125732,-6.2831854820251465,6.2831854820251465,-6.2831854820251465,6.2831854820251465,-6.2831854820251465,6.2831854820251465,-5.654866695404053,5.654866695404053,-5.654866695404053,5.654866695404053,-2.8274333477020264,2.8274333477020264,-5.654866695404053,5.654866695404053,-5.654866695404053,5.654866695404053,-5.654866695404053,5.654866695404053,2.094399929046631,2.094399929046631,3.1415998935699463,3.1415998935699463,3.1415998935699463,3.1415998935699463,2.094399929046631,2.094399929046631,3.1415998935699463,3.1415998935699463,3.1415998935699463,3.1415998935699463,0.25693565607070923,0.36384034156799316,0.5300695300102234,-0.3699948191642761,-0.8913261294364929,-0.2453068345785141,0.09201169013977051,NA,NA,NA,NA,NA,NA,NA,0.36621516942977905,0.248762845993042,0.4527476727962494,-1.875928923311676e-08,0.42916250228881836,0.9032273292541504,-3.948132132336468e-08
50,0.4,0,0,50,0.7107397317886353,-1.8718847036361694,2.0334815979003906,-1.1814396381378174,-2.1525111198425293,-1.2565908432006836,0.0,-1.5700000524520874,1.5700000524520874,-1.5700000524520874,-1.5700000524520874,0.0,0.6055188179016113,0.2659866213798523,0.35916388034820557,-1.6308674812316895,-0.2555569112300873,-3.141594171524048,0.5866795778274536,0.29101938009262085,0.35989952087402344,-1.632651925086975,-0.25658172369003296,-3.141590118408203,-6.2831854820251465,6.2831854820251465,-6.2831854820251465,6.2831854820251465,-3.1415927410125732,3.1415927410125732,-6.2831854820251465,6.2831854820251465,-6.2831854820251465,6.2831854820251465,-6.2831854820251465,6.2831854820251465,-5.654866695404053,5.654866695404053,-5.654866695404053,5.654866695404053,-2.8274333477020264,2.8274333477020264,-5.654866695404053,5.654866695404053,-5.654866695404053,5.654866695404053,-5.654866695404053,5.654866695404053,2.094399929046631,2.094399929046631,3.1415998935699463,3.1415998935699463,3.1415998935699463,3.1415998935699463,2.094399929046631,2.094399929046631,3.1415998935699463,3.1415998935699463,3.1415998935699463,3.1415998935699463,0.25673407316207886,0.366288423538208,0.5281660556793213,-0.3682814836502075,-0.8884528875350952,-0.25805869698524475,0.09179255366325378,NA,NA,NA,NA,NA,NA,NA,0.36621516942977905,0.248762845993042,0.4527476727962494,-1.875928923311676e-08,0.42916250228881836,0.9032273292541504,-3.948132132336468e-08
51,0.40800000000000003,0,0,51,0.7151409387588501,-1.8696948289871216,2.0363566875457764,-1.1948994398117065,-2.1541335582733154,-1.281722068786621,0.0,-1.5700000524520874,1.5700000524520874,-1.5700000524520874,-1.5700000524520874,0.0,0.5245972871780396,0.28337526321411133,0.3559408187866211,-1.684401512145996,-0.20416676998138428,-3.141592025756836,0.5066428780555725,0.30783918499946594,0.35734912753105164,-1.6860090494155884,-0.20510801672935486,-3.141590118408203,-6.2831854820251465,6.2831854820251465,-6.2831854820251465,6.2831854820251465,-3.1415927410125732,3.1415927410125732,-6.2831854820251465,6.2831854820251465,-6.2831854820251465,6.2831854820251465,-6.2831854820251465,6.2831854820251465,-5.654866695404053,5.654866695404053,-5.654866695404053,5.654866695404053,-2.8274333477020264,2.8274333477020264,-5.654866695404053,5.654866695404053,-5.654866695404053,5.654866695404053,-5.654866695404053,5.654866695404053,2.094399929046631,2.094399929046631,3.1415998935699463,3.1415998935699463,3.1415998935699463,3.1415998935699463,2.094399929046631,2.094399929046631,3.1415998935699463,3.1415998935699463,3.1415998935699463,3.1415998935699463,0.2567965090274811,0.36866217851638794,0.526229977607727,-0.3663579523563385,-0.8855882883071899,-0.27040207386016846,0.09163975715637207,NA,NA,NA,NA,NA,NA,NA,0.36621516942977905,0.248762845993042,0.4527476727962494,-1.875928923311676e-08,0.42916250228881836,0.9032273292541504,-3.948132132336468e-08
52,0.41600000000000004,0,0,52,0.7189188599586487,-1.8673667907714844,2.0392117500305176,-1.2087633609771729,-2.155369281768799,-1.3068532943725586,0.0,-1.5700000524520874,1.5700000524520874,-1.5700000524520874,-1.5700000524520874,0.0,0.44811058044433594,0.30038127303123474,0.3542860448360443,-1.7347428798675537,-0.15577125549316406,-3.1415927410125732,0.4309873580932617,0.3242869973182678,0.3563327193260193,-1.7361818552017212,-0.15663334727287292,-3.141590118408203,-6.2831854820251465,6.2831854820251465,-6.2831854820251465,6.2831854820251465,-3.1415927410125732,3.1415927410125732,-6.2831854820251465,6.2831854820251465,-6.2831854820251465,6.2831854820251465,-6.2831854820251465,6.2831854820251465,-5.654866695404053,5.654866695404053,-5.654866695404053,5.654866695404053,-2.8274333477020264,2.8274333477020264,-5.654866695404053,5.654866695404053,-5.654866695404053,5.654866695404053,-5.654866695404053,5.654866695404053,2.094399929046631,2.094399929046631,3.1415998935699463,3.1415998935699463,3.1415998935699463,3.1415998935699463,2.094399929046631,2.094399929046631,3.1415998935699463,3.1415998935699463,3.1415998935699463,3.1415998935699463,0.25710901618003845,0.37096402049064636,0.5242573022842407,-0.3642410635948181,-0.8827332854270935,-0.2823646664619446,0.09154549241065979,NA,NA,NA,NA,NA,NA,NA,0.36621516942977905,0.248762845993042,0.4527476727962494,-1.875928923311676e-08,0.42916250228881836,0.9032273292541504,-3.948132132336468e-08
53,0.424,0,0,53,0.7221059799194336,-1.8649042844772339,2.0420594215393066,-1.2230064868927002,-2.1562368869781494,-1.331984519958496,0.0,-1.5700000524520874,1.5700000524520874,-1.5700000524520874,-1.5700000524520874,0.0,0.3754517138004303,0.3168095052242279,0.35417914390563965,-1.782025694847107,-0.10978227108716965,-3.141592264175415,0.3590911030769348,0.3401084840297699,0.35679757595062256,-1.7833032608032227,-0.11057352274656296,-3.141590118408203,-6.2831854820251465,6.2831854820251465,-6.2831854820251465,6.2831854820251465,-3.1415927410125732,3.1415927410125732,-6.2831854820251465,6.2831854820251465,-6.2831854820251465,6.2831854820251465,-6.2831854820251465,6.2831854820251465,-5.654866695404053,5.654866695404053,-5.654866695404053,5.654866695404053,-2.8274333477020264,2.8274333477020264,-5.654866695404053,5.654866695404053,-5.654866695404053,5.654866695404053,-5.654866695404053,5.654866695404053,2.094399929046631,2.094399929046631,3.1415998935699463,3.1415998935699463,3.1415998935699463,3.1415998935699463,2.094399929046631,2.094399929046631,3.1415998935699463,3.1415998935699463,3.1415998935699463,3.1415998935699463,0.2576579451560974,0.3731952905654907,0.5222415924072266,-0.361946165561676,-0.8798875212669373,-0.29397228360176086,0.09150552749633789,NA,NA,NA,NA,NA,NA,NA,0.36621516942977905,0.248762845993042,0.4527476727962494,-1.875928923311676e-08,0.42916250228881836,0.9032273292541504,-3.948132132336468e-08
54,0.432,0,0,54,0.7247301936149597,-1.862313151359558,2.0449137687683105,-1.2376060485839844,-2.156752347946167,-1.3571157455444336,0.0,-1.5700000524520874,1.5700000524520874,-1.5700000524520874,-1.5700000524520874,0.0,0.3060992956161499,0.3324785530567169,0.355579674243927,-1.8263764381408691,-0.0657602995634079,-3.1415927410125732,0.2904430031776428,0.35511159896850586,0.35869696736335754,-1.8275012969970703,-0.06648808717727661,-3.141590118408203,-6.2831854820251465,6.2831854820251465,-6.2831854820251465,6.2831854820251465,-3.1415927410125732,3.1415927410125732,-6.2831854820251465,6.2831854820251465,-6.2831854820251465,6.2831854820251465,-6.2831854820251465,6.2831854820251465,-5.654866695404053,5.654866695404053,-5.654866695404053,5.654866695404053,-2.8274333477020264,2.8274333477020264,-5.654866695404053,5.654866695404053,-5.654866695404053,5.654866695404053,-5.654866695404053,5.654866695404053,2.094399929046631,2.094399929046631,3.1415998935699463,3.1415998935699463,3.1415998935699463,3.1415998935699463,2.094399929046631,2.094399929046631,3.1415998935699463,3.1415998935699463,3.1415998935699463,3.1415998935699463,0.2584303617477417,0.3753550946712494,0.5201761722564697,-0.35948580503463745,-0.8770511746406555,-0.3052469789981842,0.09151721000671387,NA,NA,NA,NA,NA,NA,NA,0.36621516942977905,0.248762845993042,0.4527476727962494,-1.875928923311676e-08,0.42916250228881836,0.9032273292541504,-3.948132132336468e-08
55,0.44,0,0,55,0.7268158793449402,-1.8596001863479614,2.0477843284606934,-1.252538800239563,-2.1569302082061768,-1.382246971130371,0.0,-1.5700000524520874,1.5700000524520874,-1.5700000524520874,-1.5700000524520874,0.0,0.23963883519172668,0.3472321331501007,0.35844850540161133,-1.8678873777389526,-0.023357827216386795,-3.141591787338257,0.2246428281068802,0.3691413700580597,0.36200040578842163,-1.8688706159591675,-0.02402801252901554,-3.141590118408203,-6.2831854820251465,6.2831854820251465,-6.2831854820251465,6.2831854820251465,-3.1415927410125732,3.1415927410125732,-6.2831854820251465,6.2831854820251465,-6.2831854820251465,6.2831854820251465,-6.2831854820251465,6.2831854820251465,-5.654866695404053,5.654866695404053,-5.654866695404053,5.654866695404053,-2.8274333477020264,2.8274333477020264,-5.654866695404053,5.654866695404053,-5.654866695404053,5.654866695404053,-5.654866695404053,5.654866695404053,2.094399929046631,2.094399929046631,3.1415998935699463,3.1415998935699463,3.1415998935699463,3.1415998935699463,2.094399929046631,2.094399929046631,3.1415998935699463,3.1415998935699463,3.1415998935699463,3.1415998935699463,0.259414404630661,0.37744203209877014,0.5180583596229553,-0.35687148571014404,-0.8742243051528931,-0.3162093460559845,0.09157615900039673,NA,NA,NA,NA,NA,NA,NA,0.36621516942977905,0.248762845993042,0.4527476727962494,-1.875928923311676e-08,0.42916250228881836,0.9032273292541504,-3.948132132336468e-08
56,0.448,0,0,56,0.7283840179443359,-1.8567732572555542,2.050682544708252,-1.2677828073501587,-2.1567797660827637,-1.4073781967163086,0.0,-1.5700000524520874,1.5700000524520874,-1.5700000524520874,-1.5700000524520874,0.0,0.17572979629039764,0.36095869541168213,0.3627513349056244,-1.9066370725631714,0.017734602093696594,-3.141592502593994,0.16135597229003906,0.38210877776145935,0.3666922152042389,-1.9074857234954834,0.017117168754339218,-3.141590118408203,-6.2831854820251465,6.2831854820251465,-6.2831854820251465,6.2831854820251465,-3.1415927410125732,3.1415927410125732,-6.2831854820251465,6.2831854820251465,-6.2831854820251465,6.2831854820251465,-6.2831854820251465,6.2831854820251465,-5.654866695404053,5.654866695404053,-5.654866695404053,5.654866695404053,-2.8274333477020264,2.8274333477020264,-5.654866695404053,5.654866695404053,-5.654866695404053,5.654866695404053,-5.654866695404053,5.654866695404053,2.094399929046631,2.094399929046631,3.1415998935699463,3.1415998935699463,3.1415998935699463,3.1415998935699463,2.094399929046631,2.094399929046631,3.1415998935699463,3.1415998935699463,3.1415998935699463,3.1415998935699463,0.2605992555618286,0.3794528841972351,0.5158839821815491,-0.3541116416454315,-0.8714077472686768,-0.3268764019012451,0.09167936444282532,NA,NA,NA,NA,NA,NA,NA,0.36621516942977905,0.248762845993042,0.4527476727962494,-1.875928923311676e-08,0.42916250228881836,0.9032273292541504,-3.948132132336468e-08
57,0.456,0,0,57,0.7294535636901855,-1.8538408279418945,2.0536234378814697,-1.283316731452942,-2.1563098430633545,-1.432509422302246,0.0,-1.5700000524520874,1.5700000524520874,-1.5700000524520874,-1.5700000524520874,0.0,0.11412769556045532,0.37354958057403564,0.3684530556201935,-1.9426661729812622,0.05771949142217636,-3.1415908336639404,0.1003546267747879,0.3938906192779541,0.3727371394634247,-1.9433846473693848,0.057150065898895264,-3.141590118408203,-6.2831854820251465,6.2831854820251465,-6.2831854820251465,6.2831854820251465,-3.1415927410125732,3.1415927410125732,-6.2831854820251465,6.2831854820251465,-6.2831854820251465,6.2831854820251465,-6.2831854820251465,6.2831854820251465,-5.654866695404053,5.654866695404053,-5.654866695404053,5.654866695404053,-2.8274333477020264,2.8274333477020264,-5.654866695404053,5.654866695404053,-5.654866695404053,5.654866695404053,-5.654866695404053,5.654866695404053,2.094399929046631,2.094399929046631,3.1415998935699463,3.1415998935699463,3.1415998935699463,3.1415998935699463,2.094399929046631,2.094399929046631,3.1415998935699463,3.1415998935699463,3.1415998935699463,3.1415998935699463,0.26197272539138794,0.38138315081596375,0.5136467814445496,-0.35121437907218933,-0.8686014413833618,-0.3372648358345032,0.09182724356651306,NA,NA,NA,NA,NA,NA,NA,0.36621516942977905,0.248762845993042,0.4527476727962494,-1.875928923311676e-08,0.42916250228881836,0.9032273292541504,-3.948132132336468e-08
58,0.464,0,0,58,0.7300419211387634,-1.8508131504058838,2.0566182136535645,-1.299119472503662,-2.1555275917053223,-1.4576406478881836,0.0,-1.5700000524520874,1.5700000524520874,-1.5700000524520874,-1.5700000524520874,0.0,0.05461746081709862,0.3848969042301178,0.37550315260887146,-1.9760230779647827,0.09674659371376038,-3.1415910720825195,0.04142880439758301,0.4043688178062439,0.3800770938396454,-1.9766193628311157,0.09622160345315933,-3.141590118408203,-6.2831854820251465,6.2831854820251465,-6.2831854820251465,6.2831854820251465,-3.1415927410125732,3.1415927410125732,-6.2831854820251465,6.2831854820251465,-6.2831854820251465,6.2831854820251465,-6.2831854820251465,6.2831854820251465,-5.654866695404053,5.654866695404053,-5.654866695404053,5.654866695404053,-2.8274333477020264,2.8274333477020264,-5.654866695404053,5.654866695404053,-5.654866695404053,5.654866695404053,-5.654866695404053,5.654866695404053,2.094399929046631,2.094399929046631,3.1415998935699463,3.1415998935699463,3.1415998935699463,3.1415998935699463,2.094399929046631,2.094399929046631,3.1415998935699463,3.1415998935699463,3.1415998935699463,3.1415998935699463,0.2635236978530884,0.3832283318042755,0.5113433003425598,-0.34818732738494873,-0.8658055067062378,-0.34738925099372864,0.09201708436012268,NA,NA,NA,NA,NA,NA,NA,0.36621516942977905,0.248762845993042,0.4527476727962494,-1.875928923311676e-08,0.42916250228881836,0.9032273292541504,-3.948132132336468e-08
59,0.47200000000000003,0,0,59,0.7301649451255798,-1.8477002382278442,2.059673547744751,-1.315168023109436,-2.15444016456604,-1.482771873474121,0.0,-1.5700000524520874,1.5700000524520874,-1.5700000524520874,-1.5700000524520874,0.0,-0.0029625091701745987,0.3949138820171356,0.38386446237564087,-2.006727933883667,0.13496270775794983,-3.1415910720825195,-0.015575705096125603,0.41346773505210876,0.388688862323761,-2.0072059631347656,0.13447821140289307,-3.141590118408203,-6.2831854820251465,6.2831854820251465,-6.2831854820251465,6.2831854820251465,-3.1415927410125732,3.1415927410125732,-6.2831854820251465,6.2831854820251465,-6.2831854820251465,6.2831854820251465,-6.2831854820251465,6.2831854820251465,-5.654866695404053,5.654866695404053,-5.654866695404053,5.654866695404053,-2.8274333477020264,2.8274333477020264,-5.654866695404053,5.654866695404053,-5.654866695404053,5.654866695404053,-5.654866695404053,5.654866695404053,2.094399929046631,2.094399929046631,3.1415998935699463,3.1415998935699463,3.1415998935699463,3.1415998935699463,2.094399929046631,2.094399929046631,3.1415998935699463,3.1415998935699463,3.1415998935699463,3.1415998935699463,0.2652428150177002,0.3849838972091675,0.5089735388755798,-0.34503573179244995,-0.8630200028419495,-0.35726356506347656,0.09224623441696167,NA,NA,NA,NA,NA,NA,NA,0.36621516942977905,0.248762845993042,0.4527476727962494,-1.875928923311676e-08,0.42916250228881836,0.9032273292541504,-3.948132132336468e-08
60,0.48,0,0,60,0.72983717918396,-1.8445124626159668,2.0628011226654053,-1.3314424753189087,-2.1530516147613525,-1.5079030990600586,0.0,-1.5700000524520874,1.5700000524520874,-1.5700000524520874,-1.5700000524520874,0.0,-0.05873233824968338,0.40353724360466003,0.39350688457489014,-2.0347869396209717,0.17249935865402222,-3.1415913105010986,-0.0707746297121048,0.42113786935806274,0.39855459332466125,-2.0351531505584717,0.17205284535884857,-3.141590118408203,-6.2831854820251465,6.2831854820251465,-6.2831854820251465,6.2831854820251465,-3.1415927410125732,3.1415927410125732,-6.2831854820251465,6.2831854820251465,-6.2831854820251465,6.2831854820251465,-6.2831854820251465,6.2831854820251465,-5.654866695404053,5.654866695404053,-5.654866695404053,5.654866695404053,-2.8274333477020264,2.8274333477020264,-5.654866695404053,5.654866695404053,-5.654866695404053,5.654866695404053,-5.654866695404053,5.654866695404053,2.094399929046631,2.094399929046631,3.1415998935699463,3.1415998935699463,3.1415998935699463,3.1415998935699463,2.094399929046631,2.094399929046631,3.1415998935699463,3.1415998935699463,3.1415998935699463,3.1415998935699463,0.2671191394329071,0.386644184589386,0.5065346360206604,-0.3417641520500183,-0.8602460026741028,-0.36689987778663635,0.0925130546092987,NA,NA,NA,NA,NA,NA,NA,0.36621516942977905,0.248762845993042,0.4527476727962494,-1.875928923311676e-08,0.42916250228881836,0.9032273292541504,-3.948132132336468e-08
61,0.488,0,0,61,0.7290728688240051,-1.841261625289917,2.066011905670166,-1.3479218482971191,-2.151369333267212,-1.533034324645996,0.0,-1.5700000524520874,1.5700000524520874,-1.5700000524520874,-1.5700000524520874,0.0,-0.11275786906480789,0.4106979966163635,0.4043917953968048,-2.060194969177246,0.20939622819423676,-3.1415910720825195,-0.12422207742929459,0.4272931218147278,0.40962865948677063,-2.0604519844055176,0.2089855670928955,-3.141590118408203,-6.2831854820251465,6.2831854820251465,-6.2831854820251465,6.2831854820251465,-3.1415927410125732,3.1415927410125732,-6.2831854820251465,6.2831854820251465,-6.2831854820251465,6.2831854820251465,-6.2831854820251465,6.2831854820251465,-5.654866695404053,5.654866695404053,-5.654866695404053,5.654866695404053,-2.8274333477020264,2.8274333477020264,-5.654866695404053,5.654866695404053,-5.654866695404053,5.654866695404053,-5.654866695404053,5.654866695404053,2.094399929046631,2.094399929046631,3.1415998935699463,3.1415998935699463,3.1415998935699463,3.1415998935699463,2.094399929046631,2.094399929046631,3.1415998935699463,3.1415998935699463,3.1415998935699463,3.1415998935699463,0.2691420316696167,0.3882024586200714,0.5040226578712463,-0.3383792042732239,-0.8574814200401306,-0.37631118297576904,0.09281739592552185,NA,NA,NA,NA,NA,NA,NA,0.36621516942977905,0.248762845993042,0.4527476727962494,-1.875928923311676e-08,0.42916250228881836,0.9032273292541504,-3.948132132336468e-08
62,0.496,0,0,62,0.727885901927948,-1.837960124015808,2.0693140029907227,-1.3645846843719482,-2.149397134780884,-1.5581655502319336,0.0,-1.5700000524520874,1.5700000524520874,-1.5700000524520874,-1.5700000524520874,0.0,-0.1650681346654892,0.4163191020488739,0.4164961576461792,-2.0829250812530518,0.2456357479095459,-3.1415929794311523,-0.17593762278556824,0.4318499267101288,0.42189255356788635,-2.0830795764923096,0.24525953829288483,-3.141590118408203,-6.2831854820251465,6.2831854820251465,-6.2831854820251465,6.2831854820251465,-3.1415927410125732,3.1415927410125732,-6.2831854820251465,6.2831854820251465,-6.2831854820251465,6.2831854820251465,-6.2831854820251465,6.2831854820251465,-5.654866695404053,5.654866695404053,-5.654866695404053,5.654866695404053,-2.8274333477020264,2.8274333477020264,-5.654866695404053,5.654866695404053,-5.654866695404053,5.654866695404053,-5.654866695404053,5.654866695404053,2.094399929046631,2.094399929046631,3.1415998935699463,3.1415998935699463,3.1415998935699463,3.1415998935699463,2.094399929046631,2.094399929046631,3.1415998935699463,3.1415998935699463,3.1415998935699463,3.1415998935699463,0.2713002860546112,0.3896532654762268,0.5014389753341675,-0.3348839282989502,-0.8547266721725464,-0.3855088949203491,0.0931553840637207,NA,NA,NA,NA,NA,NA,NA,0.36621516942977905,0.248762845993042,0.4527476727962494,-1.875928923311676e-08,0.42916250228881836,0.9032273292541504,-3.948132132336468e-08
63,0.504,0,0,63,0.7262895107269287,-1.834620714187622,2.0727179050445557,-1.3814082145690918,-2.1471381187438965,-1.583296775817871,0.0,-1.5700000524520874,1.5700000524520874,-1.5700000524520874,-1.5700000524520874,0.0,-0.2156970202922821,0.4203537106513977,0.4297727346420288,-2.1029701232910156,0.28130125999450684,-3.1415905952453613,-0.22596019506454468,0.4347771108150482,0.4353002607822418,-2.1030232906341553,0.28095752000808716,-3.141590118408203,-6.2831854820251465,6.2831854820251465,-6.2831854820251465,6.2831854820251465,-3.1415927410125732,3.1415927410125732,-6.2831854820251465,6.2831854820251465,-6.2831854820251465,6.2831854820251465,-6.2831854820251465,6.2831854820251465,-5.654866695404053,5.654866695404053,-5.654866695404053,5.654866695404053,-2.8274333477020264,2.8274333477020264,-5.654866695404053,5.654866695404053,-5.654866695404053,5.654866695404053,-5.654866695404053,5.654866695404053,2.094399929046631,2.094399929046631,3.1415998935699463,3.1415998935699463,3.1415998935699463,3.1415998935699463,2.094399929046631,2.094399929046631,3.1415998935699463,3.1415998935699463,3.1415998935699463,3.1415998935699463,0.27358338236808777,0.3909902274608612,0.4987812936306,-0.3312823474407196,-0.8519809246063232,-0.39450377225875854,0.09352710843086243,NA,NA,NA,NA,NA,NA,NA,0.36621516942977905,0.248762845993042,0.4527476727962494,-1.875928923311676e-08,0.42916250228881836,0.9032273292541504,-3.948132132336468e-08
64,0.512,0,0,64,0.7242971658706665,-1.8312554359436035,2.076233148574829,-1.3983709812164307,-2.1446008682250977,-1.6084280014038086,0.0,-1.5700000524520874,1.5700000524520874,-1.5700000524520874,-1.5700000524520874,0.0,-0.26466891169548035,0.4227449297904968,0.4441876709461212,-2.1203396320343018,0.31641948223114014,-3.141590118408203,-0.2743104100227356,0.43601247668266296,0.44981709122657776,-2.120298147201538,0.31610721349716187,-3.141590118408203,-6.2831854820251465,6.2831854820251465,-6.2831854820251465,6.2831854820251465,-3.1415927410125732,3.1415927410125732,-6.2831854820251465,6.2831854820251465,-6.2831854820251465,6.2831854820251465,-6.2831854820251465,6.2831854820251465,-5.654866695404053,5.654866695404053,-5.654866695404053,5.654866695404053,-2.8274333477020264,2.8274333477020264,-5.654866695404053,5.654866695404053,-5.654866695404053,5.654866695404053,-5.654866695404053,5.654866695404053,2.094399929046631,2.094399929046631,3.1415998935699463,3.1415998935699463,3.1415998935699463,3.1415998935699463,2.094399929046631,2.094399929046631,3.1415998935699463,3.1415998935699463,3.1415998935699463,3.1415998935699463,0.27597954869270325,0.3922070264816284,0.49604830145835876,-0.32757994532585144,-0.8492417335510254,-0.4033072292804718,0.09393104910850525,NA,NA,NA,NA,NA,NA,NA,0.36621516942977905,0.248762845993042,0.4527476727962494,-1.875928923311676e-08,0.42916250228881836,0.9032273292541504,-3.948132132336468e-08
65,0.52,0,0,65,0.7219218015670776,-1.8278775215148926,2.0798683166503906,-1.4154548645019531,-2.14178729057312,-1.633559226989746,0.0,-1.5700000524520874,1.5700000524520874,-1.5700000524520874,-1.5700000524520874,0.0,-0.31201475858688354,0.4234732687473297,0.4597345292568207,-2.135105609893799,0.3510286808013916,-3.141592264175415,-0.3210262060165405,0.435575932264328,0.4654593765735626,-2.1349737644195557,0.3507464826107025,-3.141590118408203,-6.2831854820251465,6.2831854820251465,-6.2831854820251465,6.2831854820251465,-3.1415927410125732,3.1415927410125732,-6.2831854820251465,6.2831854820251465,-6.2831854820251465,6.2831854820251465,-6.2831854820251465,6.2831854820251465,-5.654866695404053,5.654866695404053,-5.654866695404053,5.654866695404053,-2.8274333477020264,2.8274333477020264,-5.654866695404053,5.654866695404053,-5.654866695404053,5.654866695404053,-5.654866695404053,5.654866695404053,2.094399929046631,2.094399929046631,3.1415998935699463,3.1415998935699463,3.1415998935699463,3.1415998935699463,2.094399929046631,2.094399929046631,3.1415998935699463,3.1415998935699463,3.1415998935699463,3.1415998935699463,0.27847814559936523,0.39329782128334045,0.4932403266429901,-0.32377856969833374,-0.846508800983429,-0.41192924976348877,0.09436380863189697,NA,NA,NA,NA,NA,NA,NA,0.36621516942977905,0.248762845993042,0.4527476727962494,-1.875928923311676e-08,0.42916250228881836,0.9032273292541504,-3.948132132336468e-08
66,0.528,0,0,66,0.7191764116287231,-1.8245017528533936,2.083632469177246,-1.4326380491256714,-2.1387007236480713,-1.6586904525756836,0.0,-1.5700000524520874,1.5700000524520874,-1.5700000524520874,-1.5700000524520874,0.0,-0.3577055335044861,0.4224919378757477,0.47635093331336975,-2.147252321243286,0.38515207171440125,-3.1415905952453613,-0.3660608232021332,0.4333720803260803,0.4821355938911438,-2.1470344066619873,0.3848981261253357,-3.141590118408203,-6.2831854820251465,6.2831854820251465,-6.2831854820251465,6.2831854820251465,-3.1415927410125732,3.1415927410125732,-6.2831854820251465,6.2831854820251465,-6.2831854820251465,6.2831854820251465,-6.2831854820251465,6.2831854820251465,-5.654866695404053,5.654866695404053,-5.654866695404053,5.654866695404053,-2.8274333477020264,2.8274333477020264,-5.654866695404053,5.654866695404053,-5.654866695404053,5.654866695404053,-5.654866695404053,5.654866695404053,2.094399929046631,2.094399929046631,3.1415998935699463,3.1415998935699463,3.1415998935699463,3.1415998935699463,2.094399929046631,2.094399929046631,3.1415998935699463,3.1415998935699463,3.1415998935699463,3.1415998935699463,0.2810667157173157,0.3942568302154541,0.4903580844402313,-0.31988099217414856,-0.8437803983688354,-0.4203798770904541,0.09482327103614807,NA,NA,NA,NA,NA,NA,NA,0.36621516942977905,0.248762845993042,0.4527476727962494,-1.875928923311676e-08,0.42916250228881836,0.9032273292541504,-3.948132132336468e-08
67,0.536,0,0,67,0.7160741686820984,-1.821141242980957,2.087533473968506,-1.4498984813690186,-2.135342597961426,-1.683821678161621,0.0,-1.5700000524520874,1.5700000524520874,-1.5700000524520874,-1.5700000524520874,0.0,-0.40172508358955383,0.4197678864002228,0.4939658045768738,-2.156766176223755,0.4188067317008972,-3.141592502593994,-0.40940311551094055,0.4293777644634247,0.49977460503578186,-2.156468391418457,0.4185801148414612,-3.141590118408203,-6.2831854820251465,6.2831854820251465,-6.2831854820251465,6.2831854820251465,-3.1415927410125732,3.1415927410125732,-6.2831854820251465,6.2831854820251465,-6.2831854820251465,6.2831854820251465,-6.2831854820251465,6.2831854820251465,-5.654866695404053,5.654866695404053,-5.654866695404053,5.654866695404053,-2.8274333477020264,2.8274333477020264,-5.654866695404053,5.654866695404053,-5.654866695404053,5.654866695404053,-5.654866695404053,5.654866695404053,2.094399929046631,2.094399929046631,3.1415998935699463,3.1415998935699463,3.1415998935699463,3.1415998935699463,2.094399929046631,2.094399929046631,3.1415998935699463,3.1415998935699463,3.1415998935699463,3.1415998935699463,0.2837332785129547,0.3950778543949127,0.48740091919898987,-0.31588950753211975,-0.8410546779632568,-0.42866870760917664,0.09530952572822571,NA,NA,NA,NA,NA,NA,NA,0.36621516942977905,0.248762845993042,0.4527476727962494,-1.875928923311676e-08,0.42916250228881836,0.9032273292541504,-3.948132132336468e-08
68,0.544,0,0,68,0.7126286029815674,-1.817809820175171,2.0915780067443848,-1.4672138690948486,-2.1317219734191895,-1.7089529037475586,0.0,-1.5700000524520874,1.5700000524520874,-1.5700000524520874,-1.5700000524520874,0.0,-0.44405487179756165,0.415272057056427,0.5125017166137695,-2.1636388301849365,0.45196905732154846,-3.1415927410125732,-0.45103517174720764,0.42356574535369873,0.5182955265045166,-2.163269281387329,0.45176854729652405,-3.141590118408203,-6.2831854820251465,6.2831854820251465,-6.2831854820251465,6.2831854820251465,-3.1415927410125732,3.1415927410125732,-6.2831854820251465,6.2831854820251465,-6.2831854820251465,6.2831854820251465,-6.2831854820251465,6.2831854820251465,-5.654866695404053,5.654866695404053,-5.654866695404053,5.654866695404053,-2.8274333477020264,2.8274333477020264,-5.654866695404053,5.654866695404053,-5.654866695404053,5.654866695404053,-5.654866695404053,5.654866695404053,2.094399929046631,2.094399929046631,3.1415998935699463,3.1415998935699463,3.1415998935699463,3.1415998935699463,2.094399929046631,2.094399929046631,3.1415998935699463,3.1415998935699463,3.1415998935699463,3.1415998935699463,0.28646597266197205,0.39575624465942383,0.484371155500412,-0.311808705329895,-0.83832848072052,-0.436805784702301,0.09581917524337769,NA,NA,NA,NA,NA,NA,NA,0.36621516942977905,0.248762845993042,0.4527476727962494,-1.875928923311676e-08,0.42916250228881836,0.9032273292541504,-3.948132132336468e-08
