booooza/IsaacLabUR10eSim2Real/analysis/debug_logs/reach/play_log_3.csv
step,sim_time,env_id,episode_id,episode_step,shoulder_pan_joint_pos,shoulder_lift_joint_pos,elbow_joint_pos,wrist_1_joint_pos,wrist_2_joint_pos,wrist_3_joint_pos,shoulder_pan_joint_pos_target,shoulder_lift_joint_pos_target,elbow_joint_pos_target,wrist_1_joint_pos_target,wrist_2_joint_pos_target,wrist_3_joint_pos_target,shoulder_pan_joint_vel,shoulder_lift_joint_vel,elbow_joint_vel,wrist_1_joint_vel,wrist_2_joint_vel,wrist_3_joint_vel,shoulder_pan_joint_vel_target,shoulder_lift_joint_vel_target,elbow_joint_vel_target,wrist_1_joint_vel_target,wrist_2_joint_vel_target,wrist_3_joint_vel_target,shoulder_pan_joint_pos_limit_lower,shoulder_pan_joint_pos_limit_upper,shoulder_lift_joint_pos_limit_lower,shoulder_lift_joint_pos_limit_upper,elbow_joint_pos_limit_lower,elbow_joint_pos_limit_upper,wrist_1_joint_pos_limit_lower,wrist_1_joint_pos_limit_upper,wrist_2_joint_pos_limit_lower,wrist_2_joint_pos_limit_upper,wrist_3_joint_pos_limit_lower,wrist_3_joint_pos_limit_upper,shoulder_pan_joint_soft_pos_limit_lower,shoulder_pan_joint_soft_pos_limit_upper,shoulder_lift_joint_soft_pos_limit_lower,shoulder_lift_joint_soft_pos_limit_upper,elbow_joint_soft_pos_limit_lower,elbow_joint_soft_pos_limit_upper,wrist_1_joint_soft_pos_limit_lower,wrist_1_joint_soft_pos_limit_upper,wrist_2_joint_soft_pos_limit_lower,wrist_2_joint_soft_pos_limit_upper,wrist_3_joint_soft_pos_limit_lower,wrist_3_joint_soft_pos_limit_upper,shoulder_pan_joint_vel_limit,shoulder_lift_joint_vel_limit,elbow_joint_vel_limit,wrist_1_joint_vel_limit,wrist_2_joint_vel_limit,wrist_3_joint_vel_limit,shoulder_pan_joint_soft_vel_limit,shoulder_lift_joint_soft_vel_limit,elbow_joint_soft_vel_limit,wrist_1_joint_soft_vel_limit,wrist_2_joint_soft_vel_limit,wrist_3_joint_soft_vel_limit,ee_frame_pos_x,ee_frame_pos_y,ee_frame_pos_z,ee_frame_rot_w,ee_frame_rot_x,ee_frame_rot_y,ee_frame_rot_z,object_pos_x,object_pos_y,object_pos_z,object_rot_w,object_rot_x,object_rot_y,object_rot_z,target_pos_x,target_pos_y,target_pos_z,target_rot_w,target_rot_x,target_rot_y,target_rot_z
1,0.008,0,0,1,-0.0019071889109909534,-1.5697623491287231,1.575152039527893,-1.5948843955993652,-1.594740629196167,-0.002663763239979744,0.0,-1.5700000524520874,1.5700000524520874,-1.5700000524520874,-1.5700000524520874,0.0,-0.2933730185031891,0.05929475277662277,0.6324004530906677,-3.1415908336639404,-3.141592025756836,-0.3329755663871765,-2.094399929046631,2.094399929046631,3.141590118408203,-3.141590118408203,-3.141590118408203,-0.3329756259918213,-6.2831854820251465,6.2831854820251465,-6.2831854820251465,6.2831854820251465,-3.1415927410125732,3.1415927410125732,-6.2831854820251465,6.2831854820251465,-6.2831854820251465,6.2831854820251465,-6.2831854820251465,6.2831854820251465,-5.654866695404053,5.654866695404053,-5.654866695404053,5.654866695404053,-2.8274333477020264,2.8274333477020264,-5.654866695404053,5.654866695404053,-5.654866695404053,5.654866695404053,-5.654866695404053,5.654866695404053,2.094399929046631,2.094399929046631,3.1415998935699463,3.1415998935699463,3.1415998935699463,3.1415998935699463,2.094399929046631,2.094399929046631,3.1415998935699463,3.1415998935699463,3.1415998935699463,3.1415998935699463,0.6945081353187561,0.17003531754016876,0.6760637760162354,-0.001889050006866455,-0.7072136402130127,0.7068365812301636,-0.015070870518684387,NA,NA,NA,NA,NA,NA,NA,0.7083275318145752,-0.14767765998840332,0.07700291275978088,-3.262660541736295e-08,0.7464097142219543,-0.665486752986908,2.9089349595778913e-08
2,0.016,0,0,2,-0.007731952704489231,-1.568384051322937,1.5816676616668701,-1.6199201345443726,-1.6196244955062866,-0.004921684507280588,0.0,-1.5700000524520874,1.5700000524520874,-1.5700000524520874,-1.5700000524520874,0.0,-0.8062392473220825,0.199668288230896,0.8048991560935974,-3.141594409942627,-3.1415927410125732,-0.282161146402359,-2.094399929046631,2.094399929046631,3.141590118408203,-3.141590118408203,-3.141590118408203,-0.282161146402359,-6.2831854820251465,6.2831854820251465,-6.2831854820251465,6.2831854820251465,-3.1415927410125732,3.1415927410125732,-6.2831854820251465,6.2831854820251465,-6.2831854820251465,6.2831854820251465,-6.2831854820251465,6.2831854820251465,-5.654866695404053,5.654866695404053,-5.654866695404053,5.654866695404053,-2.8274333477020264,2.8274333477020264,-5.654866695404053,5.654866695404053,-5.654866695404053,5.654866695404053,-5.654866695404053,5.654866695404053,2.094399929046631,2.094399929046631,3.1415998935699463,3.1415998935699463,3.1415998935699463,3.1415998935699463,2.094399929046631,2.094399929046631,3.1415998935699463,3.1415998935699463,3.1415998935699463,3.1415998935699463,0.6982032656669617,0.16306793689727783,0.6737641096115112,-0.004781246185302734,-0.7054791450500488,0.7080836296081543,-0.02989603579044342,NA,NA,NA,NA,NA,NA,NA,0.7083275318145752,-0.14767765998840332,0.07700291275978088,-3.262660541736295e-08,0.7464097142219543,-0.665486752986908,2.9089349595778913e-08
3,0.024,0,0,3,-0.017267005518078804,-1.565759539604187,1.5894172191619873,-1.64495849609375,-1.6445119380950928,-0.007416752632707357,0.0,-1.5700000524520874,1.5700000524520874,-1.5700000524520874,-1.5700000524520874,0.0,-1.313421607017517,0.34885987639427185,0.9671386480331421,-3.1415934562683105,-3.1415903568267822,-0.31181737780570984,-2.094399929046631,2.094399929046631,3.141590118408203,-3.141590118408203,-3.141590118408203,-0.3118174374103546,-6.2831854820251465,6.2831854820251465,-6.2831854820251465,6.2831854820251465,-3.1415927410125732,3.1415927410125732,-6.2831854820251465,6.2831854820251465,-6.2831854820251465,6.2831854820251465,-6.2831854820251465,6.2831854820251465,-5.654866695404053,5.654866695404053,-5.654866695404053,5.654866695404053,-2.8274333477020264,2.8274333477020264,-5.654866695404053,5.654866695404053,-5.654866695404053,5.654866695404053,-5.654866695404053,5.654866695404053,2.094399929046631,2.094399929046631,3.1415998935699463,3.1415998935699463,3.1415998935699463,3.1415998935699463,2.094399929046631,2.094399929046631,3.1415998935699463,3.1415998935699463,3.1415998935699463,3.1415998935699463,0.7027953267097473,0.1534547358751297,0.6698368787765503,-0.008747309446334839,-0.7022528648376465,0.7105260491371155,-0.04378524795174599,NA,NA,NA,NA,NA,NA,NA,0.7083275318145752,-0.14767765998840332,0.07700291275978088,-3.262660541736295e-08,0.7464097142219543,-0.665486752986908,2.9089349595778913e-08
4,0.032,0,0,4,-0.029876388609409332,-1.561657190322876,1.5981515645980835,-1.6699916124343872,-1.6694141626358032,-0.010525614023208618,0.0,-1.5700000524520874,1.5700000524520874,-1.5700000524520874,-1.5700000524520874,0.0,-1.793600082397461,0.5161245465278625,1.109694242477417,-3.140469789505005,-3.121185541152954,-0.3885962665081024,-2.094399929046631,2.094399929046631,3.141590118408203,-3.141590118408203,-3.141590118408203,-0.38855302333831787,-6.2831854820251465,6.2831854820251465,-6.2831854820251465,6.2831854820251465,-3.1415927410125732,3.1415927410125732,-6.2831854820251465,6.2831854820251465,-6.2831854820251465,6.2831854820251465,-6.2831854820251465,6.2831854820251465,-5.654866695404053,5.654866695404053,-5.654866695404053,5.654866695404053,-2.8274333477020264,2.8274333477020264,-5.654866695404053,5.654866695404053,-5.654866695404053,5.654866695404053,-5.654866695404053,5.654866695404053,2.094399929046631,2.094399929046631,3.1415998935699463,3.1415998935699463,3.1415998935699463,3.1415998935699463,2.094399929046631,2.094399929046631,3.1415998935699463,3.1415998935699463,3.1415998935699463,3.1415998935699463,0.7081961631774902,0.14158287644386292,0.6642742156982422,-0.01384618878364563,-0.6979348659515381,0.7137784957885742,-0.05670441687107086,NA,NA,NA,NA,NA,NA,NA,0.7083275318145752,-0.14767765998840332,0.07700291275978088,-3.262660541736295e-08,0.7464097142219543,-0.665486752986908,2.9089349595778913e-08
5,0.04,0,0,5,-0.044761162251234055,-1.5557854175567627,1.6075657606124878,-1.6950350999832153,-1.6944615840911865,-0.01462731696665287,0.0,-1.5700000524520874,1.5700000524520874,-1.5700000524520874,-1.5700000524520874,0.0,-1.9501298666000366,0.7772260308265686,1.156283974647522,-3.140859603881836,-3.1318552494049072,-0.5127285122871399,-2.094399929046631,2.094399929046631,3.141590118408203,-3.141590118408203,-3.141590118408203,-0.5127077698707581,-6.2831854820251465,6.2831854820251465,-6.2831854820251465,6.2831854820251465,-3.1415927410125732,3.1415927410125732,-6.2831854820251465,6.2831854820251465,-6.2831854820251465,6.2831854820251465,-6.2831854820251465,6.2831854820251465,-5.654866695404053,5.654866695404053,-5.654866695404053,5.654866695404053,-2.8274333477020264,2.8274333477020264,-5.654866695404053,5.654866695404053,-5.654866695404053,5.654866695404053,-5.654866695404053,5.654866695404053,2.094399929046631,2.094399929046631,3.1415998935699463,3.1415998935699463,3.1415998935699463,3.1415998935699463,2.094399929046631,2.094399929046631,3.1415998935699463,3.1415998935699463,3.1415998935699463,3.1415998935699463,0.714329719543457,0.1279381960630417,0.6570693254470825,-0.02014946937561035,-0.6929800510406494,0.7173968553543091,-0.06866087019443512,NA,NA,NA,NA,NA,NA,NA,0.7083275318145752,-0.14767765998840332,0.07700291275978088,-3.262660541736295e-08,0.7464097142219543,-0.665486752986908,2.9089349595778913e-08
6,0.048,0,0,6,-0.060390762984752655,-1.5477590560913086,1.617247462272644,-1.7200779914855957,-1.7195501327514648,-0.019724972546100616,0.0,-1.5700000524520874,1.5700000524520874,-1.5700000524520874,-1.5700000524520874,0.0,-1.998116135597229,1.0746079683303833,1.1638383865356445,-3.140972375869751,-3.1351394653320312,-0.6372332572937012,-2.094399929046631,2.094399929046631,3.141590118408203,-3.141590118408203,-3.141590118408203,-0.6372188925743103,-6.2831854820251465,6.2831854820251465,-6.2831854820251465,6.2831854820251465,-3.1415927410125732,3.1415927410125732,-6.2831854820251465,6.2831854820251465,-6.2831854820251465,6.2831854820251465,-6.2831854820251465,6.2831854820251465,-5.654866695404053,5.654866695404053,-5.654866695404053,5.654866695404053,-2.8274333477020264,2.8274333477020264,-5.654866695404053,5.654866695404053,-5.654866695404053,5.654866695404053,-5.654866695404053,5.654866695404053,2.094399929046631,2.094399929046631,3.1415998935699463,3.1415998935699463,3.1415998935699463,3.1415998935699463,2.094399929046631,2.094399929046631,3.1415998935699463,3.1415998935699463,3.1415998935699463,3.1415998935699463,0.7211087346076965,0.11356162279844284,0.6482101082801819,-0.027585512027144432,-0.687981903553009,0.7208229899406433,-0.07958667725324631,NA,NA,NA,NA,NA,NA,NA,0.7083275318145752,-0.14767765998840332,0.07700291275978088,-3.262660541736295e-08,0.7464097142219543,-0.665486752986908,2.9089349595778913e-08
7,0.056,0,0,7,-0.07626012712717056,-1.5374950170516968,1.6270760297775269,-1.7451187372207642,-1.7446554899215698,-0.025424137711524963,0.0,-1.5700000524520874,1.5700000524520874,-1.5700000524520874,-1.5700000524520874,0.0,-2.0072903633117676,1.3896323442459106,1.1500109434127808,-3.1409149169921875,-3.135807752609253,-0.7124174237251282,-2.094399929046631,2.094399929046631,3.141590118408203,-3.141590118408203,-3.141590118408203,-0.7124062180519104,-6.2831854820251465,6.2831854820251465,-6.2831854820251465,6.2831854820251465,-3.1415927410125732,3.1415927410125732,-6.2831854820251465,6.2831854820251465,-6.2831854820251465,6.2831854820251465,-6.2831854820251465,6.2831854820251465,-5.654866695404053,5.654866695404053,-5.654866695404053,5.654866695404053,-2.8274333477020264,2.8274333477020264,-5.654866695404053,5.654866695404053,-5.654866695404053,5.654866695404053,-5.654866695404053,5.654866695404053,2.094399929046631,2.094399929046631,3.1415998935699463,3.1415998935699463,3.1415998935699463,3.1415998935699463,2.094399929046631,2.094399929046631,3.1415998935699463,3.1415998935699463,3.1415998935699463,3.1415998935699463,0.7284367084503174,0.09877880662679672,0.6376917362213135,-0.03609014302492142,-0.6830241680145264,0.7239980101585388,-0.08945590257644653,NA,NA,NA,NA,NA,NA,NA,0.7083275318145752,-0.14767765998840332,0.07700291275978088,-3.262660541736295e-08,0.7464097142219543,-0.665486752986908,2.9089349595778913e-08
8,0.064,0,0,8,-0.09223535656929016,-1.5251590013504028,1.6371499300003052,-1.7701587677001953,-1.7697783708572388,-0.031487174332141876,0.0,-1.5700000524520874,1.5700000524520874,-1.5700000524520874,-1.5700000524520874,0.0,-1.9965718984603882,1.7175350189208984,1.1181950569152832,-3.1403541564941406,-3.1352221965789795,-0.7579077482223511,-2.094399929046631,2.094399929046631,3.141590118408203,-3.141590118408203,-3.141590118408203,-0.7578938603401184,-6.2831854820251465,6.2831854820251465,-6.2831854820251465,6.2831854820251465,-3.1415927410125732,3.1415927410125732,-6.2831854820251465,6.2831854820251465,-6.2831854820251465,6.2831854820251465,-6.2831854820251465,6.2831854820251465,-5.654866695404053,5.654866695404053,-5.654866695404053,5.654866695404053,-2.8274333477020264,2.8274333477020264,-5.654866695404053,5.654866695404053,-5.654866695404053,5.654866695404053,-5.654866695404053,5.654866695404053,2.094399929046631,2.094399929046631,3.1415998935699463,3.1415998935699463,3.1415998935699463,3.1415998935699463,2.094399929046631,2.094399929046631,3.1415998935699463,3.1415998935699463,3.1415998935699463,3.1415998935699463,0.7361189723014832,0.0836673155426979,0.6255310773849487,-0.04560181498527527,-0.6781078577041626,0.7269347906112671,-0.09826436638832092,NA,NA,NA,NA,NA,NA,NA,0.7083275318145752,-0.14767765998840332,0.07700291275978088,-3.262660541736295e-08,0.7464097142219543,-0.665486752986908,2.9089349595778913e-08
9,0.07200000000000001,0,0,9,-0.10831113904714584,-1.5110561847686768,1.647684931755066,-1.79523503780365,-1.7948989868164062,-0.037718892097473145,0.0,-1.5700000524520874,1.5700000524520874,-1.5700000524520874,-1.5700000524520874,0.0,-2.0178210735321045,1.8743226528167725,1.233353853225708,-3.1358084678649902,-3.1406443119049072,-0.7789711356163025,-2.094399929046631,2.094399929046631,3.141590118408203,-3.141590118408203,-3.141590118408203,-0.7789683938026428,-6.2831854820251465,6.2831854820251465,-6.2831854820251465,6.2831854820251465,-3.1415927410125732,3.1415927410125732,-6.2831854820251465,6.2831854820251465,-6.2831854820251465,6.2831854820251465,-6.2831854820251465,6.2831854820251465,-5.654866695404053,5.654866695404053,-5.654866695404053,5.654866695404053,-2.8274333477020264,2.8274333477020264,-5.654866695404053,5.654866695404053,-5.654866695404053,5.654866695404053,-5.654866695404053,5.654866695404053,2.094399929046631,2.094399929046631,3.1415998935699463,3.1415998935699463,3.1415998935699463,3.1415998935699463,2.094399929046631,2.094399929046631,3.1415998935699463,3.1415998935699463,3.1415998935699463,3.1415998935699463,0.7438933253288269,0.06823450326919556,0.6117720007896423,-0.05603337287902832,-0.6731950640678406,0.7296760678291321,-0.10602591931819916,NA,NA,NA,NA,NA,NA,NA,0.7083275318145752,-0.14767765998840332,0.07700291275978088,-3.262660541736295e-08,0.7464097142219543,-0.665486752986908,2.9089349595778913e-08
10,0.08,0,0,10,-0.12457414716482162,-1.4960660934448242,1.6594246625900269,-1.8203331232070923,-1.820022702217102,-0.04398949816823006,0.0,-1.5700000524520874,1.5700000524520874,-1.5700000524520874,-1.5700000524520874,0.0,-2.04103684425354,1.9447851181030273,1.4215253591537476,-3.137953758239746,-3.140939950942993,-0.7838423252105713,-2.094399929046631,2.094399929046631,3.141590118408203,-3.141590118408203,-3.141590118408203,-0.783839762210846,-6.2831854820251465,6.2831854820251465,-6.2831854820251465,6.2831854820251465,-3.1415927410125732,3.1415927410125732,-6.2831854820251465,6.2831854820251465,-6.2831854820251465,6.2831854820251465,-6.2831854820251465,6.2831854820251465,-5.654866695404053,5.654866695404053,-5.654866695404053,5.654866695404053,-2.8274333477020264,2.8274333477020264,-5.654866695404053,5.654866695404053,-5.654866695404053,5.654866695404053,-5.654866695404053,5.654866695404053,2.094399929046631,2.094399929046631,3.1415998935699463,3.1415998935699463,3.1415998935699463,3.1415998935699463,2.094399929046631,2.094399929046631,3.1415998935699463,3.1415998935699463,3.1415998935699463,3.1415998935699463,0.7511535882949829,0.052477143704891205,0.5965225100517273,-0.0673137903213501,-0.6682325005531311,0.7322696447372437,-0.11276191473007202,NA,NA,NA,NA,NA,NA,NA,0.7083275318145752,-0.14767765998840332,0.07700291275978088,-3.262660541736295e-08,0.7464097142219543,-0.665486752986908,2.9089349595778913e-08
11,0.088,0,0,11,-0.14109200239181519,-1.480656623840332,1.6727145910263062,-1.8454464673995972,-1.8428136110305786,-0.050308957695961,0.0,-1.5700000524520874,1.5700000524520874,-1.5700000524520874,-1.5700000524520874,0.0,-2.064657211303711,1.9791043996810913,1.6334402561187744,-3.139186382293701,-2.8467929363250732,-0.789932131767273,-2.094399929046631,2.094399929046631,3.141590118408203,-3.141590118408203,-2.8465185165405273,-0.7899322509765625,-6.2831854820251465,6.2831854820251465,-6.2831854820251465,6.2831854820251465,-3.1415927410125732,3.1415927410125732,-6.2831854820251465,6.2831854820251465,-6.2831854820251465,6.2831854820251465,-6.2831854820251465,6.2831854820251465,-5.654866695404053,5.654866695404053,-5.654866695404053,5.654866695404053,-2.8274333477020264,2.8274333477020264,-5.654866695404053,5.654866695404053,-5.654866695404053,5.654866695404053,-5.654866695404053,5.654866695404053,2.094399929046631,2.094399929046631,3.1415998935699463,3.1415998935699463,3.1415998935699463,3.1415998935699463,2.094399929046631,2.094399929046631,3.1415998935699463,3.1415998935699463,3.1415998935699463,3.1415998935699463,0.7575821280479431,0.036665983498096466,0.5798206925392151,-0.07848310470581055,-0.6633627414703369,0.7347949147224426,-0.11775677651166916,NA,NA,NA,NA,NA,NA,NA,0.7083275318145752,-0.14767765998840332,0.07700291275978088,-3.262660541736295e-08,0.7464097142219543,-0.665486752986908,2.9089349595778913e-08
12,0.096,0,0,12,-0.15777571499347687,-1.4650077819824219,1.6876208782196045,-1.870575189590454,-1.860243320465088,-0.05672800540924072,0.0,-1.5700000524520874,1.5700000524520874,-1.5700000524520874,-1.5700000524520874,0.0,-2.078016996383667,1.9983363151550293,1.847564935684204,-3.139930009841919,-2.172527551651001,-0.8023858070373535,-2.094399929046631,2.094399929046631,3.141590118408203,-3.141590118408203,-2.1717352867126465,-0.802386999130249,-6.2831854820251465,6.2831854820251465,-6.2831854820251465,6.2831854820251465,-3.1415927410125732,3.1415927410125732,-6.2831854820251465,6.2831854820251465,-6.2831854820251465,6.2831854820251465,-6.2831854820251465,6.2831854820251465,-5.654866695404053,5.654866695404053,-5.654866695404053,5.654866695404053,-2.8274333477020264,2.8274333477020264,-5.654866695404053,5.654866695404053,-5.654866695404053,5.654866695404053,-5.654866695404053,5.654866695404053,2.094399929046631,2.094399929046631,3.1415998935699463,3.1415998935699463,3.1415998935699463,3.1415998935699463,2.094399929046631,2.094399929046631,3.1415998935699463,3.1415998935699463,3.1415998935699463,3.1415998935699463,0.7630637288093567,0.021253807470202446,0.561657726764679,-0.08827900886535645,-0.6588635444641113,0.737342357635498,-0.1201324462890625,NA,NA,NA,NA,NA,NA,NA,0.7083275318145752,-0.14767765998840332,0.07700291275978088,-3.262660541736295e-08,0.7464097142219543,-0.665486752986908,2.9089349595778913e-08
13,0.10400000000000001,0,0,13,-0.17447993159294128,-1.4492186307907104,1.7041960954666138,-1.8957098722457886,-1.8730113506317139,-0.06333240121603012,0.0,-1.5700000524520874,1.5700000524520874,-1.5700000524520874,-1.5700000524520874,0.0,-2.080457925796509,2.0078284740448,2.0674216747283936,-3.140315532684326,-1.5897325277328491,-0.8255637288093567,-2.094399929046631,2.094399929046631,3.141590118408203,-3.141590118408203,-1.5889372825622559,-0.8255656957626343,-6.2831854820251465,6.2831854820251465,-6.2831854820251465,6.2831854820251465,-3.1415927410125732,3.1415927410125732,-6.2831854820251465,6.2831854820251465,-6.2831854820251465,6.2831854820251465,-6.2831854820251465,6.2831854820251465,-5.654866695404053,5.654866695404053,-5.654866695404053,5.654866695404053,-2.8274333477020264,2.8274333477020264,-5.654866695404053,5.654866695404053,-5.654866695404053,5.654866695404053,-5.654866695404053,5.654866695404053,2.094399929046631,2.094399929046631,3.1415998935699463,3.1415998935699463,3.1415998935699463,3.1415998935699463,2.094399929046631,2.094399929046631,3.1415998935699463,3.1415998935699463,3.1415998935699463,3.1415998935699463,0.7674618363380432,0.006328490562736988,0.5420978665351868,-0.09687834978103638,-0.6548163294792175,0.7398570775985718,-0.12017345428466797,NA,NA,NA,NA,NA,NA,NA,0.7083275318145752,-0.14767765998840332,0.07700291275978088,-3.262660541736295e-08,0.7464097142219543,-0.665486752986908,2.9089349595778913e-08
14,0.112,0,0,14,-0.19119495153427124,-1.4333856105804443,1.7224953174591064,-1.9208475351333618,-1.8816571235656738,-0.07047963887453079,0.0,-1.5700000524520874,1.5700000524520874,-1.5700000524520874,-1.5700000524520874,0.0,-2.0816259384155273,2.008824586868286,2.293138265609741,-3.140537977218628,-1.0747932195663452,-0.8934347629547119,-2.094399929046631,2.094399929046631,3.141590118408203,-3.141590118408203,-1.0739185810089111,-0.8934349417686462,-6.2831854820251465,6.2831854820251465,-6.2831854820251465,6.2831854820251465,-3.1415927410125732,3.1415927410125732,-6.2831854820251465,6.2831854820251465,-6.2831854820251465,6.2831854820251465,-6.2831854820251465,6.2831854820251465,-5.654866695404053,5.654866695404053,-5.654866695404053,5.654866695404053,-2.8274333477020264,2.8274333477020264,-5.654866695404053,5.654866695404053,-5.654866695404053,5.654866695404053,-5.654866695404053,5.654866695404053,2.094399929046631,2.094399929046631,3.1415998935699463,3.1415998935699463,3.1415998935699463,3.1415998935699463,2.094399929046631,2.094399929046631,3.1415998935699463,3.1415998935699463,3.1415998935699463,3.1415998935699463,0.7706463932991028,-0.008095050230622292,0.5212177634239197,-0.1044279932975769,-0.6513375043869019,0.7422337532043457,-0.11808139085769653,NA,NA,NA,NA,NA,NA,NA,0.7083275318145752,-0.14767765998840332,0.07700291275978088,-3.262660541736295e-08,0.7464097142219543,-0.665486752986908,2.9089349595778913e-08
15,0.12,0,0,15,-0.20792151987552643,-1.4175063371658325,1.7424860000610352,-1.9459867477416992,-1.8866188526153564,-0.07875767350196838,0.0,-1.5700000524520874,1.5700000524520874,-1.5700000524520874,-1.5700000524520874,0.0,-2.0830180644989014,2.0083913803100586,2.519357204437256,-3.1407554149627686,-0.6145874261856079,-1.034769892692566,-2.094399929046631,2.094399929046631,3.141590118408203,-3.141590118408203,-0.6135963797569275,-1.0347703695297241,-6.2831854820251465,6.2831854820251465,-6.2831854820251465,6.2831854820251465,-3.1415927410125732,3.1415927410125732,-6.2831854820251465,6.2831854820251465,-6.2831854820251465,6.2831854820251465,-6.2831854820251465,6.2831854820251465,-5.654866695404053,5.654866695404053,-5.654866695404053,5.654866695404053,-2.8274333477020264,2.8274333477020264,-5.654866695404053,5.654866695404053,-5.654866695404053,5.654866695404053,-5.654866695404053,5.654866695404053,2.094399929046631,2.094399929046631,3.1415998935699463,3.1415998935699463,3.1415998935699463,3.1415998935699463,2.094399929046631,2.094399929046631,3.1415998935699463,3.1415998935699463,3.1415998935699463,3.1415998935699463,0.7725440859794617,-0.02199767529964447,0.49909472465515137,-0.11105526983737946,-0.6486154198646545,0.744291365146637,-0.1139957457780838,NA,NA,NA,NA,NA,NA,NA,0.7083275318145752,-0.14767765998840332,0.07700291275978088,-3.262660541736295e-08,0.7464097142219543,-0.665486752986908,2.9089349595778913e-08
16,0.128,0,0,16,-0.22466328740119934,-1.4015601873397827,1.764096975326538,-1.9711283445358276,-1.8886181116104126,-0.08869118988513947,0.0,-1.5700000524520874,1.5700000524520874,-1.5700000524520874,-1.5700000524520874,0.0,-2.0853874683380127,2.0058741569519043,2.7479097843170166,-3.1409707069396973,-0.2451947182416916,-1.2417211532592773,-2.094399929046631,2.094399929046631,3.141590118408203,-3.141590118408203,-0.2439926713705063,-1.2417235374450684,-6.2831854820251465,6.2831854820251465,-6.2831854820251465,6.2831854820251465,-3.1415927410125732,3.1415927410125732,-6.2831854820251465,6.2831854820251465,-6.2831854820251465,6.2831854820251465,-6.2831854820251465,6.2831854820251465,-5.654866695404053,5.654866695404053,-5.654866695404053,5.654866695404053,-2.8274333477020264,2.8274333477020264,-5.654866695404053,5.654866695404053,-5.654866695404053,5.654866695404053,-5.654866695404053,5.654866695404053,2.094399929046631,2.094399929046631,3.1415998935699463,3.1415998935699463,3.1415998935699463,3.1415998935699463,2.094399929046631,2.094399929046631,3.1415998935699463,3.1415998935699463,3.1415998935699463,3.1415998935699463,0.7730885744094849,-0.0353877991437912,0.4758426249027252,-0.11698758602142334,-0.6467846035957336,0.7458482384681702,-0.1081383228302002,NA,NA,NA,NA,NA,NA,NA,0.7083275318145752,-0.14767765998840332,0.07700291275978088,-3.262660541736295e-08,0.7464097142219543,-0.665486752986908,2.9089349595778913e-08
17,0.136,0,0,17,-0.24142558872699738,-1.3854725360870361,1.7871031761169434,-1.9962716102600098,-1.8883917331695557,-0.10121626406908035,0.0,-1.5700000524520874,1.5700000524520874,-1.5700000524520874,-1.5700000524520874,0.0,-2.0922627449035645,1.9947211742401123,2.984717607498169,-3.1412503719329834,0.031345292925834656,-1.565674901008606,-2.094399929046631,2.094399929046631,3.141590118408203,-3.141590118408203,0.03318987414240837,-1.5656768083572388,-6.2831854820251465,6.2831854820251465,-6.2831854820251465,6.2831854820251465,-3.1415927410125732,3.1415927410125732,-6.2831854820251465,6.2831854820251465,-6.2831854820251465,6.2831854820251465,-6.2831854820251465,6.2831854820251465,-5.654866695404053,5.654866695404053,-5.654866695404053,5.654866695404053,-2.8274333477020264,2.8274333477020264,-5.654866695404053,5.654866695404053,-5.654866695404053,5.654866695404053,-5.654866695404053,5.654866695404053,2.094399929046631,2.094399929046631,3.1415998935699463,3.1415998935699463,3.1415998935699463,3.1415998935699463,2.094399929046631,2.094399929046631,3.1415998935699463,3.1415998935699463,3.1415998935699463,3.1415998935699463,0.7722759246826172,-0.048287902027368546,0.4516456425189972,-0.12244918942451477,-0.6461185216903687,0.7465858459472656,-0.10073050856590271,NA,NA,NA,NA,NA,NA,NA,0.7083275318145752,-0.14767765998840332,0.07700291275978088,-3.262660541736295e-08,0.7464097142219543,-0.665486752986908,2.9089349595778913e-08
18,0.14400000000000002,0,0,18,-0.25818586349487305,-1.368971347808838,1.8107391595840454,-2.0214059352874756,-1.8865262269973755,-0.11618675291538239,0.0,-1.5700000524520874,1.5700000524520874,-1.5700000524520874,-1.5700000524520874,0.0,-2.0943984985351562,2.051896810531616,3.0079774856567383,-3.141601085662842,0.23383945226669312,-1.871185302734375,-2.094399929046631,2.094399929046631,3.0603463649749756,-3.141590118408203,0.2356240451335907,-1.8713713884353638,-6.2831854820251465,6.2831854820251465,-6.2831854820251465,6.2831854820251465,-3.1415927410125732,3.1415927410125732,-6.2831854820251465,6.2831854820251465,-6.2831854820251465,6.2831854820251465,-6.2831854820251465,6.2831854820251465,-5.654866695404053,5.654866695404053,-5.654866695404053,5.654866695404053,-2.8274333477020264,2.8274333477020264,-5.654866695404053,5.654866695404053,-5.654866695404053,5.654866695404053,-5.654866695404053,5.654866695404053,2.094399929046631,2.094399929046631,3.1415998935699463,3.1415998935699463,3.1415998935699463,3.1415998935699463,2.094399929046631,2.094399929046631,3.1415998935699463,3.1415998935699463,3.1415998935699463,3.1415998935699463,0.7703487277030945,-0.06074409931898117,0.42687901854515076,-0.12744946777820587,-0.6464852690696716,0.7465407848358154,-0.09214223921298981,NA,NA,NA,NA,NA,NA,NA,0.7083275318145752,-0.14767765998840332,0.07700291275978088,-3.262660541736295e-08,0.7464097142219543,-0.665486752986908,2.9089349595778913e-08
19,0.152,0,0,19,-0.2749086618423462,-1.3521994352340698,1.8331856727600098,-2.046358346939087,-1.883741021156311,-0.13212637603282928,0.0,-1.5700000524520874,1.5700000524520874,-1.5700000524520874,-1.5700000524520874,0.0,-2.0876734256744385,2.094400644302368,2.732211112976074,-3.1295738220214844,0.35100120306015015,-1.9933125972747803,-2.094399929046631,2.094399929046631,2.6372368335723877,-3.141590118408203,0.3450990915298462,-1.9924836158752441,-6.2831854820251465,6.2831854820251465,-6.2831854820251465,6.2831854820251465,-3.1415927410125732,3.1415927410125732,-6.2831854820251465,6.2831854820251465,-6.2831854820251465,6.2831854820251465,-6.2831854820251465,6.2831854820251465,-5.654866695404053,5.654866695404053,-5.654866695404053,5.654866695404053,-2.8274333477020264,2.8274333477020264,-5.654866695404053,5.654866695404053,-5.654866695404053,5.654866695404053,-5.654866695404053,5.654866695404053,2.094399929046631,2.094399929046631,3.1415998935699463,3.1415998935699463,3.1415998935699463,3.1415998935699463,2.094399929046631,2.094399929046631,3.1415998935699463,3.1415998935699463,3.1415998935699463,3.1415998935699463,0.7678587436676025,-0.07291120290756226,0.40285152196884155,-0.13166093826293945,-0.6471840143203735,0.7462314367294312,-0.08340740203857422,NA,NA,NA,NA,NA,NA,NA,0.7083275318145752,-0.14767765998840332,0.07700291275978088,-3.262660541736295e-08,0.7464097142219543,-0.665486752986908,2.9089349595778913e-08
20,0.16,0,0,20,-0.2916598916053772,-1.3354392051696777,1.8544132709503174,-2.0714447498321533,-1.879768967628479,-0.14926664531230927,0.0,-1.5700000524520874,1.5700000524520874,-1.5700000524520874,-1.5700000524520874,0.0,-2.092758893966675,2.094399929046631,2.6360909938812256,-3.1386892795562744,0.49645692110061646,-2.14276385307312,-2.094399929046631,2.094399929046631,2.6136834621429443,-3.141590118408203,0.4951038360595703,-2.1425890922546387,-6.2831854820251465,6.2831854820251465,-6.2831854820251465,6.2831854820251465,-3.1415927410125732,3.1415927410125732,-6.2831854820251465,6.2831854820251465,-6.2831854820251465,6.2831854820251465,-6.2831854820251465,6.2831854820251465,-5.654866695404053,5.654866695404053,-5.654866695404053,5.654866695404053,-2.8274333477020264,2.8274333477020264,-5.654866695404053,5.654866695404053,-5.654866695404053,5.654866695404053,-5.654866695404053,5.654866695404053,2.094399929046631,2.094399929046631,3.1415998935699463,3.1415998935699463,3.1415998935699463,3.1415998935699463,2.094399929046631,2.094399929046631,3.1415998935699463,3.1415998935699463,3.1415998935699463,3.1415998935699463,0.7648807168006897,-0.08480745553970337,0.37981685996055603,-0.13480587303638458,-0.648252010345459,0.7456624507904053,-0.0747268944978714,NA,NA,NA,NA,NA,NA,NA,0.7083275318145752,-0.14767765998840332,0.07700291275978088,-3.262660541736295e-08,0.7464097142219543,-0.665486752986908,2.9089349595778913e-08
21,0.168,0,0,21,-0.30839478969573975,-1.3186739683151245,1.8744926452636719,-2.0964620113372803,-1.8749234676361084,-0.1665462851524353,0.0,-1.5700000524520874,1.5700000524520874,-1.5700000524520874,-1.5700000524520874,0.0,-2.0895705223083496,2.0944018363952637,2.4636104106903076,-3.1337172985076904,0.6071648597717285,-2.1603918075561523,-2.094399929046631,2.094399929046631,2.4041547775268555,-3.141590118408203,0.6036628484725952,-2.159977912902832,-6.2831854820251465,6.2831854820251465,-6.2831854820251465,6.2831854820251465,-3.1415927410125732,3.1415927410125732,-6.2831854820251465,6.2831854820251465,-6.2831854820251465,6.2831854820251465,-6.2831854820251465,6.2831854820251465,-5.654866695404053,5.654866695404053,-5.654866695404053,5.654866695404053,-2.8274333477020264,2.8274333477020264,-5.654866695404053,5.654866695404053,-5.654866695404053,5.654866695404053,-5.654866695404053,5.654866695404053,2.094399929046631,2.094399929046631,3.1415998935699463,3.1415998935699463,3.1415998935699463,3.1415998935699463,2.094399929046631,2.094399929046631,3.1415998935699463,3.1415998935699463,3.1415998935699463,3.1415998935699463,0.7614566087722778,-0.09642581641674042,0.3576928377151489,-0.1370507776737213,-0.6493111848831177,0.7451392412185669,-0.06617812067270279,NA,NA,NA,NA,NA,NA,NA,0.7083275318145752,-0.14767765998840332,0.07700291275978088,-3.262660541736295e-08,0.7464097142219543,-0.665486752986908,2.9089349595778913e-08
22,0.176,0,0,22,-0.3251384198665619,-1.3019118309020996,1.8934296369552612,-2.1215226650238037,-1.8690788745880127,-0.18423406779766083,0.0,-1.5700000524520874,1.5700000524520874,-1.5700000524520874,-1.5700000524520874,0.0,-2.091292381286621,2.09440016746521,2.3388943672180176,-3.136695384979248,0.731324315071106,-2.211193561553955,-2.094399929046631,2.094399929046631,2.3026742935180664,-3.141590118408203,0.7292537093162537,-2.210970640182495,-6.2831854820251465,6.2831854820251465,-6.2831854820251465,6.2831854820251465,-3.1415927410125732,3.1415927410125732,-6.2831854820251465,6.2831854820251465,-6.2831854820251465,6.2831854820251465,-6.2831854820251465,6.2831854820251465,-5.654866695404053,5.654866695404053,-5.654866695404053,5.654866695404053,-2.8274333477020264,2.8274333477020264,-5.654866695404053,5.654866695404053,-5.654866695404053,5.654866695404053,-5.654866695404053,5.654866695404053,2.094399929046631,2.094399929046631,3.1415998935699463,3.1415998935699463,3.1415998935699463,3.1415998935699463,2.094399929046631,2.094399929046631,3.1415998935699463,3.1415998935699463,3.1415998935699463,3.1415998935699463,0.757683277130127,-0.10778265446424484,0.3364771008491516,-0.13833113014698029,-0.6504528522491455,0.7446038722991943,-0.05779825150966644,NA,NA,NA,NA,NA,NA,NA,0.7083275318145752,-0.14767765998840332,0.07700291275978088,-3.262660541736295e-08,0.7464097142219543,-0.665486752986908,2.9089349595778913e-08
23,0.184,0,0,23,-0.3418762683868408,-1.2851494550704956,1.9112880229949951,-2.14656400680542,-1.86260986328125,-0.20193523168563843,0.0,-1.5700000524520874,1.5700000524520874,-1.5700000524520874,-1.5700000524520874,0.0,-2.090289354324341,2.0944008827209473,2.1975624561309814,-3.1354591846466064,0.8095757961273193,-2.2128539085388184,-2.094399929046631,2.094399929046631,2.1530745029449463,-3.141590118408203,0.8071041107177734,-2.212615489959717,-6.2831854820251465,6.2831854820251465,-6.2831854820251465,6.2831854820251465,-3.1415927410125732,3.1415927410125732,-6.2831854820251465,6.2831854820251465,-6.2831854820251465,6.2831854820251465,-6.2831854820251465,6.2831854820251465,-5.654866695404053,5.654866695404053,-5.654866695404053,5.654866695404053,-2.8274333477020264,2.8274333477020264,-5.654866695404053,5.654866695404053,-5.654866695404053,5.654866695404053,-5.654866695404053,5.654866695404053,2.094399929046631,2.094399929046631,3.1415998935699463,3.1415998935699463,3.1415998935699463,3.1415998935699463,2.094399929046631,2.094399929046631,3.1415998935699463,3.1415998935699463,3.1415998935699463,3.1415998935699463,0.7535959482192993,-0.1189088523387909,0.3161177337169647,-0.13883790373802185,-0.6515284776687622,0.7441539764404297,-0.049693793058395386,NA,NA,NA,NA,NA,NA,NA,0.7083275318145752,-0.14767765998840332,0.07700291275978088,-3.262660541736295e-08,0.7464097142219543,-0.665486752986908,2.9089349595778913e-08
24,0.192,0,0,24,-0.35697421431541443,-1.268401861190796,1.9279801845550537,-2.1716811656951904,-1.85578453540802,-0.21985286474227905,0.0,-1.5700000524520874,1.5700000524520874,-1.5700000524520874,-1.5700000524520874,0.0,-1.725946068763733,2.093731164932251,2.0495290756225586,-3.141599416732788,0.8592830300331116,-2.239121675491333,-1.4496939182281494,2.094399929046631,2.0385639667510986,-3.141590118408203,0.8743947744369507,-2.239729881286621,-6.2831854820251465,6.2831854820251465,-6.2831854820251465,6.2831854820251465,-3.1415927410125732,3.1415927410125732,-6.2831854820251465,6.2831854820251465,-6.2831854820251465,6.2831854820251465,-6.2831854820251465,6.2831854820251465,-5.654866695404053,5.654866695404053,-5.654866695404053,5.654866695404053,-2.8274333477020264,2.8274333477020264,-5.654866695404053,5.654866695404053,-5.654866695404053,5.654866695404053,-5.654866695404053,5.654866695404053,2.094399929046631,2.094399929046631,3.1415998935699463,3.1415998935699463,3.1415998935699463,3.1415998935699463,2.094399929046631,2.094399929046631,3.1415998935699463,3.1415998935699463,3.1415998935699463,3.1415998935699463,0.7495157122612,-0.12863843142986298,0.2966759204864502,-0.13862642645835876,-0.653206467628479,0.7431873083114624,-0.042147547006607056,NA,NA,NA,NA,NA,NA,NA,0.7083275318145752,-0.14767765998840332,0.07700291275978088,-3.262660541736295e-08,0.7464097142219543,-0.665486752986908,2.9089349595778913e-08
25,0.2,0,0,25,-0.36908018589019775,-1.2516549825668335,1.9436657428741455,-2.1968343257904053,-1.8476871252059937,-0.23779627680778503,0.0,-1.5700000524520874,1.5700000524520874,-1.5700000524520874,-1.5700000524520874,0.0,-1.3413649797439575,2.093463182449341,1.9349991083145142,-3.1416003704071045,1.0196244716644287,-2.2418901920318604,-1.0447099208831787,2.094399929046631,1.9430935382843018,-3.141590118408203,1.0363601446151733,-2.24299955368042,-6.2831854820251465,6.2831854820251465,-6.2831854820251465,6.2831854820251465,-3.1415927410125732,3.1415927410125732,-6.2831854820251465,6.2831854820251465,-6.2831854820251465,6.2831854820251465,-6.2831854820251465,6.2831854820251465,-5.654866695404053,5.654866695404053,-5.654866695404053,5.654866695404053,-2.8274333477020264,2.8274333477020264,-5.654866695404053,5.654866695404053,-5.654866695404053,5.654866695404053,-5.654866695404053,5.654866695404053,2.094399929046631,2.094399929046631,3.1415998935699463,3.1415998935699463,3.1415998935699463,3.1415998935699463,2.094399929046631,2.094399929046631,3.1415998935699463,3.1415998935699463,3.1415998935699463,3.1415998935699463,0.7457035183906555,-0.13587895035743713,0.2779952883720398,-0.13735747337341309,-0.6559616327285767,0.7413656711578369,-0.034987807273864746,NA,NA,NA,NA,NA,NA,NA,0.7083275318145752,-0.14767765998840332,0.07700291275978088,-3.262660541736295e-08,0.7464097142219543,-0.665486752986908,2.9089349595778913e-08
26,0.20800000000000002,0,0,26,-0.37842896580696106,-1.234900712966919,1.9583731889724731,-2.2219483852386475,-1.8382158279418945,-0.2548709809780121,0.0,-1.5700000524520874,1.5700000524520874,-1.5700000524520874,-1.5700000524520874,0.0,-1.026611089706421,2.0938291549682617,1.80409836769104,-3.1416003704071045,1.1903910636901855,-2.1338820457458496,-0.7853789925575256,2.094399929046631,1.7947272062301636,-3.141590118408203,1.2035926580429077,-2.134319543838501,-6.2831854820251465,6.2831854820251465,-6.2831854820251465,6.2831854820251465,-3.1415927410125732,3.1415927410125732,-6.2831854820251465,6.2831854820251465,-6.2831854820251465,6.2831854820251465,-6.2831854820251465,6.2831854820251465,-5.654866695404053,5.654866695404053,-5.654866695404053,5.654866695404053,-2.8274333477020264,2.8274333477020264,-5.654866695404053,5.654866695404053,-5.654866695404053,5.654866695404053,-5.654866695404053,5.654866695404053,2.094399929046631,2.094399929046631,3.1415998935699463,3.1415998935699463,3.1415998935699463,3.1415998935699463,2.094399929046631,2.094399929046631,3.1415998935699463,3.1415998935699463,3.1415998935699463,3.1415998935699463,0.7422339916229248,-0.14083869755268097,0.26002487540245056,-0.13504089415073395,-0.6593745350837708,0.7390484809875488,-0.028221875429153442,NA,NA,NA,NA,NA,NA,NA,0.7083275318145752,-0.14767765998840332,0.07700291275978088,-3.262660541736295e-08,0.7464097142219543,-0.665486752986908,2.9089349595778913e-08
27,0.216,0,0,27,-0.3857558071613312,-1.2181463241577148,1.9721143245697021,-2.2470457553863525,-1.8271262645721436,-0.2709863483905792,0.0,-1.5700000524520874,1.5700000524520874,-1.5700000524520874,-1.5700000524520874,0.0,-0.8186175227165222,2.094135046005249,1.6862843036651611,-3.1413540840148926,1.3909634351730347,-2.0144851207733154,-0.6558975577354431,2.094399929046631,1.6704778671264648,-3.141590118408203,1.3996502161026,-2.0145010948181152,-6.2831854820251465,6.2831854820251465,-6.2831854820251465,6.2831854820251465,-3.1415927410125732,3.1415927410125732,-6.2831854820251465,6.2831854820251465,-6.2831854820251465,6.2831854820251465,-6.2831854820251465,6.2831854820251465,-5.654866695404053,5.654866695404053,-5.654866695404053,5.654866695404053,-2.8274333477020264,2.8274333477020264,-5.654866695404053,5.654866695404053,-5.654866695404053,5.654866695404053,-5.654866695404053,5.654866695404053,2.094399929046631,2.094399929046631,3.1415998935699463,3.1415998935699463,3.1415998935699463,3.1415998935699463,2.094399929046631,2.094399929046631,3.1415998935699463,3.1415998935699463,3.1415998935699463,3.1415998935699463,0.7391020059585571,-0.1440809965133667,0.24274064600467682,-0.13161295652389526,-0.6631393432617188,0.7365118265151978,-0.02178293466567993,NA,NA,NA,NA,NA,NA,NA,0.7083275318145752,-0.14767765998840332,0.07700291275978088,-3.262660541736295e-08,0.7464097142219543,-0.665486752986908,2.9089349595778913e-08
28,0.224,0,0,28,-0.39164549112319946,-1.2013895511627197,1.9848318099975586,-2.2721071243286133,-1.814657211303711,-0.2859325110912323,0.0,-1.5700000524520874,1.5700000524520874,-1.5700000524520874,-1.5700000524520874,0.0,-0.6619910001754761,2.094399929046631,1.5497338771820068,-3.1385433673858643,1.56222665309906,-1.8683161735534668,-0.5423451662063599,2.094399929046631,1.517936110496521,-3.141590118408203,1.5684139728546143,-1.8683215379714966,-6.2831854820251465,6.2831854820251465,-6.2831854820251465,6.2831854820251465,-3.1415927410125732,3.1415927410125732,-6.2831854820251465,6.2831854820251465,-6.2831854820251465,6.2831854820251465,-6.2831854820251465,6.2831854820251465,-5.654866695404053,5.654866695404053,-5.654866695404053,5.654866695404053,-2.8274333477020264,2.8274333477020264,-5.654866695404053,5.654866695404053,-5.654866695404053,5.654866695404053,-5.654866695404053,5.654866695404053,2.094399929046631,2.094399929046631,3.1415998935699463,3.1415998935699463,3.1415998935699463,3.1415998935699463,2.094399929046631,2.094399929046631,3.1415998935699463,3.1415998935699463,3.1415998935699463,3.1415998935699463,0.7363064289093018,-0.14610953629016876,0.2261594980955124,-0.1272062510251999,-0.6669492721557617,0.7339956164360046,-0.015735343098640442,NA,NA,NA,NA,NA,NA,NA,0.7083275318145752,-0.14767765998840332,0.07700291275978088,-3.262660541736295e-08,0.7464097142219543,-0.665486752986908,2.9089349595778913e-08
29,0.232,0,0,29,-0.3964632451534271,-1.1846319437026978,1.996530294418335,-2.2971692085266113,-1.800762414932251,-0.30004891753196716,0.0,-1.5700000524520874,1.5700000524520874,-1.5700000524520874,-1.5700000524520874,0.0,-0.5449962019920349,2.0944008827209473,1.4264506101608276,-3.1382334232330322,1.739933967590332,-1.7645988464355469,-0.45444756746292114,2.094399929046631,1.3958938121795654,-3.141590118408203,1.7444065809249878,-1.764593243598938,-6.2831854820251465,6.2831854820251465,-6.2831854820251465,6.2831854820251465,-3.1415927410125732,3.1415927410125732,-6.2831854820251465,6.2831854820251465,-6.2831854820251465,6.2831854820251465,-6.2831854820251465,6.2831854820251465,-5.654866695404053,5.654866695404053,-5.654866695404053,5.654866695404053,-2.8274333477020264,2.8274333477020264,-5.654866695404053,5.654866695404053,-5.654866695404053,5.654866695404053,-5.654866695404053,5.654866695404053,2.094399929046631,2.094399929046631,3.1415998935699463,3.1415998935699463,3.1415998935699463,3.1415998935699463,2.094399929046631,2.094399929046631,3.1415998935699463,3.1415998935699463,3.1415998935699463,3.1415998935699463,0.7338535189628601,-0.147219717502594,0.21026243269443512,-0.12182456254959106,-0.6707931160926819,0.7315013408660889,-0.010052338242530823,NA,NA,NA,NA,NA,NA,NA,0.7083275318145752,-0.14767765998840332,0.07700291275978088,-3.262660541736295e-08,0.7464097142219543,-0.665486752986908,2.9089349595778913e-08
30,0.24,0,0,30,-0.4003550112247467,-1.1678720712661743,2.0071845054626465,-2.322214365005493,-1.7858129739761353,-0.3134520351886749,0.0,-1.5700000524520874,1.5700000524520874,-1.5700000524520874,-1.5700000524520874,0.0,-0.4331973195075989,2.0944013595581055,1.290398359298706,-3.1368696689605713,1.8717142343521118,-1.675506830215454,-0.35136640071868896,2.094399929046631,1.2522261142730713,-3.141590118408203,1.8754348754882812,-1.675491452217102,-6.2831854820251465,6.2831854820251465,-6.2831854820251465,6.2831854820251465,-3.1415927410125732,3.1415927410125732,-6.2831854820251465,6.2831854820251465,-6.2831854820251465,6.2831854820251465,-6.2831854820251465,6.2831854820251465,-5.654866695404053,5.654866695404053,-5.654866695404053,5.654866695404053,-2.8274333477020264,2.8274333477020264,-5.654866695404053,5.654866695404053,-5.654866695404053,5.654866695404053,-5.654866695404053,5.654866695404053,2.094399929046631,2.094399929046631,3.1415998935699463,3.1415998935699463,3.1415998935699463,3.1415998935699463,2.094399929046631,2.094399929046631,3.1415998935699463,3.1415998935699463,3.1415998935699463,3.1415998935699463,0.7317622900009155,-0.1475893259048462,0.195047989487648,-0.11565512418746948,-0.6746494770050049,0.7290052771568298,-0.004810214042663574,NA,NA,NA,NA,NA,NA,NA,0.7083275318145752,-0.14767765998840332,0.07700291275978088,-3.262660541736295e-08,0.7464097142219543,-0.665486752986908,2.9089349595778913e-08
31,0.248,0,0,31,-0.4035212993621826,-1.1517828702926636,2.0171220302581787,-2.347201108932495,-1.769805908203125,-0.3265593647956848,0.0,-1.5700000524520874,1.5700000524520874,-1.5700000524520874,-1.5700000524520874,0.0,-0.35514894127845764,1.9423704147338867,1.2234387397766113,-3.1278581619262695,2.002107858657837,-1.6383265256881714,-0.2729800045490265,1.757789134979248,1.134527325630188,-3.141590118408203,2.0042595863342285,-1.6383304595947266,-6.2831854820251465,6.2831854820251465,-6.2831854820251465,6.2831854820251465,-3.1415927410125732,3.1415927410125732,-6.2831854820251465,6.2831854820251465,-6.2831854820251465,6.2831854820251465,-6.2831854820251465,6.2831854820251465,-5.654866695404053,5.654866695404053,-5.654866695404053,5.654866695404053,-2.8274333477020264,2.8274333477020264,-5.654866695404053,5.654866695404053,-5.654866695404053,5.654866695404053,-5.654866695404053,5.654866695404053,2.094399929046631,2.094399929046631,3.1415998935699463,3.1415998935699463,3.1415998935699463,3.1415998935699463,2.094399929046631,2.094399929046631,3.1415998935699463,3.1415998935699463,3.1415998935699463,3.1415998935699463,0.7298703789710999,-0.14731365442276,0.18082278966903687,-0.10865333676338196,-0.6785917282104492,0.7264349460601807,-0.00011716783046722412,NA,NA,NA,NA,NA,NA,NA,0.7083275318145752,-0.14767765998840332,0.07700291275978088,-3.262660541736295e-08,0.7464097142219543,-0.665486752986908,2.9089349595778913e-08
32,0.256,0,0,32,-0.4062884449958801,-1.1369949579238892,2.0266106128692627,-2.372159481048584,-1.752939224243164,-0.34006524085998535,0.0,-1.5700000524520874,1.5700000524520874,-1.5700000524520874,-1.5700000524520874,0.0,-0.3286491930484772,1.7535028457641602,1.1758676767349243,-3.123527765274048,2.1081440448760986,-1.6881344318389893,-0.27969396114349365,1.5268374681472778,1.0639255046844482,-3.141590118408203,2.1080009937286377,-1.6881332397460938,-6.2831854820251465,6.2831854820251465,-6.2831854820251465,6.2831854820251465,-3.1415927410125732,3.1415927410125732,-6.2831854820251465,6.2831854820251465,-6.2831854820251465,6.2831854820251465,-6.2831854820251465,6.2831854820251465,-5.654866695404053,5.654866695404053,-5.654866695404053,5.654866695404053,-2.8274333477020264,2.8274333477020264,-5.654866695404053,5.654866695404053,-5.654866695404053,5.654866695404053,-5.654866695404053,5.654866695404053,2.094399929046631,2.094399929046631,3.1415998935699463,3.1415998935699463,3.1415998935699463,3.1415998935699463,2.094399929046631,2.094399929046631,3.1415998935699463,3.1415998935699463,3.1415998935699463,3.1415998935699463,0.7280454039573669,-0.14662277698516846,0.1679118424654007,-0.1008460521697998,-0.6827452778816223,0.723653256893158,0.003848060965538025,NA,NA,NA,NA,NA,NA,NA,0.7083275318145752,-0.14767765998840332,0.07700291275978088,-3.262660541736295e-08,0.7464097142219543,-0.665486752986908,2.9089349595778913e-08
33,0.264,0,0,33,-0.40887922048568726,-1.1235260963439941,2.0356571674346924,-2.397127866744995,-1.735612392425537,-0.35402315855026245,0.0,-1.5700000524520874,1.5700000524520874,-1.5700000524520874,-1.5700000524520874,0.0,-0.3136439919471741,1.6074163913726807,1.1142261028289795,-3.1253693103790283,2.1655309200286865,-1.7446460723876953,-0.2838922441005707,1.4187967777252197,1.0136157274246216,-3.141590118408203,2.1650400161743164,-1.744645357131958,-6.2831854820251465,6.2831854820251465,-6.2831854820251465,6.2831854820251465,-3.1415927410125732,3.1415927410125732,-6.2831854820251465,6.2831854820251465,-6.2831854820251465,6.2831854820251465,-6.2831854820251465,6.2831854820251465,-5.654866695404053,5.654866695404053,-5.654866695404053,5.654866695404053,-2.8274333477020264,2.8274333477020264,-5.654866695404053,5.654866695404053,-5.654866695404053,5.654866695404053,-5.654866695404053,5.654866695404053,2.094399929046631,2.094399929046631,3.1415998935699463,3.1415998935699463,3.1415998935699463,3.1415998935699463,2.094399929046631,2.094399929046631,3.1415998935699463,3.1415998935699463,3.1415998935699463,3.1415998935699463,0.7263004183769226,-0.14575035870075226,0.15632370114326477,-0.09241947531700134,-0.687049388885498,0.7206754684448242,0.0069772303104400635,NA,NA,NA,NA,NA,NA,NA,0.7083275318145752,-0.14767765998840332,0.07700291275978088,-3.262660541736295e-08,0.7464097142219543,-0.665486752986908,2.9089349595778913e-08
34,0.272,0,0,34,-0.41138404607772827,-1.1111825704574585,2.044250011444092,-2.422105073928833,-1.7180933952331543,-0.36831867694854736,0.0,-1.5700000524520874,1.5700000524520874,-1.5700000524520874,-1.5700000524520874,0.0,-0.30779629945755005,1.4734491109848022,1.057661771774292,-3.1263883113861084,2.1892411708831787,-1.7869974374771118,-0.2887006103992462,1.3026944398880005,0.9641810655593872,-3.141590118408203,2.1885433197021484,-1.7869949340820312,-6.2831854820251465,6.2831854820251465,-6.2831854820251465,6.2831854820251465,-3.1415927410125732,3.1415927410125732,-6.2831854820251465,6.2831854820251465,-6.2831854820251465,6.2831854820251465,-6.2831854820251465,6.2831854820251465,-5.654866695404053,5.654866695404053,-5.654866695404053,5.654866695404053,-2.8274333477020264,2.8274333477020264,-5.654866695404053,5.654866695404053,-5.654866695404053,5.654866695404053,-5.654866695404053,5.654866695404053,2.094399929046631,2.094399929046631,3.1415998935699463,3.1415998935699463,3.1415998935699463,3.1415998935699463,2.094399929046631,2.094399929046631,3.1415998935699463,3.1415998935699463,3.1415998935699463,3.1415998935699463,0.7246658205986023,-0.1448158621788025,0.14591355621814728,-0.08354765176773071,-0.6914383769035339,0.7175281047821045,0.009281858801841736,NA,NA,NA,NA,NA,NA,NA,0.7083275318145752,-0.14767765998840332,0.07700291275978088,-3.262660541736295e-08,0.7464097142219543,-0.665486752986908,2.9089349595778913e-08
35,0.28,0,0,35,-0.41386497020721436,-1.0997917652130127,2.0523176193237305,-2.4470839500427246,-1.7007732391357422,-0.38285452127456665,0.0,-1.5700000524520874,1.5700000524520874,-1.5700000524520874,-1.5700000524520874,0.0,-0.3102931082248688,1.365912675857544,0.9861948490142822,-3.1271426677703857,2.1641600131988525,-1.8169000148773193,-0.30547189712524414,1.2162225246429443,0.8965969085693359,-3.141590118408203,2.1631078720092773,-1.8168971538543701,-6.2831854820251465,6.2831854820251465,-6.2831854820251465,6.2831854820251465,-3.1415927410125732,3.1415927410125732,-6.2831854820251465,6.2831854820251465,-6.2831854820251465,6.2831854820251465,-6.2831854820251465,6.2831854820251465,-5.654866695404053,5.654866695404053,-5.654866695404053,5.654866695404053,-2.8274333477020264,2.8274333477020264,-5.654866695404053,5.654866695404053,-5.654866695404053,5.654866695404053,-5.654866695404053,5.654866695404053,2.094399929046631,2.094399929046631,3.1415998935699463,3.1415998935699463,3.1415998935699463,3.1415998935699463,2.094399929046631,2.094399929046631,3.1415998935699463,3.1415998935699463,3.1415998935699463,3.1415998935699463,0.7231884002685547,-0.1439393311738968,0.13657960295677185,-0.07444912195205688,-0.6958614587783813,0.7142261862754822,0.01072181761264801,NA,NA,NA,NA,NA,NA,NA,0.7083275318145752,-0.14767765998840332,0.07700291275978088,-3.262660541736295e-08,0.7464097142219543,-0.665486752986908,2.9089349595778913e-08
36,0.28800000000000003,0,0,36,-0.41634401679039,-1.0893642902374268,2.05998158454895,-2.4720749855041504,-1.6840736865997314,-0.3975525200366974,0.0,-1.5700000524520874,1.5700000524520874,-1.5700000524520874,-1.5700000524520874,0.0,-0.30916398763656616,1.24040687084198,0.9448322057723999,-3.1278493404388428,2.0861196517944336,-1.8373441696166992,-0.2995815873146057,1.0903321504592896,0.8622191548347473,-3.141590118408203,2.085404396057129,-1.8373427391052246,-6.2831854820251465,6.2831854820251465,-6.2831854820251465,6.2831854820251465,-3.1415927410125732,3.1415927410125732,-6.2831854820251465,6.2831854820251465,-6.2831854820251465,6.2831854820251465,-6.2831854820251465,6.2831854820251465,-5.654866695404053,5.654866695404053,-5.654866695404053,5.654866695404053,-2.8274333477020264,2.8274333477020264,-5.654866695404053,5.654866695404053,-5.654866695404053,5.654866695404053,-5.654866695404053,5.654866695404053,2.094399929046631,2.094399929046631,3.1415998935699463,3.1415998935699463,3.1415998935699463,3.1415998935699463,2.094399929046631,2.094399929046631,3.1415998935699463,3.1415998935699463,3.1415998935699463,3.1415998935699463,0.7218155264854431,-0.14317110180854797,0.12826497852802277,-0.06535732746124268,-0.7002889513969421,0.7107720971107483,0.01125478744506836,NA,NA,NA,NA,NA,NA,NA,0.7083275318145752,-0.14767765998840332,0.07700291275978088,-3.262660541736295e-08,0.7464097142219543,-0.665486752986908,2.9089349595778913e-08
37,0.296,0,0,37,-0.4187883138656616,-1.0797077417373657,2.0668880939483643,-2.4970226287841797,-1.668839931488037,-0.4121246635913849,0.0,-1.5700000524520874,1.5700000524520874,-1.5700000524520874,-1.5700000524520874,0.0,-0.31097954511642456,1.1592782735824585,0.8216055035591125,-3.125342607498169,1.9026544094085693,-1.8214832544326782,-0.3242407739162445,1.0141557455062866,0.7179796099662781,-3.141590118408203,1.9011305570602417,-1.8214799165725708,-6.2831854820251465,6.2831854820251465,-6.2831854820251465,6.2831854820251465,-3.1415927410125732,3.1415927410125732,-6.2831854820251465,6.2831854820251465,-6.2831854820251465,6.2831854820251465,-6.2831854820251465,6.2831854820251465,-5.654866695404053,5.654866695404053,-5.654866695404053,5.654866695404053,-2.8274333477020264,2.8274333477020264,-5.654866695404053,5.654866695404053,-5.654866695404053,5.654866695404053,-5.654866695404053,5.654866695404053,2.094399929046631,2.094399929046631,3.1415998935699463,3.1415998935699463,3.1415998935699463,3.1415998935699463,2.094399929046631,2.094399929046631,3.1415998935699463,3.1415998935699463,3.1415998935699463,3.1415998935699463,0.7207173109054565,-0.14267003536224365,0.12097086012363434,-0.05667006969451904,-0.7046329379081726,0.7072249054908752,0.010667935013771057,NA,NA,NA,NA,NA,NA,NA,0.7083275318145752,-0.14767765998840332,0.07700291275978088,-3.262660541736295e-08,0.7464097142219543,-0.665486752986908,2.9089349595778913e-08
38,0.304,0,0,38,-0.4212716519832611,-1.0714811086654663,2.074052572250366,-2.522066354751587,-1.6548266410827637,-0.4266986846923828,0.0,-1.5700000524520874,1.5700000524520874,-1.5700000524520874,-1.5700000524520874,0.0,-0.305899977684021,0.932201087474823,0.9316003322601318,-3.1303796768188477,1.749059796333313,-1.82174551486969,-0.26924368739128113,0.763674795627594,0.877982497215271,-3.141590118408203,1.74951171875,-1.8217456340789795,-6.2831854820251465,6.2831854820251465,-6.2831854820251465,6.2831854820251465,-3.1415927410125732,3.1415927410125732,-6.2831854820251465,6.2831854820251465,-6.2831854820251465,6.2831854820251465,-6.2831854820251465,6.2831854820251465,-5.654866695404053,5.654866695404053,-5.654866695404053,5.654866695404053,-2.8274333477020264,2.8274333477020264,-5.654866695404053,5.654866695404053,-5.654866695404053,5.654866695404053,-5.654866695404053,5.654866695404053,2.094399929046631,2.094399929046631,3.1415998935699463,3.1415998935699463,3.1415998935699463,3.1415998935699463,2.094399929046631,2.094399929046631,3.1415998935699463,3.1415998935699463,3.1415998935699463,3.1415998935699463,0.7194130420684814,-0.1422523409128189,0.11472851037979126,-0.04833728075027466,-0.7089239358901978,0.7035673260688782,0.009122967720031738,NA,NA,NA,NA,NA,NA,NA,0.7083275318145752,-0.14767765998840332,0.07700291275978088,-3.262660541736295e-08,0.7464097142219543,-0.665486752986908,2.9089349595778913e-08
39,0.312,0,0,39,-0.4228794276714325,-1.0633511543273926,2.078646183013916,-2.5439951419830322,-1.6446415185928345,-0.44101640582084656,0.0,-1.5700000524520874,1.5700000524520874,-1.5700000524520874,-1.5700000524520874,0.0,-0.18040235340595245,0.9891991019248962,0.542186439037323,-2.7657344341278076,1.274922251701355,-1.7897001504898071,-0.14680546522140503,0.901073694229126,0.024175778031349182,-2.7686667442321777,1.2756450176239014,-1.789700984954834,-6.2831854820251465,6.2831854820251465,-6.2831854820251465,6.2831854820251465,-3.1415927410125732,3.1415927410125732,-6.2831854820251465,6.2831854820251465,-6.2831854820251465,6.2831854820251465,-6.2831854820251465,6.2831854820251465,-5.654866695404053,5.654866695404053,-5.654866695404053,5.654866695404053,-2.8274333477020264,2.8274333477020264,-5.654866695404053,5.654866695404053,-5.654866695404053,5.654866695404053,-5.654866695404053,5.654866695404053,2.094399929046631,2.094399929046631,3.1415998935699463,3.1415998935699463,3.1415998935699463,3.1415998935699463,2.094399929046631,2.094399929046631,3.1415998935699463,3.1415998935699463,3.1415998935699463,3.1415998935699463,0.7190531492233276,-0.1420525759458542,0.1094101145863533,-0.041904568672180176,-0.7133903503417969,0.6994781494140625,0.006957873702049255,NA,NA,NA,NA,NA,NA,NA,0.7083275318145752,-0.14767765998840332,0.07700291275978088,-3.262660541736295e-08,0.7464097142219543,-0.665486752986908,2.9089349595778913e-08
40,0.32,0,0,40,-0.4245002567768097,-1.0589569807052612,2.084815740585327,-2.5560970306396484,-1.6342763900756836,-0.45368510484695435,0.0,-1.5700000524520874,1.5700000524520874,-1.5700000524520874,-1.5700000524520874,0.0,-0.17564626038074493,0.3550964295864105,0.9208906888961792,-1.5034929513931274,1.2879244089126587,-1.5834676027297974,-0.05164152383804321,-0.039432790130376816,0.9257031083106995,-1.5024102926254272,1.295157790184021,-1.583482027053833,-6.2831854820251465,6.2831854820251465,-6.2831854820251465,6.2831854820251465,-3.1415927410125732,3.1415927410125732,-6.2831854820251465,6.2831854820251465,-6.2831854820251465,6.2831854820251465,-6.2831854820251465,6.2831854820251465,-5.654866695404053,5.654866695404053,-5.654866695404053,5.654866695404053,-2.8274333477020264,2.8274333477020264,-5.654866695404053,5.654866695404053,-5.654866695404053,5.654866695404053,-5.654866695404053,5.654866695404053,2.094399929046631,2.094399929046631,3.1415998935699463,3.1415998935699463,3.1415998935699463,3.1415998935699463,2.094399929046631,2.094399929046631,3.1415998935699463,3.1415998935699463,3.1415998935699463,3.1415998935699463,0.7169367074966431,-0.14104312658309937,0.1050337553024292,-0.03672373294830322,-0.7172894477844238,0.6957573890686035,0.008295059204101562,NA,NA,NA,NA,NA,NA,NA,0.7083275318145752,-0.14767765998840332,0.07700291275978088,-3.262660541736295e-08,0.7464097142219543,-0.665486752986908,2.9089349595778913e-08
41,0.328,0,0,41,-0.4249956011772156,-1.052628517150879,2.0886318683624268,-2.5741353034973145,-1.6319756507873535,-0.46580442786216736,0.0,-1.5700000524520874,1.5700000524520874,-1.5700000524520874,-1.5700000524520874,0.0,-0.07932385802268982,0.9626523852348328,0.37145236134529114,-2.2831947803497314,0.28662368655204773,-1.5149644613265991,-0.1738848239183426,1.2138566970825195,-1.5805305242538452,-2.274162769317627,0.28440842032432556,-1.5149592161178589,-6.2831854820251465,6.2831854820251465,-6.2831854820251465,6.2831854820251465,-3.1415927410125732,3.1415927410125732,-6.2831854820251465,6.2831854820251465,-6.2831854820251465,6.2831854820251465,-6.2831854820251465,6.2831854820251465,-5.654866695404053,5.654866695404053,-5.654866695404053,5.654866695404053,-2.8274333477020264,2.8274333477020264,-5.654866695404053,5.654866695404053,-5.654866695404053,5.654866695404053,-5.654866695404053,5.654866695404053,2.094399929046631,2.094399929046631,3.1415998935699463,3.1415998935699463,3.1415998935699463,3.1415998935699463,2.094399929046631,2.094399929046631,3.1415998935699463,3.1415998935699463,3.1415998935699463,3.1415998935699463,0.7163872718811035,-0.14088761806488037,0.10103881359100342,-0.03427383303642273,-0.7212992906570435,0.691755473613739,0.0051911622285842896,NA,NA,NA,NA,NA,NA,NA,0.7083275318145752,-0.14767765998840332,0.07700291275978088,-3.262660541736295e-08,0.7464097142219543,-0.665486752986908,2.9089349595778913e-08
42,0.336,0,0,42,-0.42515650391578674,-1.0481857061386108,2.09023118019104,-2.5794951915740967,-1.6257456541061401,-0.4731845259666443,0.0,-1.5700000524520874,1.5700000524520874,-1.5700000524520874,-1.5700000524520874,0.0,0.0803607776761055,0.558032214641571,0.07826482504606247,-0.7000953555107117,0.7849642634391785,-0.9224642515182495,0.20698295533657074,-1.1952511072158813,-0.06409139931201935,-0.6996233463287354,0.7924472689628601,-0.9224792718887329,-6.2831854820251465,6.2831854820251465,-6.2831854820251465,6.2831854820251465,-3.1415927410125732,3.1415927410125732,-6.2831854820251465,6.2831854820251465,-6.2831854820251465,6.2831854820251465,-6.2831854820251465,6.2831854820251465,-5.654866695404053,5.654866695404053,-5.654866695404053,5.654866695404053,-2.8274333477020264,2.8274333477020264,-5.654866695404053,5.654866695404053,-5.654866695404053,5.654866695404053,-5.654866695404053,5.654866695404053,2.094399929046631,2.094399929046631,3.1415998935699463,3.1415998935699463,3.1415998935699463,3.1415998935699463,2.094399929046631,2.094399929046631,3.1415998935699463,3.1415998935699463,3.1415998935699463,3.1415998935699463,0.7160277366638184,-0.1400546282529831,0.09781314432621002,-0.03142771124839783,-0.723824143409729,0.689236044883728,0.006670862436294556,NA,NA,NA,NA,NA,NA,NA,0.7083275318145752,-0.14767765998840332,0.07700291275978088,-3.262660541736295e-08,0.7464097142219543,-0.665486752986908,2.9089349595778913e-08
43,0.34400000000000003,0,0,43,-0.427412211894989,-1.0475842952728271,2.095277786254883,-2.5838048458099365,-1.622851014137268,-0.4791470766067505,0.0,-1.5700000524520874,1.5700000524520874,-1.5700000524520874,-1.5700000524520874,0.0,-0.5091484189033508,-0.18068188428878784,0.880248486995697,-0.521960437297821,0.338601291179657,-0.7452511191368103,-0.7724161744117737,-0.4297563135623932,0.9051644802093506,-0.5325731039047241,0.3198188245296478,-0.7452136874198914,-6.2831854820251465,6.2831854820251465,-6.2831854820251465,6.2831854820251465,-3.1415927410125732,3.1415927410125732,-6.2831854820251465,6.2831854820251465,-6.2831854820251465,6.2831854820251465,-6.2831854820251465,6.2831854820251465,-5.654866695404053,5.654866695404053,-5.654866695404053,5.654866695404053,-2.8274333477020264,2.8274333477020264,-5.654866695404053,5.654866695404053,-5.654866695404053,5.654866695404053,-5.654866695404053,5.654866695404053,2.094399929046631,2.094399929046631,3.1415998935699463,3.1415998935699463,3.1415998935699463,3.1415998935699463,2.094399929046631,2.094399929046631,3.1415998935699463,3.1415998935699463,3.1415998935699463,3.1415998935699463,0.7134519815444946,-0.14027072489261627,0.09583534300327301,-0.03025069832801819,-0.7251155376434326,0.6879169940948486,0.007904857397079468,NA,NA,NA,NA,NA,NA,NA,0.7083275318145752,-0.14767765998840332,0.07700291275978088,-3.262660541736295e-08,0.7464097142219543,-0.665486752986908,2.9089349595778913e-08
44,0.352,0,0,44,-0.42697879672050476,-1.043321967124939,2.097163677215576,-2.5972483158111572,-1.620569109916687,-0.48824986815452576,0.0,-1.5700000524520874,1.5700000524520874,-1.5700000524520874,-1.5700000524520874,0.0,0.14955732226371765,0.637574315071106,0.14900395274162292,-1.6960487365722656,0.3269062638282776,-1.1380276679992676,1.3455909490585327,1.787313461303711,-2.216714859008789,-1.6960469484329224,0.3269065022468567,-1.1380277872085571,-6.2831854820251465,6.2831854820251465,-6.2831854820251465,6.2831854820251465,-3.1415927410125732,3.1415927410125732,-6.2831854820251465,6.2831854820251465,-6.2831854820251465,6.2831854820251465,-6.2831854820251465,6.2831854820251465,-5.654866695404053,5.654866695404053,-5.654866695404053,5.654866695404053,-2.8274333477020264,2.8274333477020264,-5.654866695404053,5.654866695404053,-5.654866695404053,5.654866695404053,-5.654866695404053,5.654866695404053,2.094399929046631,2.094399929046631,3.1415998935699463,3.1415998935699463,3.1415998935699463,3.1415998935699463,2.094399929046631,2.094399929046631,3.1415998935699463,3.1415998935699463,3.1415998935699463,3.1415998935699463,0.7137008309364319,-0.13975495100021362,0.0936136245727539,-0.027963846921920776,-0.7283741235733032,0.6845908164978027,0.004951015114784241,NA,NA,NA,NA,NA,NA,NA,0.7083275318145752,-0.14767765998840332,0.07700291275978088,-3.262660541736295e-08,0.7464097142219543,-0.665486752986908,2.9089349595778913e-08
45,0.36,0,0,45,-0.4287358224391937,-1.0423829555511475,2.099198579788208,-2.597059965133667,-1.6193329095840454,-0.48967939615249634,0.0,-1.5700000524520874,1.5700000524520874,-1.5700000524520874,-1.5700000524520874,0.0,-0.40366023778915405,0.015460368245840073,0.2693514823913574,0.019659843295812607,0.11534055322408676,-0.17849527299404144,-0.7927786111831665,-0.8726952075958252,0.15187188982963562,0.007163049653172493,0.11727052181959152,-0.1784985363483429,-6.2831854820251465,6.2831854820251465,-6.2831854820251465,6.2831854820251465,-3.1415927410125732,3.1415927410125732,-6.2831854820251465,6.2831854820251465,-6.2831854820251465,6.2831854820251465,-6.2831854820251465,6.2831854820251465,-5.654866695404053,5.654866695404053,-5.654866695404053,5.654866695404053,-2.8274333477020264,2.8274333477020264,-5.654866695404053,5.654866695404053,-5.654866695404053,5.654866695404053,-5.654866695404053,5.654866695404053,2.094399929046631,2.094399929046631,3.1415998935699463,3.1415998935699463,3.1415998935699463,3.1415998935699463,2.094399929046631,2.094399929046631,3.1415998935699463,3.1415998935699463,3.1415998935699463,3.1415998935699463,0.7122759222984314,-0.14031223952770233,0.09211044013500214,-0.027877092361450195,-0.7282769083976746,0.6846829652786255,0.006691053509712219,NA,NA,NA,NA,NA,NA,NA,0.7083275318145752,-0.14767765998840332,0.07700291275978088,-3.262660541736295e-08,0.7464097142219543,-0.665486752986908,2.9089349595778913e-08
46,0.368,0,0,46,-0.4281063377857208,-1.0387152433395386,2.0979413986206055,-2.602405548095703,-1.6149388551712036,-0.4952537715435028,0.0,-1.5700000524520874,1.5700000524520874,-1.5700000524520874,-1.5700000524520874,0.0,0.1948140263557434,0.6588773727416992,-0.3442475497722626,-0.6848189830780029,0.5890306234359741,-0.6969767808914185,1.4067367315292358,0.8731158971786499,-0.34410127997398376,-0.6764504909515381,0.5917357206344604,-0.69698166847229,-6.2831854820251465,6.2831854820251465,-6.2831854820251465,6.2831854820251465,-3.1415927410125732,3.1415927410125732,-6.2831854820251465,6.2831854820251465,-6.2831854820251465,6.2831854820251465,-6.2831854820251465,6.2831854820251465,-5.654866695404053,5.654866695404053,-5.654866695404053,5.654866695404053,-2.8274333477020264,2.8274333477020264,-5.654866695404053,5.654866695404053,-5.654866695404053,5.654866695404053,-5.654866695404053,5.654866695404053,2.094399929046631,2.094399929046631,3.1415998935699463,3.1415998935699463,3.1415998935699463,3.1415998935699463,2.094399929046631,2.094399929046631,3.1415998935699463,3.1415998935699463,3.1415998935699463,3.1415998935699463,0.7135673761367798,-0.13985054194927216,0.09061624854803085,-0.02531224489212036,-0.7304049134254456,0.6825181841850281,0.006068184971809387,NA,NA,NA,NA,NA,NA,NA,0.7083275318145752,-0.14767765998840332,0.07700291275978088,-3.262660541736295e-08,0.7464097142219543,-0.665486752986908,2.9089349595778913e-08
47,0.376,0,0,47,-0.4299374222755432,-1.0389639139175415,2.10013484954834,-2.599930763244629,-1.6158277988433838,-0.49539273977279663,0.0,-1.5700000524520874,1.5700000524520874,-1.5700000524520874,-1.5700000524520874,0.0,-0.4227745831012726,-0.1414109170436859,0.38882628083229065,0.3219776451587677,-0.15738482773303986,-0.017221448943018913,-0.808925986289978,-1.559139609336853,1.8573938608169556,0.3219762146472931,-0.15738539397716522,-0.017221609130501747,-6.2831854820251465,6.2831854820251465,-6.2831854820251465,6.2831854820251465,-3.1415927410125732,3.1415927410125732,-6.2831854820251465,6.2831854820251465,-6.2831854820251465,6.2831854820251465,-6.2831854820251465,6.2831854820251465,-5.654866695404053,5.654866695404053,-5.654866695404053,5.654866695404053,-2.8274333477020264,2.8274333477020264,-5.654866695404053,5.654866695404053,-5.654866695404053,5.654866695404053,-5.654866695404053,5.654866695404053,2.094399929046631,2.094399929046631,3.1415998935699463,3.1415998935699463,3.1415998935699463,3.1415998935699463,2.094399929046631,2.094399929046631,3.1415998935699463,3.1415998935699463,3.1415998935699463,3.1415998935699463,0.7117844223976135,-0.1405709683895111,0.08964074403047562,-0.026427358388900757,-0.7298341989517212,0.6830657720565796,0.008047372102737427,NA,NA,NA,NA,NA,NA,NA,0.7083275318145752,-0.14767765998840332,0.07700291275978088,-3.262660541736295e-08,0.7464097142219543,-0.665486752986908,2.9089349595778913e-08
48,0.384,0,0,48,-0.42913809418678284,-1.0356125831604004,2.099139451980591,-2.6080992221832275,-1.613326907157898,-0.500287652015686,0.0,-1.5700000524520874,1.5700000524520874,-1.5700000524520874,-1.5700000524520874,0.0,0.20102474093437195,0.6342254877090454,-0.28638219833374023,-1.0502841472625732,0.35359495878219604,-0.6119654774665833,1.7084064483642578,0.9033874869346619,-1.1486847400665283,-1.039398431777954,0.3569049537181854,-0.6119716167449951,-6.2831854820251465,6.2831854820251465,-6.2831854820251465,6.2831854820251465,-3.1415927410125732,3.1415927410125732,-6.2831854820251465,6.2831854820251465,-6.2831854820251465,6.2831854820251465,-6.2831854820251465,6.2831854820251465,-5.654866695404053,5.654866695404053,-5.654866695404053,5.654866695404053,-2.8274333477020264,2.8274333477020264,-5.654866695404053,5.654866695404053,-5.654866695404053,5.654866695404053,-5.654866695404053,5.654866695404053,2.094399929046631,2.094399929046631,3.1415998935699463,3.1415998935699463,3.1415998935699463,3.1415998935699463,2.094399929046631,2.094399929046631,3.1415998935699463,3.1415998935699463,3.1415998935699463,3.1415998935699463,0.7131891250610352,-0.14027342200279236,0.08860478550195694,-0.024309605360031128,-0.7317712306976318,0.6810925006866455,0.005738407373428345,NA,NA,NA,NA,NA,NA,NA,0.7083275318145752,-0.14767765998840332,0.07700291275978088,-3.262660541736295e-08,0.7464097142219543,-0.665486752986908,2.9089349595778913e-08
49,0.392,0,0,49,-0.43051642179489136,-1.0361707210540771,2.1012258529663086,-2.6044671535491943,-1.613878846168518,-0.4993804693222046,0.0,-1.5700000524520874,1.5700000524520874,-1.5700000524520874,-1.5700000524520874,0.0,-0.35746830701828003,-0.17679068446159363,0.37393298745155334,0.47257769107818604,-0.09292791783809662,0.11360052227973938,-0.6213098168373108,-1.6815224885940552,1.5926518440246582,0.47186821699142456,-0.10851916670799255,0.11363225430250168,-6.2831854820251465,6.2831854820251465,-6.2831854820251465,6.2831854820251465,-3.1415927410125732,3.1415927410125732,-6.2831854820251465,6.2831854820251465,-6.2831854820251465,6.2831854820251465,-6.2831854820251465,6.2831854820251465,-5.654866695404053,5.654866695404053,-5.654866695404053,5.654866695404053,-2.8274333477020264,2.8274333477020264,-5.654866695404053,5.654866695404053,-5.654866695404053,5.654866695404053,-5.654866695404053,5.654866695404053,2.094399929046631,2.094399929046631,3.1415998935699463,3.1415998935699463,3.1415998935699463,3.1415998935699463,2.094399929046631,2.094399929046631,3.1415998935699463,3.1415998935699463,3.1415998935699463,3.1415998935699463,0.7114448547363281,-0.14061491191387177,0.08775712549686432,-0.025381922721862793,-0.7310013771057129,0.6818555593490601,0.008105531334877014,NA,NA,NA,NA,NA,NA,NA,0.7083275318145752,-0.14767765998840332,0.07700291275978088,-3.262660541736295e-08,0.7464097142219543,-0.665486752986908,2.9089349595778913e-08
50,0.4,0,0,50,-0.4292488992214203,-1.0335025787353516,2.1004889011383057,-2.6126604080200195,-1.6128017902374268,-0.5032743811607361,0.0,-1.5700000524520874,1.5700000524520874,-1.5700000524520874,-1.5700000524520874,0.0,0.2645711898803711,0.5084202289581299,-0.22823557257652283,-1.056621789932251,0.17361007630825043,-0.4868326783180237,1.5016855001449585,0.7190482020378113,-1.3656456470489502,-1.0480389595031738,0.17617648839950562,-0.4868372976779938,-6.2831854820251465,6.2831854820251465,-6.2831854820251465,6.2831854820251465,-3.1415927410125732,3.1415927410125732,-6.2831854820251465,6.2831854820251465,-6.2831854820251465,6.2831854820251465,-6.2831854820251465,6.2831854820251465,-5.654866695404053,5.654866695404053,-5.654866695404053,5.654866695404053,-2.8274333477020264,2.8274333477020264,-5.654866695404053,5.654866695404053,-5.654866695404053,5.654866695404053,-5.654866695404053,5.654866695404053,2.094399929046631,2.094399929046631,3.1415998935699463,3.1415998935699463,3.1415998935699463,3.1415998935699463,2.094399929046631,2.094399929046631,3.1415998935699463,3.1415998935699463,3.1415998935699463,3.1415998935699463,0.7127560973167419,-0.14009417593479156,0.08711281418800354,-0.023878812789916992,-0.732748806476593,0.6800591349601746,0.005335569381713867,NA,NA,NA,NA,NA,NA,NA,0.7083275318145752,-0.14767765998840332,0.07700291275978088,-3.262660541736295e-08,0.7464097142219543,-0.665486752986908,2.9089349595778913e-08
51,0.40800000000000003,0,0,51,-0.43101662397384644,-1.03502357006073,2.103142499923706,-2.6089296340942383,-1.6136654615402222,-0.501905620098114,0.0,-1.5700000524520874,1.5700000524520874,-1.5700000524520874,-1.5700000524520874,0.0,-0.37845975160598755,-0.3183903992176056,0.4559860825538635,0.48396557569503784,-0.1514672189950943,0.17114989459514618,-0.9497811794281006,-1.3225247859954834,1.3392845392227173,0.4839649796485901,-0.15146730840206146,0.17114993929862976,-6.2831854820251465,6.2831854820251465,-6.2831854820251465,6.2831854820251465,-3.1415927410125732,3.1415927410125732,-6.2831854820251465,6.2831854820251465,-6.2831854820251465,6.2831854820251465,-6.2831854820251465,6.2831854820251465,-5.654866695404053,5.654866695404053,-5.654866695404053,5.654866695404053,-2.8274333477020264,2.8274333477020264,-5.654866695404053,5.654866695404053,-5.654866695404053,5.654866695404053,-5.654866695404053,5.654866695404053,2.094399929046631,2.094399929046631,3.1415998935699463,3.1415998935699463,3.1415998935699463,3.1415998935699463,2.094399929046631,2.094399929046631,3.1415998935699463,3.1415998935699463,3.1415998935699463,3.1415998935699463,0.7106936573982239,-0.14063042402267456,0.08671420067548752,-0.0250493586063385,-0.731689453125,0.6811362504959106,0.007513359189033508,NA,NA,NA,NA,NA,NA,NA,0.7083275318145752,-0.14767765998840332,0.07700291275978088,-3.262660541736295e-08,0.7464097142219543,-0.665486752986908,2.9089349595778913e-08
52,0.41600000000000004,0,0,52,-0.42974355816841125,-1.032178521156311,2.1022281646728516,-2.6169097423553467,-1.6123147010803223,-0.505887508392334,0.0,-1.5700000524520874,1.5700000524520874,-1.5700000524520874,-1.5700000524520874,0.0,0.26176899671554565,0.507722795009613,-0.2347269207239151,-1.015379786491394,0.21275363862514496,-0.4980141520500183,1.4705331325531006,1.1604551076889038,-1.6271049976348877,-1.0153793096542358,0.21275325119495392,-0.4980141818523407,-6.2831854820251465,6.2831854820251465,-6.2831854820251465,6.2831854820251465,-3.1415927410125732,3.1415927410125732,-6.2831854820251465,6.2831854820251465,-6.2831854820251465,6.2831854820251465,-6.2831854820251465,6.2831854820251465,-5.654866695404053,5.654866695404053,-5.654866695404053,5.654866695404053,-2.8274333477020264,2.8274333477020264,-5.654866695404053,5.654866695404053,-5.654866695404053,5.654866695404053,-5.654866695404053,5.654866695404053,2.094399929046631,2.094399929046631,3.1415998935699463,3.1415998935699463,3.1415998935699463,3.1415998935699463,2.094399929046631,2.094399929046631,3.1415998935699463,3.1415998935699463,3.1415998935699463,3.1415998935699463,0.7120773792266846,-0.14010508358478546,0.08599075675010681,-0.023454368114471436,-0.7334673404693604,0.6793023347854614,0.004885375499725342,NA,NA,NA,NA,NA,NA,NA,0.7083275318145752,-0.14767765998840332,0.07700291275978088,-3.262660541736295e-08,0.7464097142219543,-0.665486752986908,2.9089349595778913e-08
53,0.424,0,0,53,-0.4314383864402771,-1.0337319374084473,2.1047983169555664,-2.612964153289795,-1.6130958795547485,-0.5040113925933838,0.0,-1.5700000524520874,1.5700000524520874,-1.5700000524520874,-1.5700000524520874,0.0,-0.3803017735481262,-0.31882449984550476,0.4508056640625,0.5105479955673218,-0.14138449728488922,0.23471041023731232,-0.889543354511261,-1.4424437284469604,1.0885567665100098,0.5105478167533875,-0.14138491451740265,0.23471029102802277,-6.2831854820251465,6.2831854820251465,-6.2831854820251465,6.2831854820251465,-3.1415927410125732,3.1415927410125732,-6.2831854820251465,6.2831854820251465,-6.2831854820251465,6.2831854820251465,-6.2831854820251465,6.2831854820251465,-5.654866695404053,5.654866695404053,-5.654866695404053,5.654866695404053,-2.8274333477020264,2.8274333477020264,-5.654866695404053,5.654866695404053,-5.654866695404053,5.654866695404053,-5.654866695404053,5.654866695404053,2.094399929046631,2.094399929046631,3.1415998935699463,3.1415998935699463,3.1415998935699463,3.1415998935699463,2.094399929046631,2.094399929046631,3.1415998935699463,3.1415998935699463,3.1415998935699463,3.1415998935699463,0.7100563645362854,-0.14059105515480042,0.08562396466732025,-0.024599790573120117,-0.7322623133659363,0.6805410385131836,0.007117792963981628,NA,NA,NA,NA,NA,NA,NA,0.7083275318145752,-0.14767765998840332,0.07700291275978088,-3.262660541736295e-08,0.7464097142219543,-0.665486752986908,2.9089349595778913e-08
54,0.432,0,0,54,-0.43017396330833435,-1.0310219526290894,2.1039044857025146,-2.620723247528076,-1.6116944551467896,-0.5076132416725159,0.0,-1.5700000524520874,1.5700000524520874,-1.5700000524520874,-1.5700000524520874,0.0,0.26090800762176514,0.5078738331794739,-0.24035510420799255,-0.9870791435241699,0.21896547079086304,-0.4503832161426544,1.5179717540740967,1.0457391738891602,-1.839640498161316,-0.9870789647102356,0.21896560490131378,-0.45038318634033203,-6.2831854820251465,6.2831854820251465,-6.2831854820251465,6.2831854820251465,-3.1415927410125732,3.1415927410125732,-6.2831854820251465,6.2831854820251465,-6.2831854820251465,6.2831854820251465,-6.2831854820251465,6.2831854820251465,-5.654866695404053,5.654866695404053,-5.654866695404053,5.654866695404053,-2.8274333477020264,2.8274333477020264,-5.654866695404053,5.654866695404053,-5.654866695404053,5.654866695404053,-5.654866695404053,5.654866695404053,2.094399929046631,2.094399929046631,3.1415998935699463,3.1415998935699463,3.1415998935699463,3.1415998935699463,2.094399929046631,2.094399929046631,3.1415998935699463,3.1415998935699463,3.1415998935699463,3.1415998935699463,0.7114142775535583,-0.14005529880523682,0.08496320992708206,-0.023002147674560547,-0.7339068055152893,0.6788453459739685,0.004541382193565369,NA,NA,NA,NA,NA,NA,NA,0.7083275318145752,-0.14767765998840332,0.07700291275978088,-3.262660541736295e-08,0.7464097142219543,-0.665486752986908,2.9089349595778913e-08
55,0.44,0,0,55,-0.4317813515663147,-1.0325779914855957,2.106365203857422,-2.616644859313965,-1.6124886274337769,-0.5055845379829407,0.0,-1.5700000524520874,1.5700000524520874,-1.5700000524520874,-1.5700000524520874,0.0,-0.38151857256889343,-0.31875479221343994,0.44646814465522766,0.5271657109260559,-0.14307348430156708,0.2537122070789337,-0.8347466588020325,-1.5434377193450928,0.8622978329658508,0.5271657109260559,-0.14307329058647156,0.25371211767196655,-6.2831854820251465,6.2831854820251465,-6.2831854820251465,6.2831854820251465,-3.1415927410125732,3.1415927410125732,-6.2831854820251465,6.2831854820251465,-6.2831854820251465,6.2831854820251465,-6.2831854820251465,6.2831854820251465,-5.654866695404053,5.654866695404053,-5.654866695404053,5.654866695404053,-2.8274333477020264,2.8274333477020264,-5.654866695404053,5.654866695404053,-5.654866695404053,5.654866695404053,-5.654866695404053,5.654866695404053,2.094399929046631,2.094399929046631,3.1415998935699463,3.1415998935699463,3.1415998935699463,3.1415998935699463,2.094399929046631,2.094399929046631,3.1415998935699463,3.1415998935699463,3.1415998935699463,3.1415998935699463,0.7094529271125793,-0.14050090312957764,0.0846274271607399,-0.02415528893470764,-0.7326805591583252,0.680109977722168,0.006780073046684265,NA,NA,NA,NA,NA,NA,NA,0.7083275318145752,-0.14767765998840332,0.07700291275978088,-3.262660541736295e-08,0.7464097142219543,-0.665486752986908,2.9089349595778913e-08
56,0.448,0,0,56,-0.430530846118927,-1.030028223991394,2.10550856590271,-2.6241793632507324,-1.6111059188842773,-0.5089367628097534,0.0,-1.5700000524520874,1.5700000524520874,-1.5700000524520874,-1.5700000524520874,0.0,0.26046520471572876,0.508050262928009,-0.24610605835914612,-0.9588167071342468,0.21676310896873474,-0.4191761612892151,1.5576896667480469,0.9453584551811218,-2.0388991832733154,-0.9588167071342468,0.2167634665966034,-0.4191758334636688,-6.2831854820251465,6.2831854820251465,-6.2831854820251465,6.2831854820251465,-3.1415927410125732,3.1415927410125732,-6.2831854820251465,6.2831854820251465,-6.2831854820251465,6.2831854820251465,-6.2831854820251465,6.2831854820251465,-5.654866695404053,5.654866695404053,-5.654866695404053,5.654866695404053,-2.8274333477020264,2.8274333477020264,-5.654866695404053,5.654866695404053,-5.654866695404053,5.654866695404053,-5.654866695404053,5.654866695404053,2.094399929046631,2.094399929046631,3.1415998935699463,3.1415998935699463,3.1415998935699463,3.1415998935699463,2.094399929046631,2.094399929046631,3.1415998935699463,3.1415998935699463,3.1415998935699463,3.1415998935699463,0.7107736468315125,-0.13996250927448273,0.08404067158699036,-0.02258533239364624,-0.7342345714569092,0.6785067915916443,0.0042444318532943726,NA,NA,NA,NA,NA,NA,NA,0.7083275318145752,-0.14767765998840332,0.07700291275978088,-3.262660541736295e-08,0.7464097142219543,-0.665486752986908,2.9089349595778913e-08
57,0.456,0,0,57,-0.43205270171165466,-1.0315511226654053,2.1077942848205566,-2.6199936866760254,-1.6119381189346313,-0.5068431496620178,0.0,-1.5700000524520874,1.5700000524520874,-1.5700000524520874,-1.5700000524520874,0.0,-0.38264670968055725,-0.3185395896434784,0.4424610435962677,0.5399523973464966,-0.14783909916877747,0.2620049715042114,-0.7926682233810425,-1.6260205507278442,0.6531897783279419,0.5399521589279175,-0.1478390246629715,0.2620050013065338,-6.2831854820251465,6.2831854820251465,-6.2831854820251465,6.2831854820251465,-3.1415927410125732,3.1415927410125732,-6.2831854820251465,6.2831854820251465,-6.2831854820251465,6.2831854820251465,-6.2831854820251465,6.2831854820251465,-5.654866695404053,5.654866695404053,-5.654866695404053,5.654866695404053,-2.8274333477020264,2.8274333477020264,-5.654866695404053,5.654866695404053,-5.654866695404053,5.654866695404053,-5.654866695404053,5.654866695404053,2.094399929046631,2.094399929046631,3.1415998935699463,3.1415998935699463,3.1415998935699463,3.1415998935699463,2.094399929046631,2.094399929046631,3.1415998935699463,3.1415998935699463,3.1415998935699463,3.1415998935699463,0.7089076042175293,-0.14038905501365662,0.083738312125206,-0.023750007152557373,-0.7330158352851868,0.6797659993171692,0.0064598917961120605,NA,NA,NA,NA,NA,NA,NA,0.7083275318145752,-0.14767765998840332,0.07700291275978088,-3.262660541736295e-08,0.7464097142219543,-0.665486752986908,2.9089349595778913e-08
58,0.464,0,0,58,-0.4308244287967682,-1.0291844606399536,2.106990337371826,-2.627300977706909,-1.6105858087539673,-0.5100125074386597,0.0,-1.5700000524520874,1.5700000524520874,-1.5700000524520874,-1.5700000524520874,0.0,0.2599659860134125,0.5081279277801514,-0.2519280016422272,-0.9301728010177612,0.21295660734176636,-0.39634382724761963,1.5867255926132202,0.8584945797920227,-2.2168493270874023,-0.9301322102546692,0.21295861899852753,-0.39634382724761963,-6.2831854820251465,6.2831854820251465,-6.2831854820251465,6.2831854820251465,-3.1415927410125732,3.1415927410125732,-6.2831854820251465,6.2831854820251465,-6.2831854820251465,6.2831854820251465,-6.2831854820251465,6.2831854820251465,-5.654866695404053,5.654866695404053,-5.654866695404053,5.654866695404053,-2.8274333477020264,2.8274333477020264,-5.654866695404053,5.654866695404053,-5.654866695404053,5.654866695404053,-5.654866695404053,5.654866695404053,2.094399929046631,2.094399929046631,3.1415998935699463,3.1415998935699463,3.1415998935699463,3.1415998935699463,2.094399929046631,2.094399929046631,3.1415998935699463,3.1415998935699463,3.1415998935699463,3.1415998935699463,0.7101833820343018,-0.13985218107700348,0.08323484659194946,-0.022212207317352295,-0.734499454498291,0.6782340407371521,0.003962039947509766,NA,NA,NA,NA,NA,NA,NA,0.7083275318145752,-0.14767765998840332,0.07700291275978088,-3.262660541736295e-08,0.7464097142219543,-0.665486752986908,2.9089349595778913e-08
59,0.47200000000000003,0,0,59,-0.43223756551742554,-1.0305743217468262,2.1088552474975586,-2.6230053901672363,-1.611462116241455,-0.5078883767127991,0.0,-1.5700000524520874,1.5700000524520874,-1.5700000524520874,-1.5700000524520874,0.0,-0.3808768391609192,-0.3117205500602722,0.42216023802757263,0.547660231590271,-0.15245719254016876,0.2658117711544037,-0.760809600353241,-1.693021297454834,0.46716853976249695,0.5523613095283508,-0.15321305394172668,0.26581326127052307,-6.2831854820251465,6.2831854820251465,-6.2831854820251465,6.2831854820251465,-3.1415927410125732,3.1415927410125732,-6.2831854820251465,6.2831854820251465,-6.2831854820251465,6.2831854820251465,-6.2831854820251465,6.2831854820251465,-5.654866695404053,5.654866695404053,-5.654866695404053,5.654866695404053,-2.8274333477020264,2.8274333477020264,-5.654866695404053,5.654866695404053,-5.654866695404053,5.654866695404053,-5.654866695404053,5.654866695404053,2.094399929046631,2.094399929046631,3.1415998935699463,3.1415998935699463,3.1415998935699463,3.1415998935699463,2.094399929046631,2.094399929046631,3.1415998935699463,3.1415998935699463,3.1415998935699463,3.1415998935699463,0.7085453867912292,-0.14030379056930542,0.08299045264720917,-0.0233689546585083,-0.7333077192306519,0.6794677972793579,0.006085515022277832,NA,NA,NA,NA,NA,NA,NA,0.7083275318145752,-0.14767765998840332,0.07700291275978088,-3.262660541736295e-08,0.7464097142219543,-0.665486752986908,2.9089349595778913e-08
60,0.48,0,0,60,-0.4310375154018402,-1.0284504890441895,2.1080002784729004,-2.6297590732574463,-1.610068440437317,-0.5108441114425659,0.0,-1.5700000524520874,1.5700000524520874,-1.5700000524520874,-1.5700000524520874,0.0,0.2570812702178955,0.4843432605266571,-0.2601109445095062,-0.8733289241790771,0.2144227921962738,-0.36961883306503296,1.6003772020339966,0.764319896697998,-2.2781858444213867,-0.8615336418151855,0.21779419481754303,-0.3696252107620239,-6.2831854820251465,6.2831854820251465,-6.2831854820251465,6.2831854820251465,-3.1415927410125732,3.1415927410125732,-6.2831854820251465,6.2831854820251465,-6.2831854820251465,6.2831854820251465,-6.2831854820251465,6.2831854820251465,-5.654866695404053,5.654866695404053,-5.654866695404053,5.654866695404053,-2.8274333477020264,2.8274333477020264,-5.654866695404053,5.654866695404053,-5.654866695404053,5.654866695404053,-5.654866695404053,5.654866695404053,2.094399929046631,2.094399929046631,3.1415998935699463,3.1415998935699463,3.1415998935699463,3.1415998935699463,2.094399929046631,2.094399929046631,3.1415998935699463,3.1415998935699463,3.1415998935699463,3.1415998935699463,0.7098076939582825,-0.13977821171283722,0.08261328935623169,-0.021853923797607422,-0.7347090244293213,0.6780200004577637,0.0037142783403396606,NA,NA,NA,NA,NA,NA,NA,0.7083275318145752,-0.14767765998840332,0.07700291275978088,-3.262660541736295e-08,0.7464097142219543,-0.665486752986908,2.9089349595778913e-08
61,0.488,0,0,61,-0.43241724371910095,-1.0299166440963745,2.1095800399780273,-2.625206232070923,-1.611063003540039,-0.5087058544158936,0.0,-1.5700000524520874,1.5700000524520874,-1.5700000524520874,-1.5700000524520874,0.0,-0.3749604821205139,-0.3169475793838501,0.3707699179649353,0.5778104662895203,-0.16712650656700134,0.2673583924770355,-0.7557269930839539,-1.6567267179489136,0.40201297402381897,0.5810678601264954,-0.16765227913856506,0.2673591375350952,-6.2831854820251465,6.2831854820251465,-6.2831854820251465,6.2831854820251465,-3.1415927410125732,3.1415927410125732,-6.2831854820251465,6.2831854820251465,-6.2831854820251465,6.2831854820251465,-6.2831854820251465,6.2831854820251465,-5.654866695404053,5.654866695404053,-5.654866695404053,5.654866695404053,-2.8274333477020264,2.8274333477020264,-5.654866695404053,5.654866695404053,-5.654866695404053,5.654866695404053,-5.654866695404053,5.654866695404053,2.094399929046631,2.094399929046631,3.1415998935699463,3.1415998935699463,3.1415998935699463,3.1415998935699463,2.094399929046631,2.094399929046631,3.1415998935699463,3.1415998935699463,3.1415998935699463,3.1415998935699463,0.7083098292350769,-0.14028292894363403,0.08250372111797333,-0.02304968237876892,-0.7335238456726074,0.6792482137680054,0.005769878625869751,NA,NA,NA,NA,NA,NA,NA,0.7083275318145752,-0.14767765998840332,0.07700291275978088,-3.262660541736295e-08,0.7464097142219543,-0.665486752986908,2.9089349595778913e-08
62,0.496,0,0,62,-0.4311825633049011,-1.027801513671875,2.108210325241089,-2.6309573650360107,-1.60948646068573,-0.511526882648468,0.0,-1.5700000524520874,1.5700000524520874,-1.5700000524520874,-1.5700000524520874,0.0,0.2636531591415405,0.49010732769966125,-0.3303290009498596,-0.746681272983551,0.237620010972023,-0.35274970531463623,1.5830141305923462,0.778410017490387,-2.0913102626800537,-0.7344889640808105,0.2410857081413269,-0.3527563214302063,-6.2831854820251465,6.2831854820251465,-6.2831854820251465,6.2831854820251465,-3.1415927410125732,3.1415927410125732,-6.2831854820251465,6.2831854820251465,-6.2831854820251465,6.2831854820251465,-6.2831854820251465,6.2831854820251465,-5.654866695404053,5.654866695404053,-5.654866695404053,5.654866695404053,-2.8274333477020264,2.8274333477020264,-5.654866695404053,5.654866695404053,-5.654866695404053,5.654866695404053,-5.654866695404053,5.654866695404053,2.094399929046631,2.094399929046631,3.1415998935699463,3.1415998935699463,3.1415998935699463,3.1415998935699463,2.094399929046631,2.094399929046631,3.1415998935699463,3.1415998935699463,3.1415998935699463,3.1415998935699463,0.7097681760787964,-0.13979767262935638,0.08221355825662613,-0.021523326635360718,-0.7348926067352295,0.6778320074081421,0.0036518126726150513,NA,NA,NA,NA,NA,NA,NA,0.7083275318145752,-0.14767765998840332,0.07700291275978088,-3.262660541736295e-08,0.7464097142219543,-0.665486752986908,2.9089349595778913e-08
63,0.504,0,0,63,-0.43263328075408936,-1.0294820070266724,2.1099750995635986,-2.6259448528289795,-1.6106404066085815,-0.5092965364456177,0.0,-1.5700000524520874,1.5700000524520874,-1.5700000524520874,-1.5700000524520874,0.0,-0.3770996034145355,-0.3323928713798523,0.3694242238998413,0.6420480608940125,-0.188388854265213,0.2788616418838501,-0.7708669900894165,-1.7358014583587646,0.6452783942222595,0.6420475244522095,-0.18838855624198914,0.2788618206977844,-6.2831854820251465,6.2831854820251465,-6.2831854820251465,6.2831854820251465,-3.1415927410125732,3.1415927410125732,-6.2831854820251465,6.2831854820251465,-6.2831854820251465,6.2831854820251465,-6.2831854820251465,6.2831854820251465,-5.654866695404053,5.654866695404053,-5.654866695404053,5.654866695404053,-2.8274333477020264,2.8274333477020264,-5.654866695404053,5.654866695404053,-5.654866695404053,5.654866695404053,-5.654866695404053,5.654866695404053,2.094399929046631,2.094399929046631,3.1415998935699463,3.1415998935699463,3.1415998935699463,3.1415998935699463,2.094399929046631,2.094399929046631,3.1415998935699463,3.1415998935699463,3.1415998935699463,3.1415998935699463,0.7081175446510315,-0.14030694961547852,0.08213020861148834,-0.022860705852508545,-0.7336525321006775,0.679114580154419,0.005888119339942932,NA,NA,NA,NA,NA,NA,NA,0.7083275318145752,-0.14767765998840332,0.07700291275978088,-3.262660541736295e-08,0.7464097142219543,-0.665486752986908,2.9089349595778913e-08
64,0.512,0,0,64,-0.4313947856426239,-1.0274211168289185,2.108642339706421,-2.631920337677002,-1.6092032194137573,-0.5121150016784668,0.0,-1.5700000524520874,1.5700000524520874,-1.5700000524520874,-1.5700000524520874,0.0,0.2627212703227997,0.4859497845172882,-0.3263232707977295,-0.7755190134048462,0.22027485072612762,-0.3525489270687103,1.6228265762329102,0.7787616848945618,-2.152658700942993,-0.7631210088729858,0.22378823161125183,-0.3525557518005371,-6.2831854820251465,6.2831854820251465,-6.2831854820251465,6.2831854820251465,-3.1415927410125732,3.1415927410125732,-6.2831854820251465,6.2831854820251465,-6.2831854820251465,6.2831854820251465,-6.2831854820251465,6.2831854820251465,-5.654866695404053,5.654866695404053,-5.654866695404053,5.654866695404053,-2.8274333477020264,2.8274333477020264,-5.654866695404053,5.654866695404053,-5.654866695404053,5.654866695404053,-5.654866695404053,5.654866695404053,2.094399929046631,2.094399929046631,3.1415998935699463,3.1415998935699463,3.1415998935699463,3.1415998935699463,2.094399929046631,2.094399929046631,3.1415998935699463,3.1415998935699463,3.1415998935699463,3.1415998935699463,0.7095775008201599,-0.13983795046806335,0.0818910002708435,-0.02136412262916565,-0.7350205183029175,0.6776983737945557,0.0036326944828033447,NA,NA,NA,NA,NA,NA,NA,0.7083275318145752,-0.14767765998840332,0.07700291275978088,-3.262660541736295e-08,0.7464097142219543,-0.665486752986908,2.9089349595778913e-08
65,0.52,0,0,65,-0.43277648091316223,-1.029120922088623,2.1103405952453613,-2.6268181800842285,-1.6103211641311646,-0.5098115801811218,0.0,-1.5700000524520874,1.5700000524520874,-1.5700000524520874,-1.5700000524520874,0.0,-0.3795648217201233,-0.3386373817920685,0.3695656955242157,0.6539179086685181,-0.18381763994693756,0.2880121171474457,-0.7359488606452942,-1.7418187856674194,0.593591034412384,0.653908908367157,-0.1838325560092926,0.28801223635673523,-6.2831854820251465,6.2831854820251465,-6.2831854820251465,6.2831854820251465,-3.1415927410125732,3.1415927410125732,-6.2831854820251465,6.2831854820251465,-6.2831854820251465,6.2831854820251465,-6.2831854820251465,6.2831854820251465,-5.654866695404053,5.654866695404053,-5.654866695404053,5.654866695404053,-2.8274333477020264,2.8274333477020264,-5.654866695404053,5.654866695404053,-5.654866695404053,5.654866695404053,-5.654866695404053,5.654866695404053,2.094399929046631,2.094399929046631,3.1415998935699463,3.1415998935699463,3.1415998935699463,3.1415998935699463,2.094399929046631,2.094399929046631,3.1415998935699463,3.1415998935699463,3.1415998935699463,3.1415998935699463,0.7079684138298035,-0.1403076946735382,0.08183656632900238,-0.022684454917907715,-0.7337795495986938,0.6789833903312683,0.005875185132026672,NA,NA,NA,NA,NA,NA,NA,0.7083275318145752,-0.14767765998840332,0.07700291275978088,-3.262660541736295e-08,0.7464097142219543,-0.665486752986908,2.9089349595778913e-08
66,0.528,0,0,66,-0.43154364824295044,-1.027124047279358,2.109022617340088,-2.6327686309814453,-1.6089845895767212,-0.5125563740730286,0.0,-1.5700000524520874,1.5700000524520874,-1.5700000524520874,-1.5700000524520874,0.0,0.2607201039791107,0.4760916829109192,-0.32300853729248047,-0.7726954221725464,0.2075367420911789,-0.34325718879699707,1.6436420679092407,0.7665789723396301,-2.1987998485565186,-0.760378360748291,0.21101787686347961,-0.3432638645172119,-6.2831854820251465,6.2831854820251465,-6.2831854820251465,6.2831854820251465,-3.1415927410125732,3.1415927410125732,-6.2831854820251465,6.2831854820251465,-6.2831854820251465,6.2831854820251465,-6.2831854820251465,6.2831854820251465,-5.654866695404053,5.654866695404053,-5.654866695404053,5.654866695404053,-2.8274333477020264,2.8274333477020264,-5.654866695404053,5.654866695404053,-5.654866695404053,5.654866695404053,-5.654866695404053,5.654866695404053,2.094399929046631,2.094399929046631,3.1415998935699463,3.1415998935699463,3.1415998935699463,3.1415998935699463,2.094399929046631,2.094399929046631,3.1415998935699463,3.1415998935699463,3.1415998935699463,3.1415998935699463,0.7094168066978455,-0.13985107839107513,0.08163398504257202,-0.02123284339904785,-0.7351201176643372,0.6775948405265808,0.0035914182662963867,NA,NA,NA,NA,NA,NA,NA,0.7083275318145752,-0.14767765998840332,0.07700291275978088,-3.262660541736295e-08,0.7464097142219543,-0.665486752986908,2.9089349595778913e-08
67,0.536,0,0,67,-0.4328785538673401,-1.0288664102554321,2.1106719970703125,-2.627636432647705,-1.6101038455963135,-0.5102223753929138,0.0,-1.5700000524520874,1.5700000524520874,-1.5700000524520874,-1.5700000524520874,0.0,-0.38249850273132324,-0.348810613155365,0.37308067083358765,0.6577554941177368,-0.18351247906684875,0.2919995188713074,-0.7131858468055725,-1.7248202562332153,0.5453847646713257,0.6576653122901917,-0.18394465744495392,0.29199904203414917,-6.2831854820251465,6.2831854820251465,-6.2831854820251465,6.2831854820251465,-3.1415927410125732,3.1415927410125732,-6.2831854820251465,6.2831854820251465,-6.2831854820251465,6.2831854820251465,-6.2831854820251465,6.2831854820251465,-5.654866695404053,5.654866695404053,-5.654866695404053,5.654866695404053,-2.8274333477020264,2.8274333477020264,-5.654866695404053,5.654866695404053,-5.654866695404053,5.654866695404053,-5.654866695404053,5.654866695404053,2.094399929046631,2.094399929046631,3.1415998935699463,3.1415998935699463,3.1415998935699463,3.1415998935699463,2.094399929046631,2.094399929046631,3.1415998935699463,3.1415998935699463,3.1415998935699463,3.1415998935699463,0.7078428864479065,-0.14030085504055023,0.0816250592470169,-0.022543728351593018,-0.7338842749595642,0.6788753867149353,0.005804002285003662,NA,NA,NA,NA,NA,NA,NA,0.7083275318145752,-0.14767765998840332,0.07700291275978088,-3.262660541736295e-08,0.7464097142219543,-0.665486752986908,2.9089349595778913e-08
