booooza/IsaacLabUR10eSim2Real/analysis/debug_logs/reach/play_log_2.csv
step,sim_time,env_id,episode_id,episode_step,shoulder_pan_joint_pos,shoulder_lift_joint_pos,elbow_joint_pos,wrist_1_joint_pos,wrist_2_joint_pos,wrist_3_joint_pos,shoulder_pan_joint_pos_target,shoulder_lift_joint_pos_target,elbow_joint_pos_target,wrist_1_joint_pos_target,wrist_2_joint_pos_target,wrist_3_joint_pos_target,shoulder_pan_joint_vel,shoulder_lift_joint_vel,elbow_joint_vel,wrist_1_joint_vel,wrist_2_joint_vel,wrist_3_joint_vel,shoulder_pan_joint_vel_target,shoulder_lift_joint_vel_target,elbow_joint_vel_target,wrist_1_joint_vel_target,wrist_2_joint_vel_target,wrist_3_joint_vel_target,shoulder_pan_joint_pos_limit_lower,shoulder_pan_joint_pos_limit_upper,shoulder_lift_joint_pos_limit_lower,shoulder_lift_joint_pos_limit_upper,elbow_joint_pos_limit_lower,elbow_joint_pos_limit_upper,wrist_1_joint_pos_limit_lower,wrist_1_joint_pos_limit_upper,wrist_2_joint_pos_limit_lower,wrist_2_joint_pos_limit_upper,wrist_3_joint_pos_limit_lower,wrist_3_joint_pos_limit_upper,shoulder_pan_joint_soft_pos_limit_lower,shoulder_pan_joint_soft_pos_limit_upper,shoulder_lift_joint_soft_pos_limit_lower,shoulder_lift_joint_soft_pos_limit_upper,elbow_joint_soft_pos_limit_lower,elbow_joint_soft_pos_limit_upper,wrist_1_joint_soft_pos_limit_lower,wrist_1_joint_soft_pos_limit_upper,wrist_2_joint_soft_pos_limit_lower,wrist_2_joint_soft_pos_limit_upper,wrist_3_joint_soft_pos_limit_lower,wrist_3_joint_soft_pos_limit_upper,shoulder_pan_joint_vel_limit,shoulder_lift_joint_vel_limit,elbow_joint_vel_limit,wrist_1_joint_vel_limit,wrist_2_joint_vel_limit,wrist_3_joint_vel_limit,shoulder_pan_joint_soft_vel_limit,shoulder_lift_joint_soft_vel_limit,elbow_joint_soft_vel_limit,wrist_1_joint_soft_vel_limit,wrist_2_joint_soft_vel_limit,wrist_3_joint_soft_vel_limit,ee_frame_pos_x,ee_frame_pos_y,ee_frame_pos_z,ee_frame_rot_w,ee_frame_rot_x,ee_frame_rot_y,ee_frame_rot_z,object_pos_x,object_pos_y,object_pos_z,object_rot_w,object_rot_x,object_rot_y,object_rot_z,target_pos_x,target_pos_y,target_pos_z,target_rot_w,target_rot_x,target_rot_y,target_rot_z
1,0.008,0,0,1,-0.0019032711861655116,-1.569762110710144,1.575151801109314,-1.5948843955993652,-1.5947415828704834,0.025129225105047226,0.0,-1.5700000524520874,1.5700000524520874,-1.5700000524520874,-1.5700000524520874,0.0,-0.2928718030452728,0.059419579803943634,0.6322740316390991,-3.1415910720825195,-3.1415915489196777,3.1415910720825195,-2.094399929046631,2.094399929046631,3.141590118408203,-3.141590118408203,-3.141590118408203,3.141590118408203,-6.2831854820251465,6.2831854820251465,-6.2831854820251465,6.2831854820251465,-3.1415927410125732,3.1415927410125732,-6.2831854820251465,6.2831854820251465,-6.2831854820251465,6.2831854820251465,-6.2831854820251465,6.2831854820251465,-5.654866695404053,5.654866695404053,-5.654866695404053,5.654866695404053,-2.8274333477020264,2.8274333477020264,-5.654866695404053,5.654866695404053,-5.654866695404053,5.654866695404053,-5.654866695404053,5.654866695404053,2.094399929046631,2.094399929046631,3.1415998935699463,3.1415998935699463,3.1415998935699463,3.1415998935699463,2.094399929046631,2.094399929046631,3.1415998935699463,3.1415998935699463,3.1415998935699463,3.1415998935699463,0.6945077180862427,0.17003796994686127,0.6760638952255249,-0.0016796588897705078,-0.6973246932029724,0.716594398021698,-0.015096187591552734,NA,NA,NA,NA,NA,NA,NA,0.5127236843109131,0.16527187824249268,0.168507918715477,-1.0043902598511067e-08,0.22977770864963531,-0.9732431173324585,4.2541806521967374e-08
2,0.016,0,0,2,-0.007726261857897043,-1.5683375597000122,1.5814855098724365,-1.618797779083252,-1.6196255683898926,0.05026132985949516,0.0,-1.5700000524520874,1.5700000524520874,-1.5700000524520874,-1.5700000524520874,0.0,-0.8060102462768555,0.20591199398040771,0.7787836194038391,-2.981900930404663,-3.1415910720825195,3.141589879989624,-2.094399929046631,2.094399929046631,3.141590118408203,-2.981900691986084,-3.141590118408203,3.141590118408203,-6.2831854820251465,6.2831854820251465,-6.2831854820251465,6.2831854820251465,-3.1415927410125732,3.1415927410125732,-6.2831854820251465,6.2831854820251465,-6.2831854820251465,6.2831854820251465,-6.2831854820251465,6.2831854820251465,-5.654866695404053,5.654866695404053,-5.654866695404053,5.654866695404053,-2.8274333477020264,2.8274333477020264,-5.654866695404053,5.654866695404053,-5.654866695404053,5.654866695404053,-5.654866695404053,5.654866695404053,2.094399929046631,2.094399929046631,3.1415998935699463,3.1415998935699463,3.1415998935699463,3.1415998935699463,2.094399929046631,2.094399929046631,3.1415998935699463,3.1415998935699463,3.1415998935699463,3.1415998935699463,0.6981214880943298,0.163072407245636,0.6737195253372192,-0.004311054013669491,-0.685693085193634,0.7272727489471436,-0.029676109552383423,NA,NA,NA,NA,NA,NA,NA,0.5127236843109131,0.16527187824249268,0.168507918715477,-1.0043902598511067e-08,0.22977770864963531,-0.9732431173324585,4.2541806521967374e-08
3,0.024,0,0,3,-0.0172654427587986,-1.5655523538589478,1.5884954929351807,-1.6392325162887573,-1.644513487815857,0.07539346814155579,0.0,-1.5700000524520874,1.5700000524520874,-1.5700000524520874,-1.5700000524520874,0.0,-1.3138840198516846,0.3710741698741913,0.8681874871253967,-2.5306880474090576,-3.1415927410125732,3.1415910720825195,-2.094399929046631,2.094399929046631,3.141590118408203,-2.5306873321533203,-3.141590118408203,3.141590118408203,-6.2831854820251465,6.2831854820251465,-6.2831854820251465,6.2831854820251465,-3.1415927410125732,3.1415927410125732,-6.2831854820251465,6.2831854820251465,-6.2831854820251465,6.2831854820251465,-6.2831854820251465,6.2831854820251465,-5.654866695404053,5.654866695404053,-5.654866695404053,5.654866695404053,-2.8274333477020264,2.8274333477020264,-5.654866695404053,5.654866695404053,-5.654866695404053,5.654866695404053,-5.654866695404053,5.654866695404053,2.094399929046631,2.094399929046631,3.1415998935699463,3.1415998935699463,3.1415998935699463,3.1415998935699463,2.094399929046631,2.094399929046631,3.1415998935699463,3.1415998935699463,3.1415998935699463,3.1415998935699463,0.7023785710334778,0.15346278250217438,0.6696164011955261,-0.008750110864639282,-0.672349214553833,0.7389672994613647,-0.04239413142204285,NA,NA,NA,NA,NA,NA,NA,0.5127236843109131,0.16527187824249268,0.168507918715477,-1.0043902598511067e-08,0.22977770864963531,-0.9732431173324585,4.2541806521967374e-08
4,0.032,0,0,4,-0.0298827663064003,-1.561181902885437,1.5959174633026123,-1.6559715270996094,-1.6694176197052002,0.10052571445703506,0.0,-1.5700000524520874,1.5700000524520874,-1.5700000524520874,-1.5700000524520874,0.0,-1.7938830852508545,0.5526843070983887,0.9373363256454468,-2.067257881164551,-3.121211051940918,3.141547441482544,-2.094399929046631,2.094399929046631,3.141590118408203,-2.0683765411376953,-3.141590118408203,3.141590118408203,-6.2831854820251465,6.2831854820251465,-6.2831854820251465,6.2831854820251465,-3.1415927410125732,3.1415927410125732,-6.2831854820251465,6.2831854820251465,-6.2831854820251465,6.2831854820251465,-6.2831854820251465,6.2831854820251465,-5.654866695404053,5.654866695404053,-5.654866695404053,5.654866695404053,-2.8274333477020264,2.8274333477020264,-5.654866695404053,5.654866695404053,-5.654866695404053,5.654866695404053,-5.654866695404053,5.654866695404053,2.094399929046631,2.094399929046631,3.1415998935699463,3.1415998935699463,3.1415998935699463,3.1415998935699463,2.094399929046631,2.094399929046631,3.1415998935699463,3.1415998935699463,3.1415998935699463,3.1415998935699463,0.7071878910064697,0.14160805940628052,0.6637285351753235,-0.015163421630859375,-0.6575853228569031,0.7513448596000671,-0.05322062969207764,NA,NA,NA,NA,NA,NA,NA,0.5127236843109131,0.16527187824249268,0.168507918715477,-1.0043902598511067e-08,0.22977770864963531,-0.9732431173324585,4.2541806521967374e-08
5,0.04,0,0,5,-0.04477737843990326,-1.554948329925537,1.603427529335022,-1.6688058376312256,-1.6944677829742432,0.1256583333015442,0.0,-1.5700000524520874,1.5700000524520874,-1.5700000524520874,-1.5700000524520874,0.0,-1.9502251148223877,0.8269826173782349,0.9077703356742859,-1.57754647731781,-3.131865978240967,3.1415693759918213,-2.094399929046631,2.094399929046631,3.141590118408203,-1.5782737731933594,-3.141590118408203,3.141590118408203,-6.2831854820251465,6.2831854820251465,-6.2831854820251465,6.2831854820251465,-3.1415927410125732,3.1415927410125732,-6.2831854820251465,6.2831854820251465,-6.2831854820251465,6.2831854820251465,-6.2831854820251465,6.2831854820251465,-5.654866695404053,5.654866695404053,-5.654866695404053,5.654866695404053,-2.8274333477020264,2.8274333477020264,-5.654866695404053,5.654866695404053,-5.654866695404053,5.654866695404053,-5.654866695404053,5.654866695404053,2.094399929046631,2.094399929046631,3.1415998935699463,3.1415998935699463,3.1415998935699463,3.1415998935699463,2.094399929046631,2.094399929046631,3.1415998935699463,3.1415998935699463,3.1415998935699463,3.1415998935699463,0.7124617695808411,0.12800975143909454,0.6560412645339966,-0.023712575435638428,-0.6417571902275085,0.7640159130096436,-0.06216876208782196,NA,NA,NA,NA,NA,NA,NA,0.5127236843109131,0.16527187824249268,0.168507918715477,-1.0043902598511067e-08,0.22977770864963531,-0.9732431173324585,4.2541806521967374e-08
6,0.048,0,0,6,-0.06056802347302437,-1.54652738571167,1.6106529235839844,-1.677809238433838,-1.7160048484802246,0.1507909595966339,0.0,-1.5700000524520874,1.5700000524520874,-1.5700000524520874,-1.5700000524520874,0.0,-2.0086891651153564,1.132245421409607,0.8417428731918335,-1.0975099802017212,-2.684666633605957,3.141580820083618,-2.094399929046631,2.094399929046631,3.141590118408203,-1.0980561971664429,-2.690401792526245,3.141590118408203,-6.2831854820251465,6.2831854820251465,-6.2831854820251465,6.2831854820251465,-3.1415927410125732,3.1415927410125732,-6.2831854820251465,6.2831854820251465,-6.2831854820251465,6.2831854820251465,-6.2831854820251465,6.2831854820251465,-5.654866695404053,5.654866695404053,-5.654866695404053,5.654866695404053,-2.8274333477020264,2.8274333477020264,-5.654866695404053,5.654866695404053,-5.654866695404053,5.654866695404053,-5.654866695404053,5.654866695404053,2.094399929046631,2.094399929046631,3.1415998935699463,3.1415998935699463,3.1415998935699463,3.1415998935699463,2.094399929046631,2.094399929046631,3.1415998935699463,3.1415998935699463,3.1415998935699463,3.1415998935699463,0.7181463837623596,0.114024318754673,0.6465147137641907,-0.0331287682056427,-0.625564694404602,0.7764996290206909,-0.06796714663505554,NA,NA,NA,NA,NA,NA,NA,0.5127236843109131,0.16527187824249268,0.168507918715477,-1.0043902598511067e-08,0.22977770864963531,-0.9732431173324585,4.2541806521967374e-08
7,0.056,0,0,7,-0.07665844261646271,-1.535860538482666,1.6175204515457153,-1.683306097984314,-1.733831524848938,0.17592374980449677,0.0,-1.5700000524520874,1.5700000524520874,-1.5700000524520874,-1.5700000524520874,0.0,-2.021125555038452,1.4531984329223633,0.7596602439880371,-0.6589805483818054,-2.218592643737793,3.141580820083618,-2.094399929046631,2.094399929046631,3.141590118408203,-0.6595298051834106,-2.223449468612671,3.141590118408203,-6.2831854820251465,6.2831854820251465,-6.2831854820251465,6.2831854820251465,-3.1415927410125732,3.1415927410125732,-6.2831854820251465,6.2831854820251465,-6.2831854820251465,6.2831854820251465,-6.2831854820251465,6.2831854820251465,-5.654866695404053,5.654866695404053,-5.654866695404053,5.654866695404053,-2.8274333477020264,2.8274333477020264,-5.654866695404053,5.654866695404053,-5.654866695404053,5.654866695404053,-5.654866695404053,5.654866695404053,2.094399929046631,2.094399929046631,3.1415998935699463,3.1415998935699463,3.1415998935699463,3.1415998935699463,2.094399929046631,2.094399929046631,3.1415998935699463,3.1415998935699463,3.1415998935699463,3.1415998935699463,0.7241764068603516,0.10006649047136307,0.6351523399353027,-0.04324745386838913,-0.6093124151229858,0.7885892391204834,-0.07067398726940155,NA,NA,NA,NA,NA,NA,NA,0.5127236843109131,0.16527187824249268,0.168507918715477,-1.0043902598511067e-08,0.22977770864963531,-0.9732431173324585,4.2541806521967374e-08
8,0.064,0,0,8,-0.09287722408771515,-1.5231947898864746,1.6242518424987793,-1.6857171058654785,-1.7482858896255493,0.20105688273906708,0.0,-1.5700000524520874,1.5700000524520874,-1.5700000524520874,-1.5700000524520874,0.0,-2.01253604888916,1.7659666538238525,0.683830738067627,-0.26278752088546753,-1.8015393018722534,3.1415905952453613,-2.094399929046631,2.094399929046631,3.141590118408203,-0.2732789218425751,-1.8011291027069092,3.141590118408203,-6.2831854820251465,6.2831854820251465,-6.2831854820251465,6.2831854820251465,-3.1415927410125732,3.1415927410125732,-6.2831854820251465,6.2831854820251465,-6.2831854820251465,6.2831854820251465,-6.2831854820251465,6.2831854820251465,-5.654866695404053,5.654866695404053,-5.654866695404053,5.654866695404053,-2.8274333477020264,2.8274333477020264,-5.654866695404053,5.654866695404053,-5.654866695404053,5.654866695404053,-5.654866695404053,5.654866695404053,2.094399929046631,2.094399929046631,3.1415998935699463,3.1415998935699463,3.1415998935699463,3.1415998935699463,2.094399929046631,2.094399929046631,3.1415998935699463,3.1415998935699463,3.1415998935699463,3.1415998935699463,0.7303602695465088,0.08620745688676834,0.6219981908798218,-0.05404943227767944,-0.5930840373039246,0.8002181649208069,-0.0705755352973938,NA,NA,NA,NA,NA,NA,NA,0.5127236843109131,0.16527187824249268,0.168507918715477,-1.0043902598511067e-08,0.22977770864963531,-0.9732431173324585,4.2541806521967374e-08
9,0.07200000000000001,0,0,9,-0.10920550674200058,-1.5088669061660767,1.6311566829681396,-1.6855801343917847,-1.759268879890442,0.2261900007724762,0.0,-1.5700000524520874,1.5700000524520874,-1.5700000524520874,-1.5700000524520874,0.0,-2.038576126098633,1.896554946899414,0.7757124304771423,0.05710568279027939,-1.3693184852600098,3.141589403152466,-2.094399929046631,2.094399929046631,3.141590118408203,0.05079402029514313,-1.3694806098937988,3.141590118408203,-6.2831854820251465,6.2831854820251465,-6.2831854820251465,6.2831854820251465,-3.1415927410125732,3.1415927410125732,-6.2831854820251465,6.2831854820251465,-6.2831854820251465,6.2831854820251465,-6.2831854820251465,6.2831854820251465,-5.654866695404053,5.654866695404053,-5.654866695404053,5.654866695404053,-2.8274333477020264,2.8274333477020264,-5.654866695404053,5.654866695404053,-5.654866695404053,5.654866695404053,-5.654866695404053,5.654866695404053,2.094399929046631,2.094399929046631,3.1415998935699463,3.1415998935699463,3.1415998935699463,3.1415998935699463,2.094399929046631,2.094399929046631,3.1415998935699463,3.1415998935699463,3.1415998935699463,3.1415998935699463,0.7364750504493713,0.07247771322727203,0.6071219444274902,-0.06532463431358337,-0.5768765211105347,0.8113847970962524,-0.06782844662666321,NA,NA,NA,NA,NA,NA,NA,0.5127236843109131,0.16527187824249268,0.168507918715477,-1.0043902598511067e-08,0.22977770864963531,-0.9732431173324585,4.2541806521967374e-08
10,0.08,0,0,10,-0.12573698163032532,-1.4938199520111084,1.639194369316101,-1.684051513671875,-1.7665975093841553,0.2513231039047241,0.0,-1.5700000524520874,1.5700000524520874,-1.5700000524520874,-1.5700000524520874,0.0,-2.0613231658935547,1.9542951583862305,0.9474012851715088,0.2306498885154724,-0.9125308394432068,3.1415915489196777,-2.094399929046631,2.094399929046631,3.141590118408203,0.22625987231731415,-0.9122287034988403,3.141590118408203,-6.2831854820251465,6.2831854820251465,-6.2831854820251465,6.2831854820251465,-3.1415927410125732,3.1415927410125732,-6.2831854820251465,6.2831854820251465,-6.2831854820251465,6.2831854820251465,-6.2831854820251465,6.2831854820251465,-5.654866695404053,5.654866695404053,-5.654866695404053,5.654866695404053,-2.8274333477020264,2.8274333477020264,-5.654866695404053,5.654866695404053,-5.654866695404053,5.654866695404053,-5.654866695404053,5.654866695404053,2.094399929046631,2.094399929046631,3.1415998935699463,3.1415998935699463,3.1415998935699463,3.1415998935699463,2.094399929046631,2.094399929046631,3.1415998935699463,3.1415998935699463,3.1415998935699463,3.1415998935699463,0.741997480392456,0.0588892363011837,0.5906763672828674,-0.07662171125411987,-0.5605900287628174,0.8221507668495178,-0.06273746490478516,NA,NA,NA,NA,NA,NA,NA,0.5127236843109131,0.16527187824249268,0.168507918715477,-1.0043902598511067e-08,0.22977770864963531,-0.9732431173324585,4.2541806521967374e-08
11,0.088,0,0,11,-0.14238093793392181,-1.4784363508224487,1.6488932371139526,-1.6827548742294312,-1.7704105377197266,0.27645620703697205,0.0,-1.5700000524520874,1.5700000524520874,-1.5700000524520874,-1.5700000524520874,0.0,-2.0729329586029053,1.9811290502548218,1.1704901456832886,0.20014800131320953,-0.4727974832057953,3.1415915489196777,-2.094399929046631,2.094399929046631,3.141590118408203,0.19665230810642242,-0.4722236394882202,3.141590118408203,-6.2831854820251465,6.2831854820251465,-6.2831854820251465,6.2831854820251465,-3.1415927410125732,3.1415927410125732,-6.2831854820251465,6.2831854820251465,-6.2831854820251465,6.2831854820251465,-6.2831854820251465,6.2831854820251465,-5.654866695404053,5.654866695404053,-5.654866695404053,5.654866695404053,-2.8274333477020264,2.8274333477020264,-5.654866695404053,5.654866695404053,-5.654866695404053,5.654866695404053,-5.654866695404053,5.654866695404053,2.094399929046631,2.094399929046631,3.1415998935699463,3.1415998935699463,3.1415998935699463,3.1415998935699463,2.094399929046631,2.094399929046631,3.1415998935699463,3.1415998935699463,3.1415998935699463,3.1415998935699463,0.7467591166496277,0.045534778386354446,0.5727874040603638,-0.0874597430229187,-0.5441586375236511,0.8325410485267639,-0.05583459138870239,NA,NA,NA,NA,NA,NA,NA,0.5127236843109131,0.16527187824249268,0.168507918715477,-1.0043902598511067e-08,0.22977770864963531,-0.9732431173324585,4.2541806521967374e-08
12,0.096,0,0,12,-0.15747706592082977,-1.4625918865203857,1.660202980041504,-1.6829290390014648,-1.7705178260803223,0.3015892803668976,0.0,-1.5700000524520874,1.5700000524520874,-1.5700000524520874,-1.5700000524520874,0.0,-1.7307208776474,2.0461950302124023,1.3601267337799072,0.015863236039876938,-0.00048656563740223646,3.141598701477051,-1.5137242078781128,2.094399929046631,3.141590118408203,0.016578055918216705,0.013831434771418571,3.141590118408203,-6.2831854820251465,6.2831854820251465,-6.2831854820251465,6.2831854820251465,-3.1415927410125732,3.1415927410125732,-6.2831854820251465,6.2831854820251465,-6.2831854820251465,6.2831854820251465,-6.2831854820251465,6.2831854820251465,-5.654866695404053,5.654866695404053,-5.654866695404053,5.654866695404053,-2.8274333477020264,2.8274333477020264,-5.654866695404053,5.654866695404053,-5.654866695404053,5.654866695404053,-5.654866695404053,5.654866695404053,2.094399929046631,2.094399929046631,3.1415998935699463,3.1415998935699463,3.1415998935699463,3.1415998935699463,2.094399929046631,2.094399929046631,3.1415998935699463,3.1415998935699463,3.1415998935699463,3.1415998935699463,0.7508289217948914,0.03369365632534027,0.5535570979118347,-0.09732496738433838,-0.5281885266304016,0.8421926498413086,-0.04749889671802521,NA,NA,NA,NA,NA,NA,NA,0.5127236843109131,0.16527187824249268,0.168507918715477,-1.0043902598511067e-08,0.22977770864963531,-0.9732431173324585,4.2541806521967374e-08
13,0.10400000000000001,0,0,13,-0.16847440600395203,-1.447364330291748,1.6740375757217407,-1.6854914426803589,-1.7679331302642822,0.3267223536968231,0.0,-1.5700000524520874,1.5700000524520874,-1.5700000524520874,-1.5700000524520874,0.0,-1.3179181814193726,1.8375808000564575,1.7965506315231323,-0.27567794919013977,0.3556026518344879,3.141585111618042,0.04139060527086258,1.7190148830413818,3.141590118408203,-0.2722361981868744,0.3536747395992279,3.141590118408203,-6.2831854820251465,6.2831854820251465,-6.2831854820251465,6.2831854820251465,-3.1415927410125732,3.1415927410125732,-6.2831854820251465,6.2831854820251465,-6.2831854820251465,6.2831854820251465,-6.2831854820251465,6.2831854820251465,-5.654866695404053,5.654866695404053,-5.654866695404053,5.654866695404053,-2.8274333477020264,2.8274333477020264,-5.654866695404053,5.654866695404053,-5.654866695404053,5.654866695404053,-5.654866695404053,5.654866695404053,2.094399929046631,2.094399929046631,3.1415998935699463,3.1415998935699463,3.1415998935699463,3.1415998935699463,2.094399929046631,2.094399929046631,3.1415998935699463,3.1415998935699463,3.1415998935699463,3.1415998935699463,0.753606915473938,0.02531704679131508,0.5333202481269836,-0.10613435506820679,-0.5136924386024475,0.8505086898803711,-0.038608551025390625,NA,NA,NA,NA,NA,NA,NA,0.5127236843109131,0.16527187824249268,0.168507918715477,-1.0043902598511067e-08,0.22977770864963531,-0.9732431173324585,4.2541806521967374e-08
14,0.112,0,0,14,-0.17652836441993713,-1.4358175992965698,1.6933683156967163,-1.6926931142807007,-1.7633675336837769,0.35185542702674866,0.0,-1.5700000524520874,1.5700000524520874,-1.5700000524520874,-1.5700000524520874,0.0,-0.9868493676185608,1.3403911590576172,2.524885892868042,-0.8468343615531921,0.595270037651062,3.1415905952453613,1.2933212518692017,0.3991067111492157,3.141590118408203,-0.8468355536460876,0.5952697992324829,3.141590118408203,-6.2831854820251465,6.2831854820251465,-6.2831854820251465,6.2831854820251465,-3.1415927410125732,3.1415927410125732,-6.2831854820251465,6.2831854820251465,-6.2831854820251465,6.2831854820251465,-6.2831854820251465,6.2831854820251465,-5.654866695404053,5.654866695404053,-5.654866695404053,5.654866695404053,-2.8274333477020264,2.8274333477020264,-5.654866695404053,5.654866695404053,-5.654866695404053,5.654866695404053,-5.654866695404053,5.654866695404053,2.094399929046631,2.094399929046631,3.1415998935699463,3.1415998935699463,3.1415998935699463,3.1415998935699463,2.094399929046631,2.094399929046631,3.1415998935699463,3.1415998935699463,3.1415998935699463,3.1415998935699463,0.7536172866821289,0.01980733871459961,0.5126928687095642,-0.11331945657730103,-0.5001316666603088,0.8579729795455933,-0.030157431960105896,NA,NA,NA,NA,NA,NA,NA,0.5127236843109131,0.16527187824249268,0.168507918715477,-1.0043902598511067e-08,0.22977770864963531,-0.9732431173324585,4.2541806521967374e-08
15,0.12,0,0,15,-0.18176409602165222,-1.4277433156967163,1.7173365354537964,-1.7064491510391235,-1.75743567943573,0.3769884407520294,0.0,-1.5700000524520874,1.5700000524520874,-1.5700000524520874,-1.5700000524520874,0.0,-0.6408088803291321,0.9168376326560974,3.1091010570526123,-1.6901171207427979,0.765539824962616,3.1415903568267822,2.094399929046631,-0.36294201016426086,3.141590118408203,-1.6851695775985718,0.7654215097427368,3.141590118408203,-6.2831854820251465,6.2831854820251465,-6.2831854820251465,6.2831854820251465,-3.1415927410125732,3.1415927410125732,-6.2831854820251465,6.2831854820251465,-6.2831854820251465,6.2831854820251465,-6.2831854820251465,6.2831854820251465,-5.654866695404053,5.654866695404053,-5.654866695404053,5.654866695404053,-2.8274333477020264,2.8274333477020264,-5.654866695404053,5.654866695404053,-5.654866695404053,5.654866695404053,-5.654866695404053,5.654866695404053,2.094399929046631,2.094399929046631,3.1415998935699463,3.1415998935699463,3.1415998935699463,3.1415998935699463,2.094399929046631,2.094399929046631,3.1415998935699463,3.1415998935699463,3.1415998935699463,3.1415998935699463,0.7514191269874573,0.016972782090306282,0.49237939715385437,-0.11813502013683319,-0.48743170499801636,0.8648219108581543,-0.023183271288871765,NA,NA,NA,NA,NA,NA,NA,0.5127236843109131,0.16527187824249268,0.168507918715477,-1.0043902598511067e-08,0.22977770864963531,-0.9732431173324585,4.2541806521967374e-08
16,0.128,0,0,16,-0.18384434282779694,-1.4216760396957397,1.7424918413162231,-1.7254281044006348,-1.750744342803955,0.40212148427963257,0.0,-1.5700000524520874,1.5700000524520874,-1.5700000524520874,-1.5700000524520874,0.0,-0.2226288616657257,0.720745325088501,3.141599178314209,-2.3816685676574707,0.8610532283782959,3.1415910720825195,2.094399929046631,-0.8877444267272949,3.141590118408203,-2.3816683292388916,0.8610533475875854,3.141590118408203,-6.2831854820251465,6.2831854820251465,-6.2831854820251465,6.2831854820251465,-3.1415927410125732,3.1415927410125732,-6.2831854820251465,6.2831854820251465,-6.2831854820251465,6.2831854820251465,-6.2831854820251465,6.2831854820251465,-5.654866695404053,5.654866695404053,-5.654866695404053,5.654866695404053,-2.8274333477020264,2.8274333477020264,-5.654866695404053,5.654866695404053,-5.654866695404053,5.654866695404053,-5.654866695404053,5.654866695404053,2.094399929046631,2.094399929046631,3.1415998935699463,3.1415998935699463,3.1415998935699463,3.1415998935699463,2.094399929046631,2.094399929046631,3.1415998935699463,3.1415998935699463,3.1415998935699463,3.1415998935699463,0.7483232021331787,0.01677180640399456,0.47345319390296936,-0.12051141262054443,-0.47579073905944824,0.8710753917694092,-0.018100202083587646,NA,NA,NA,NA,NA,NA,NA,0.5127236843109131,0.16527187824249268,0.168507918715477,-1.0043902598511067e-08,0.22977770864963531,-0.9732431173324585,4.2541806521967374e-08
17,0.136,0,0,17,-0.18271467089653015,-1.4173628091812134,1.7676352262496948,-1.7454675436019897,-1.7429044246673584,0.4272545874118805,0.0,-1.5700000524520874,1.5700000524520874,-1.5700000524520874,-1.5700000524520874,0.0,0.1889479011297226,0.5064517855644226,3.1415982246398926,-2.505086898803711,1.0052390098571777,3.1415891647338867,2.094399929046631,-1.3294909000396729,3.141590118408203,-2.505087375640869,1.0052387714385986,3.141590118408203,-6.2831854820251465,6.2831854820251465,-6.2831854820251465,6.2831854820251465,-3.1415927410125732,3.1415927410125732,-6.2831854820251465,6.2831854820251465,-6.2831854820251465,6.2831854820251465,-6.2831854820251465,6.2831854820251465,-5.654866695404053,5.654866695404053,-5.654866695404053,5.654866695404053,-2.8274333477020264,2.8274333477020264,-5.654866695404053,5.654866695404053,-5.654866695404053,5.654866695404053,-5.654866695404053,5.654866695404053,2.094399929046631,2.094399929046631,3.1415998935699463,3.1415998935699463,3.1415998935699463,3.1415998935699463,2.094399929046631,2.094399929046631,3.1415998935699463,3.1415998935699463,3.1415998935699463,3.1415998935699463,0.7443224787712097,0.019267480820417404,0.4560724198818207,-0.12155288457870483,-0.4653462767601013,0.8766357898712158,-0.01369224488735199,NA,NA,NA,NA,NA,NA,NA,0.5127236843109131,0.16527187824249268,0.168507918715477,-1.0043902598511067e-08,0.22977770864963531,-0.9732431173324585,4.2541806521967374e-08
18,0.14400000000000002,0,0,18,-0.17824919521808624,-1.4147948026657104,1.7927693128585815,-1.7674005031585693,-1.735227108001709,0.4523876905441284,0.0,-1.5700000524520874,1.5700000524520874,-1.5700000524520874,-1.5700000524520874,0.0,0.6213358640670776,0.290427565574646,3.1396970748901367,-2.7465713024139404,0.9838063716888428,3.141589403152466,2.094399929046631,-1.5889431238174438,3.141590118408203,-2.7462880611419678,0.9837954640388489,3.141590118408203,-6.2831854820251465,6.2831854820251465,-6.2831854820251465,6.2831854820251465,-3.1415927410125732,3.1415927410125732,-6.2831854820251465,6.2831854820251465,-6.2831854820251465,6.2831854820251465,-6.2831854820251465,6.2831854820251465,-5.654866695404053,5.654866695404053,-5.654866695404053,5.654866695404053,-2.8274333477020264,2.8274333477020264,-5.654866695404053,5.654866695404053,-5.654866695404053,5.654866695404053,-5.654866695404053,5.654866695404053,2.094399929046631,2.094399929046631,3.1415998935699463,3.1415998935699463,3.1415998935699463,3.1415998935699463,2.094399929046631,2.094399929046631,3.1415998935699463,3.1415998935699463,3.1415998935699463,3.1415998935699463,0.7395772337913513,0.0243255402892828,0.4403253495693207,-0.12132835388183594,-0.4562033414840698,0.8815007209777832,-0.010689616203308105,NA,NA,NA,NA,NA,NA,NA,0.5127236843109131,0.16527187824249268,0.168507918715477,-1.0043902598511067e-08,0.22977770864963531,-0.9732431173324585,4.2541806521967374e-08
19,0.152,0,0,19,-0.1703731119632721,-1.4139755964279175,1.8178523778915405,-1.7911185026168823,-1.7287439107894897,0.47752082347869873,0.0,-1.5700000524520874,1.5700000524520874,-1.5700000524520874,-1.5700000524520874,0.0,1.073360800743103,0.06933064758777618,3.1329593658447266,-2.971559762954712,0.8342261910438538,3.141592025756836,2.094399929046631,-1.591539978981018,3.141590118408203,-2.970285177230835,0.8341719508171082,3.141590118408203,-6.2831854820251465,6.2831854820251465,-6.2831854820251465,6.2831854820251465,-3.1415927410125732,3.1415927410125732,-6.2831854820251465,6.2831854820251465,-6.2831854820251465,6.2831854820251465,-6.2831854820251465,6.2831854820251465,-5.654866695404053,5.654866695404053,-5.654866695404053,5.654866695404053,-2.8274333477020264,2.8274333477020264,-5.654866695404053,5.654866695404053,-5.654866695404053,5.654866695404053,-5.654866695404053,5.654866695404053,2.094399929046631,2.094399929046631,3.1415998935699463,3.1415998935699463,3.1415998935699463,3.1415998935699463,2.094399929046631,2.094399929046631,3.1415998935699463,3.1415998935699463,3.1415998935699463,3.1415998935699463,0.7341064810752869,0.03181028366088867,0.426228404045105,-0.12012439966201782,-0.4484666585922241,0.8856402635574341,-0.00943291187286377,NA,NA,NA,NA,NA,NA,NA,0.5127236843109131,0.16527187824249268,0.168507918715477,-1.0043902598511067e-08,0.22977770864963531,-0.9732431173324585,4.2541806521967374e-08
20,0.16,0,0,20,-0.15923364460468292,-1.4149131774902344,1.8429079055786133,-1.816187858581543,-1.7242813110351562,0.5026537775993347,0.0,-1.5700000524520874,1.5700000524520874,-1.5700000524520874,-1.5700000524520874,0.0,1.5464260578155518,-0.15703126788139343,3.1199769973754883,-3.1415843963623047,0.5813817381858826,3.141589641571045,2.0544610023498535,-1.3326791524887085,3.141590118408203,-3.141590118408203,0.5812296867370605,3.141590118408203,-6.2831854820251465,6.2831854820251465,-6.2831854820251465,6.2831854820251465,-3.1415927410125732,3.1415927410125732,-6.2831854820251465,6.2831854820251465,-6.2831854820251465,6.2831854820251465,-6.2831854820251465,6.2831854820251465,-5.654866695404053,5.654866695404053,-5.654866695404053,5.654866695404053,-2.8274333477020264,2.8274333477020264,-5.654866695404053,5.654866695404053,-5.654866695404053,5.654866695404053,-5.654866695404053,5.654866695404053,2.094399929046631,2.094399929046631,3.1415998935699463,3.1415998935699463,3.1415998935699463,3.1415998935699463,2.094399929046631,2.094399929046631,3.1415998935699463,3.1415998935699463,3.1415998935699463,3.1415998935699463,0.7278410196304321,0.041448310017585754,0.4137217104434967,-0.11828647553920746,-0.4421381950378418,0.8890561461448669,-0.01006452739238739,NA,NA,NA,NA,NA,NA,NA,0.5127236843109131,0.16527187824249268,0.168507918715477,-1.0043902598511067e-08,0.22977770864963531,-0.9732431173324585,4.2541806521967374e-08
21,0.168,0,0,21,-0.14912839233875275,-1.4176218509674072,1.8680462837219238,-1.8410873413085938,-1.7218457460403442,0.5277850031852722,0.0,-1.5700000524520874,1.5700000524520874,-1.5700000524520874,-1.5700000524520874,0.0,1.0459771156311035,-0.49432629346847534,3.141601800918579,-3.103459596633911,0.28463214635849,3.141601085662842,0.7644383907318115,-0.8079149127006531,3.141590118408203,-3.141590118408203,0.2655501365661621,3.141590118408203,-6.2831854820251465,6.2831854820251465,-6.2831854820251465,6.2831854820251465,-3.1415927410125732,3.1415927410125732,-6.2831854820251465,6.2831854820251465,-6.2831854820251465,6.2831854820251465,-6.2831854820251465,6.2831854820251465,-5.654866695404053,5.654866695404053,-5.654866695404053,5.654866695404053,-2.8274333477020264,2.8274333477020264,-5.654866695404053,5.654866695404053,-5.654866695404053,5.654866695404053,-5.654866695404053,5.654866695404053,2.094399929046631,2.094399929046631,3.1415998935699463,3.1415998935699463,3.1415998935699463,3.1415998935699463,2.094399929046631,2.094399929046631,3.1415998935699463,3.1415998935699463,3.1415998935699463,3.1415998935699463,0.7207363843917847,0.05008368194103241,0.40257197618484497,-0.11640883982181549,-0.4353508949279785,0.8926243782043457,-0.011836916208267212,NA,NA,NA,NA,NA,NA,NA,0.5127236843109131,0.16527187824249268,0.168507918715477,-1.0043902598511067e-08,0.22977770864963531,-0.9732431173324585,4.2541806521967374e-08
22,0.176,0,0,22,-0.1408013254404068,-1.4213390350341797,1.8930588960647583,-1.8662201166152954,-1.7170621156692505,0.5529162287712097,0.0,-1.5700000524520874,1.5700000524520874,-1.5700000524520874,-1.5700000524520874,0.0,1.0358628034591675,-0.4687536358833313,3.135810375213623,-3.1415724754333496,0.5993116497993469,3.1415889263153076,1.0314122438430786,-0.4659532606601715,3.141590118408203,-3.141590118408203,0.5990292429924011,3.141590118408203,-6.2831854820251465,6.2831854820251465,-6.2831854820251465,6.2831854820251465,-3.1415927410125732,3.1415927410125732,-6.2831854820251465,6.2831854820251465,-6.2831854820251465,6.2831854820251465,-6.2831854820251465,6.2831854820251465,-5.654866695404053,5.654866695404053,-5.654866695404053,5.654866695404053,-2.8274333477020264,2.8274333477020264,-5.654866695404053,5.654866695404053,-5.654866695404053,5.654866695404053,-5.654866695404053,5.654866695404053,2.094399929046631,2.094399929046631,3.1415998935699463,3.1415998935699463,3.1415998935699463,3.1415998935699463,2.094399929046631,2.094399929046631,3.1415998935699463,3.1415998935699463,3.1415998935699463,3.1415998935699463,0.7132781744003296,0.05763508751988411,0.39230820536613464,-0.1133192628622055,-0.4276624917984009,0.8967154622077942,-0.01283995807170868,NA,NA,NA,NA,NA,NA,NA,0.5127236843109131,0.16527187824249268,0.168507918715477,-1.0043902598511067e-08,0.22977770864963531,-0.9732431173324585,4.2541806521967374e-08
23,0.184,0,0,23,-0.1331515610218048,-1.4251123666763306,1.9181421995162964,-1.8913167715072632,-1.713433861732483,0.5780474543571472,0.0,-1.5700000524520874,1.5700000524520874,-1.5700000524520874,-1.5700000524520874,0.0,0.8829456567764282,-0.495733380317688,3.141601085662842,-3.13470721244812,0.4471380114555359,3.14159893989563,0.7829240560531616,-0.520569384098053,3.141590118408203,-3.141590118408203,0.44096553325653076,3.141590118408203,-6.2831854820251465,6.2831854820251465,-6.2831854820251465,6.2831854820251465,-3.1415927410125732,3.1415927410125732,-6.2831854820251465,6.2831854820251465,-6.2831854820251465,6.2831854820251465,-6.2831854820251465,6.2831854820251465,-5.654866695404053,5.654866695404053,-5.654866695404053,5.654866695404053,-2.8274333477020264,2.8274333477020264,-5.654866695404053,5.654866695404053,-5.654866695404053,5.654866695404053,-5.654866695404053,5.654866695404053,2.094399929046631,2.094399929046631,3.1415998935699463,3.1415998935699463,3.1415998935699463,3.1415998935699463,2.094399929046631,2.094399929046631,3.1415998935699463,3.1415998935699463,3.1415998935699463,3.1415998935699463,0.7054995894432068,0.0644918903708458,0.3821696639060974,-0.11055655777454376,-0.41966456174850464,0.9008095264434814,-0.014178991317749023,NA,NA,NA,NA,NA,NA,NA,0.5127236843109131,0.16527187824249268,0.168507918715477,-1.0043902598511067e-08,0.22977770864963531,-0.9732431173324585,4.2541806521967374e-08
24,0.192,0,0,24,-0.12614017724990845,-1.428994059562683,1.9432182312011719,-1.916441559791565,-1.7095203399658203,0.6031786799430847,0.0,-1.5700000524520874,1.5700000524520874,-1.5700000524520874,-1.5700000524520874,0.0,0.8624697327613831,-0.501535177230835,3.1416008472442627,-3.1386709213256836,0.48794451355934143,3.1415998935699463,0.8492971062660217,-0.5270529985427856,3.141590118408203,-3.141590118408203,0.4869723618030548,3.141590118408203,-6.2831854820251465,6.2831854820251465,-6.2831854820251465,6.2831854820251465,-3.1415927410125732,3.1415927410125732,-6.2831854820251465,6.2831854820251465,-6.2831854820251465,6.2831854820251465,-6.2831854820251465,6.2831854820251465,-5.654866695404053,5.654866695404053,-5.654866695404053,5.654866695404053,-2.8274333477020264,2.8274333477020264,-5.654866695404053,5.654866695404053,-5.654866695404053,5.654866695404053,-5.654866695404053,5.654866695404053,2.094399929046631,2.094399929046631,3.1415998935699463,3.1415998935699463,3.1415998935699463,3.1415998935699463,2.094399929046631,2.094399929046631,3.1415998935699463,3.1415998935699463,3.1415998935699463,3.1415998935699463,0.697464108467102,0.07085158675909042,0.3722251057624817,-0.10765087604522705,-0.4113326668739319,0.9049762487411499,-0.01531226933002472,NA,NA,NA,NA,NA,NA,NA,0.5127236843109131,0.16527187824249268,0.168507918715477,-1.0043902598511067e-08,0.22977770864963531,-0.9732431173324585,4.2541806521967374e-08
25,0.2,0,0,25,-0.11952938884496689,-1.4328255653381348,1.9682810306549072,-1.941567301750183,-1.7059060335159302,0.6283099055290222,0.0,-1.5700000524520874,1.5700000524520874,-1.5700000524520874,-1.5700000524520874,0.0,0.7878426313400269,-0.4865434765815735,3.1416015625,-3.1395952701568604,0.4487183690071106,3.141601085662842,0.7374473214149475,-0.4813999831676483,3.141590118408203,-3.141590118408203,0.4456811249256134,3.141590118408203,-6.2831854820251465,6.2831854820251465,-6.2831854820251465,6.2831854820251465,-3.1415927410125732,3.1415927410125732,-6.2831854820251465,6.2831854820251465,-6.2831854820251465,6.2831854820251465,-6.2831854820251465,6.2831854820251465,-5.654866695404053,5.654866695404053,-5.654866695404053,5.654866695404053,-2.8274333477020264,2.8274333477020264,-5.654866695404053,5.654866695404053,-5.654866695404053,5.654866695404053,-5.654866695404053,5.654866695404053,2.094399929046631,2.094399929046631,3.1415998935699463,3.1415998935699463,3.1415998935699463,3.1415998935699463,2.094399929046631,2.094399929046631,3.1415998935699463,3.1415998935699463,3.1415998935699463,3.1415998935699463,0.6891928315162659,0.07681625336408615,0.36238011717796326,-0.10482965409755707,-0.4027897119522095,0.9091206789016724,-0.01645420491695404,NA,NA,NA,NA,NA,NA,NA,0.5127236843109131,0.16527187824249268,0.168507918715477,-1.0043902598511067e-08,0.22977770864963531,-0.9732431173324585,4.2541806521967374e-08
26,0.20800000000000002,0,0,26,-0.11318623274564743,-1.4365484714508057,1.9933301210403442,-1.9666985273361206,-1.7021952867507935,0.6534411311149597,0.0,-1.5700000524520874,1.5700000524520874,-1.5700000524520874,-1.5700000524520874,0.0,0.7852814793586731,-0.47639134526252747,3.141601800918579,-3.1411538124084473,0.4629717767238617,3.1416006088256836,0.7807683944702148,-0.48715314269065857,3.141590118408203,-3.141590118408203,0.46253055334091187,3.141590118408203,-6.2831854820251465,6.2831854820251465,-6.2831854820251465,6.2831854820251465,-3.1415927410125732,3.1415927410125732,-6.2831854820251465,6.2831854820251465,-6.2831854820251465,6.2831854820251465,-6.2831854820251465,6.2831854820251465,-5.654866695404053,5.654866695404053,-5.654866695404053,5.654866695404053,-2.8274333477020264,2.8274333477020264,-5.654866695404053,5.654866695404053,-5.654866695404053,5.654866695404053,-5.654866695404053,5.654866695404053,2.094399929046631,2.094399929046631,3.1415998935699463,3.1415998935699463,3.1415998935699463,3.1415998935699463,2.094399929046631,2.094399929046631,3.1415998935699463,3.1415998935699463,3.1415998935699463,3.1415998935699463,0.68069988489151,0.08252611011266708,0.35259631276130676,-0.1020156592130661,-0.39408546686172485,0.9132280349731445,-0.017432913184165955,NA,NA,NA,NA,NA,NA,NA,0.5127236843109131,0.16527187824249268,0.168507918715477,-1.0043902598511067e-08,0.22977770864963531,-0.9732431173324585,4.2541806521967374e-08
27,0.216,0,0,27,-0.10701879113912582,-1.440080165863037,2.0183496475219727,-1.9918296337127686,-1.698606252670288,0.6785723567008972,0.0,-1.5700000524520874,1.5700000524520874,-1.5700000524520874,-1.5700000524520874,0.0,0.7477833032608032,-0.44269925355911255,3.136451482772827,-3.1414530277252197,0.4468420147895813,3.1415863037109375,0.7191144824028015,-0.42848339676856995,3.141590118408203,-3.141590118408203,0.4451262950897217,3.141590118408203,-6.2831854820251465,6.2831854820251465,-6.2831854820251465,6.2831854820251465,-3.1415927410125732,3.1415927410125732,-6.2831854820251465,6.2831854820251465,-6.2831854820251465,6.2831854820251465,-6.2831854820251465,6.2831854820251465,-5.654866695404053,5.654866695404053,-5.654866695404053,5.654866695404053,-2.8274333477020264,2.8274333477020264,-5.654866695404053,5.654866695404053,-5.654866695404053,5.654866695404053,-5.654866695404053,5.654866695404053,2.094399929046631,2.094399929046631,3.1415998935699463,3.1415998935699463,3.1415998935699463,3.1415998935699463,2.094399929046631,2.094399929046631,3.1415998935699463,3.1415998935699463,3.1415998935699463,3.1415998935699463,0.6719993352890015,0.08801856637001038,0.342836856842041,-0.09929737448692322,-0.38526836037635803,0.917263388633728,-0.018331915140151978,NA,NA,NA,NA,NA,NA,NA,0.5127236843109131,0.16527187824249268,0.168507918715477,-1.0043902598511067e-08,0.22977770864963531,-0.9732431173324585,4.2541806521967374e-08
28,0.224,0,0,28,-0.10094472765922546,-1.4433870315551758,2.0433506965637207,-2.016960859298706,-1.6949118375778198,0.7037035822868347,0.0,-1.5700000524520874,1.5700000524520874,-1.5700000524520874,-1.5700000524520874,0.0,0.755550742149353,-0.4197033941745758,3.135631799697876,-3.1415903568267822,0.46135833859443665,3.141590118408203,0.755168616771698,-0.42119601368904114,3.141590118408203,-3.141590118408203,0.46123382449150085,3.141590118408203,-6.2831854820251465,6.2831854820251465,-6.2831854820251465,6.2831854820251465,-3.1415927410125732,3.1415927410125732,-6.2831854820251465,6.2831854820251465,-6.2831854820251465,6.2831854820251465,-6.2831854820251465,6.2831854820251465,-5.654866695404053,5.654866695404053,-5.654866695404053,5.654866695404053,-2.8274333477020264,2.8274333477020264,-5.654866695404053,5.654866695404053,-5.654866695404053,5.654866695404053,-5.654866695404053,5.654866695404053,2.094399929046631,2.094399929046631,3.1415998935699463,3.1415998935699463,3.1415998935699463,3.1415998935699463,2.094399929046631,2.094399929046631,3.1415998935699463,3.1415998935699463,3.1415998935699463,3.1415998935699463,0.6630879640579224,0.09337522834539413,0.33308085799217224,-0.09664227068424225,-0.3763711452484131,0.921217679977417,-0.01905132830142975,NA,NA,NA,NA,NA,NA,NA,0.5127236843109131,0.16527187824249268,0.168507918715477,-1.0043902598511067e-08,0.22977770864963531,-0.9732431173324585,4.2541806521967374e-08
29,0.232,0,0,29,-0.09495771676301956,-1.4464116096496582,2.068325996398926,-2.0420920848846436,-1.6912192106246948,0.7288348078727722,0.0,-1.5700000524520874,1.5700000524520874,-1.5700000524520874,-1.5700000524520874,0.0,0.7305028438568115,-0.375785768032074,3.1313860416412354,-3.1415047645568848,0.46023109555244446,3.141587972640991,0.7093890905380249,-0.3562387228012085,3.141590118408203,-3.141590118408203,0.4590298533439636,3.141590118408203,-6.2831854820251465,6.2831854820251465,-6.2831854820251465,6.2831854820251465,-3.1415927410125732,3.1415927410125732,-6.2831854820251465,6.2831854820251465,-6.2831854820251465,6.2831854820251465,-6.2831854820251465,6.2831854820251465,-5.654866695404053,5.654866695404053,-5.654866695404053,5.654866695404053,-2.8274333477020264,2.8274333477020264,-5.654866695404053,5.654866695404053,-5.654866695404053,5.654866695404053,-5.654866695404053,5.654866695404053,2.094399929046631,2.094399929046631,3.1415998935699463,3.1415998935699463,3.1415998935699463,3.1415998935699463,2.094399929046631,2.094399929046631,3.1415998935699463,3.1415998935699463,3.1415998935699463,3.1415998935699463,0.6539747714996338,0.09858623892068863,0.32330620288848877,-0.09410355985164642,-0.367400586605072,0.9250816106796265,-0.019630208611488342,NA,NA,NA,NA,NA,NA,NA,0.5127236843109131,0.16527187824249268,0.168507918715477,-1.0043902598511067e-08,0.22977770864963531,-0.9732431173324585,4.2541806521967374e-08
30,0.24,0,0,30,-0.08899379521608353,-1.4491392374038696,2.0932912826538086,-2.067223310470581,-1.6873352527618408,0.7539660334587097,0.0,-1.5700000524520874,1.5700000524520874,-1.5700000524520874,-1.5700000524520874,0.0,0.74407559633255,-0.34482231736183167,3.1317496299743652,-3.141601800918579,0.4853012263774872,3.1415903568267822,0.7461060881614685,-0.341491162776947,3.141590118408203,-3.141590118408203,0.485384076833725,3.141590118408203,-6.2831854820251465,6.2831854820251465,-6.2831854820251465,6.2831854820251465,-3.1415927410125732,3.1415927410125732,-6.2831854820251465,6.2831854820251465,-6.2831854820251465,6.2831854820251465,-6.2831854820251465,6.2831854820251465,-5.654866695404053,5.654866695404053,-5.654866695404053,5.654866695404053,-2.8274333477020264,2.8274333477020264,-5.654866695404053,5.654866695404053,-5.654866695404053,5.654866695404053,-5.654866695404053,5.654866695404053,2.094399929046631,2.094399929046631,3.1415998935699463,3.1415998935699463,3.1415998935699463,3.1415998935699463,2.094399929046631,2.094399929046631,3.1415998935699463,3.1415998935699463,3.1415998935699463,3.1415998935699463,0.6446471810340881,0.10371473431587219,0.3135044276714325,-0.09165646135807037,-0.3583822250366211,0.9288496971130371,-0.019984856247901917,NA,NA,NA,NA,NA,NA,NA,0.5127236843109131,0.16527187824249268,0.168507918715477,-1.0043902598511067e-08,0.22977770864963531,-0.9732431173324585,4.2541806521967374e-08
31,0.248,0,0,31,-0.08312048017978668,-1.4515460729599,2.118253707885742,-2.0923545360565186,-1.6832767724990845,0.7790972590446472,0.0,-1.5700000524520874,1.5700000524520874,-1.5700000524520874,-1.5700000524520874,0.0,0.7154359817504883,-0.2978791296482086,3.1304328441619873,-3.141511917114258,0.5059531927108765,3.141587734222412,0.6948956847190857,-0.27718082070350647,3.141590118408203,-3.141590118408203,0.5047627687454224,3.141590118408203,-6.2831854820251465,6.2831854820251465,-6.2831854820251465,6.2831854820251465,-3.1415927410125732,3.1415927410125732,-6.2831854820251465,6.2831854820251465,-6.2831854820251465,6.2831854820251465,-6.2831854820251465,6.2831854820251465,-5.654866695404053,5.654866695404053,-5.654866695404053,5.654866695404053,-2.8274333477020264,2.8274333477020264,-5.654866695404053,5.654866695404053,-5.654866695404053,5.654866695404053,-5.654866695404053,5.654866695404053,2.094399929046631,2.094399929046631,3.1415998935699463,3.1415998935699463,3.1415998935699463,3.1415998935699463,2.094399929046631,2.094399929046631,3.1415998935699463,3.1415998935699463,3.1415998935699463,3.1415998935699463,0.6351077556610107,0.10871388763189316,0.30367013812065125,-0.08932831883430481,-0.34928688406944275,0.9325311183929443,-0.02011755108833313,NA,NA,NA,NA,NA,NA,NA,0.5127236843109131,0.16527187824249268,0.168507918715477,-1.0043902598511067e-08,0.22977770864963531,-0.9732431173324585,4.2541806521967374e-08
32,0.256,0,0,32,-0.07728540152311325,-1.4536610841751099,2.143226385116577,-2.117486000061035,-1.6787389516830444,0.8042284846305847,0.0,-1.5700000524520874,1.5700000524520874,-1.5700000524520874,-1.5700000524520874,0.0,0.7288708686828613,-0.27018246054649353,3.13287353515625,-3.141599655151367,0.5671167373657227,3.141592025756836,0.7327987551689148,-0.2708011269569397,3.141590118408203,-3.141590118408203,0.5672670006752014,3.141590118408203,-6.2831854820251465,6.2831854820251465,-6.2831854820251465,6.2831854820251465,-3.1415927410125732,3.1415927410125732,-6.2831854820251465,6.2831854820251465,-6.2831854820251465,6.2831854820251465,-6.2831854820251465,6.2831854820251465,-5.654866695404053,5.654866695404053,-5.654866695404053,5.654866695404053,-2.8274333477020264,2.8274333477020264,-5.654866695404053,5.654866695404053,-5.654866695404053,5.654866695404053,-5.654866695404053,5.654866695404053,2.094399929046631,2.094399929046631,3.1415998935699463,3.1415998935699463,3.1415998935699463,3.1415998935699463,2.094399929046631,2.094399929046631,3.1415998935699463,3.1415998935699463,3.1415998935699463,3.1415998935699463,0.6253396272659302,0.11365164071321487,0.293823778629303,-0.08705788105726242,-0.340131014585495,0.9361280202865601,-0.019900798797607422,NA,NA,NA,NA,NA,NA,NA,0.5127236843109131,0.16527187824249268,0.168507918715477,-1.0043902598511067e-08,0.22977770864963531,-0.9732431173324585,4.2541806521967374e-08
33,0.264,0,0,33,-0.07164126634597778,-1.4554893970489502,2.1682205200195312,-2.1426172256469727,-1.6737385988235474,0.8293597102165222,0.0,-1.5700000524520874,1.5700000524520874,-1.5700000524520874,-1.5700000524520874,0.0,0.6803032159805298,-0.2274128496646881,3.1342294216156006,-3.1414954662323,0.623393714427948,3.1415863037109375,0.6549841165542603,-0.20946763455867767,3.141590118408203,-3.141590118408203,0.621807336807251,3.141590118408203,-6.2831854820251465,6.2831854820251465,-6.2831854820251465,6.2831854820251465,-3.1415927410125732,3.1415927410125732,-6.2831854820251465,6.2831854820251465,-6.2831854820251465,6.2831854820251465,-6.2831854820251465,6.2831854820251465,-5.654866695404053,5.654866695404053,-5.654866695404053,5.654866695404053,-2.8274333477020264,2.8274333477020264,-5.654866695404053,5.654866695404053,-5.654866695404053,5.654866695404053,-5.654866695404053,5.654866695404053,2.094399929046631,2.094399929046631,3.1415998935699463,3.1415998935699463,3.1415998935699463,3.1415998935699463,2.094399929046631,2.094399929046631,3.1415998935699463,3.1415998935699463,3.1415998935699463,3.1415998935699463,0.6153500080108643,0.11843039095401764,0.28397661447525024,-0.08486782014369965,-0.33084386587142944,0.9396625757217407,-0.019336983561515808,NA,NA,NA,NA,NA,NA,NA,0.5127236843109131,0.16527187824249268,0.168507918715477,-1.0043902598511067e-08,0.22977770864963531,-0.9732431173324585,4.2541806521967374e-08
34,0.272,0,0,34,-0.06600561738014221,-1.4570248126983643,2.1932084560394287,-2.1677486896514893,-1.6683160066604614,0.8544909358024597,0.0,-1.5700000524520874,1.5700000524520874,-1.5700000524520874,-1.5700000524520874,0.0,0.7098867893218994,-0.19875739514827728,3.133497714996338,-3.1416025161743164,0.6784594058990479,3.141594648361206,0.7201293706893921,-0.2038516253232956,3.141590118408203,-3.141590118408203,0.6789924502372742,3.141590118408203,-6.2831854820251465,6.2831854820251465,-6.2831854820251465,6.2831854820251465,-3.1415927410125732,3.1415927410125732,-6.2831854820251465,6.2831854820251465,-6.2831854820251465,6.2831854820251465,-6.2831854820251465,6.2831854820251465,-5.654866695404053,5.654866695404053,-5.654866695404053,5.654866695404053,-2.8274333477020264,2.8274333477020264,-5.654866695404053,5.654866695404053,-5.654866695404053,5.654866695404053,-5.654866695404053,5.654866695404053,2.094399929046631,2.094399929046631,3.1415998935699463,3.1415998935699463,3.1415998935699463,3.1415998935699463,2.094399929046631,2.094399929046631,3.1415998935699463,3.1415998935699463,3.1415998935699463,3.1415998935699463,0.6051298379898071,0.12315735965967178,0.27415621280670166,-0.08276668190956116,-0.3215114176273346,0.9431008100509644,-0.01846131682395935,NA,NA,NA,NA,NA,NA,NA,0.5127236843109131,0.16527187824249268,0.168507918715477,-1.0043902598511067e-08,0.22977770864963531,-0.9732431173324585,4.2541806521967374e-08
35,0.28,0,0,35,-0.060612812638282776,-1.4582468271255493,2.218219041824341,-2.1928799152374268,-1.6629176139831543,0.8796221613883972,0.0,-1.5700000524520874,1.5700000524520874,-1.5700000524520874,-1.5700000524520874,0.0,0.6386387348175049,-0.14978720247745514,3.1359760761260986,-3.1414778232574463,0.6719565987586975,3.1415843963623047,0.6046238541603088,-0.12709110975265503,3.141590118408203,-3.141590118408203,0.669785737991333,3.141590118408203,-6.2831854820251465,6.2831854820251465,-6.2831854820251465,6.2831854820251465,-3.1415927410125732,3.1415927410125732,-6.2831854820251465,6.2831854820251465,-6.2831854820251465,6.2831854820251465,-6.2831854820251465,6.2831854820251465,-5.654866695404053,5.654866695404053,-5.654866695404053,5.654866695404053,-2.8274333477020264,2.8274333477020264,-5.654866695404053,5.654866695404053,-5.654866695404053,5.654866695404053,-5.654866695404053,5.654866695404053,2.094399929046631,2.094399929046631,3.1415998935699463,3.1415998935699463,3.1415998935699463,3.1415998935699463,2.094399929046631,2.094399929046631,3.1415998935699463,3.1415998935699463,3.1415998935699463,3.1415998935699463,0.5946885347366333,0.12763923406600952,0.26435351371765137,-0.08087493479251862,-0.31203460693359375,0.9464610815048218,-0.0174645334482193,NA,NA,NA,NA,NA,NA,NA,0.5127236843109131,0.16527187824249268,0.168507918715477,-1.0043902598511067e-08,0.22977770864963531,-0.9732431173324585,4.2541806521967374e-08
36,0.28800000000000003,0,0,36,-0.054864559322595596,-1.458635687828064,2.2413628101348877,-2.217752695083618,-1.657429814338684,0.9047533869743347,0.0,-1.5700000524520874,1.5700000524520874,-1.5700000524520874,-1.5700000524520874,0.0,0.731080949306488,-0.04978303983807564,2.797532320022583,-3.140491485595703,0.6909247040748596,3.1415858268737793,0.7207928895950317,-0.12851792573928833,2.6253576278686523,-3.141590118408203,0.6884537935256958,3.141590118408203,-6.2831854820251465,6.2831854820251465,-6.2831854820251465,6.2831854820251465,-3.1415927410125732,3.1415927410125732,-6.2831854820251465,6.2831854820251465,-6.2831854820251465,6.2831854820251465,-6.2831854820251465,6.2831854820251465,-5.654866695404053,5.654866695404053,-5.654866695404053,5.654866695404053,-2.8274333477020264,2.8274333477020264,-5.654866695404053,5.654866695404053,-5.654866695404053,5.654866695404053,-5.654866695404053,5.654866695404053,2.094399929046631,2.094399929046631,3.1415998935699463,3.1415998935699463,3.1415998935699463,3.1415998935699463,2.094399929046631,2.094399929046631,3.1415998935699463,3.1415998935699463,3.1415998935699463,3.1415998935699463,0.584961473941803,0.13218677043914795,0.255217581987381,-0.07865223288536072,-0.30268219113349915,0.9496968984603882,-0.016524583101272583,NA,NA,NA,NA,NA,NA,NA,0.5127236843109131,0.16527187824249268,0.168507918715477,-1.0043902598511067e-08,0.22977770864963531,-0.9732431173324585,4.2541806521967374e-08
37,0.296,0,0,37,-0.049908269196748734,-1.4586557149887085,2.263491630554199,-2.2428414821624756,-1.6517356634140015,0.9298846125602722,0.0,-1.5700000524520874,1.5700000524520874,-1.5700000524520874,-1.5700000524520874,0.0,0.5391607284545898,0.006757757626473904,2.7539443969726562,-3.137751817703247,0.706028401851654,3.141576051712036,0.45895999670028687,0.033746667206287384,2.724672555923462,-3.141590118408203,0.700875997543335,3.141590118408203,-6.2831854820251465,6.2831854820251465,-6.2831854820251465,6.2831854820251465,-3.1415927410125732,3.1415927410125732,-6.2831854820251465,6.2831854820251465,-6.2831854820251465,6.2831854820251465,-6.2831854820251465,6.2831854820251465,-5.654866695404053,5.654866695404053,-5.654866695404053,5.654866695404053,-2.8274333477020264,2.8274333477020264,-5.654866695404053,5.654866695404053,-5.654866695404053,5.654866695404053,-5.654866695404053,5.654866695404053,2.094399929046631,2.094399929046631,3.1415998935699463,3.1415998935699463,3.1415998935699463,3.1415998935699463,2.094399929046631,2.094399929046631,3.1415998935699463,3.1415998935699463,3.1415998935699463,3.1415998935699463,0.5757041573524475,0.13617633283138275,0.24661165475845337,-0.07604524493217468,-0.29290884733200073,0.9529848098754883,-0.015539422631263733,NA,NA,NA,NA,NA,NA,NA,0.5127236843109131,0.16527187824249268,0.168507918715477,-1.0043902598511067e-08,0.22977770864963531,-0.9732431173324585,4.2541806521967374e-08
38,0.304,0,0,38,-0.04417600855231285,-1.4576972723007202,2.2831780910491943,-2.2677130699157715,-1.6461308002471924,0.9550158381462097,0.0,-1.5700000524520874,1.5700000524520874,-1.5700000524520874,-1.5700000524520874,0.0,0.7702415585517883,0.10111907869577408,2.3989078998565674,-3.1403892040252686,0.7085362672805786,3.141594171524048,0.8120713233947754,0.018917230889201164,2.0712409019470215,-3.141590118408203,0.7100458741188049,3.141590118408203,-6.2831854820251465,6.2831854820251465,-6.2831854820251465,6.2831854820251465,-3.1415927410125732,3.1415927410125732,-6.2831854820251465,6.2831854820251465,-6.2831854820251465,6.2831854820251465,-6.2831854820251465,6.2831854820251465,-5.654866695404053,5.654866695404053,-5.654866695404053,5.654866695404053,-2.8274333477020264,2.8274333477020264,-5.654866695404053,5.654866695404053,-5.654866695404053,5.654866695404053,-5.654866695404053,5.654866695404053,2.094399929046631,2.094399929046631,3.1415998935699463,3.1415998935699463,3.1415998935699463,3.1415998935699463,2.094399929046631,2.094399929046631,3.1415998935699463,3.1415998935699463,3.1415998935699463,3.1415998935699463,0.5674920082092285,0.14045380055904388,0.23884183168411255,-0.07290607690811157,-0.28346675634384155,0.956092894077301,-0.014753177762031555,NA,NA,NA,NA,NA,NA,NA,0.5127236843109131,0.16527187824249268,0.168507918715477,-1.0043902598511067e-08,0.22977770864963531,-0.9732431173324585,4.2541806521967374e-08
39,0.312,0,0,39,-0.04023819789290428,-1.4563580751419067,2.301980495452881,-2.2927470207214355,-1.6410189867019653,0.9801470637321472,0.0,-1.5700000524520874,1.5700000524520874,-1.5700000524520874,-1.5700000524520874,0.0,0.31026002764701843,0.20146091282367706,2.3172621726989746,-3.1335651874542236,0.6254630088806152,3.1415622234344482,0.13509874045848846,0.27536889910697937,2.2504377365112305,-3.141590118408203,0.6143163442611694,3.141590118408203,-6.2831854820251465,6.2831854820251465,-6.2831854820251465,6.2831854820251465,-3.1415927410125732,3.1415927410125732,-6.2831854820251465,6.2831854820251465,-6.2831854820251465,6.2831854820251465,-6.2831854820251465,6.2831854820251465,-5.654866695404053,5.654866695404053,-5.654866695404053,5.654866695404053,-2.8274333477020264,2.8274333477020264,-5.654866695404053,5.654866695404053,-5.654866695404053,5.654866695404053,-5.654866695404053,5.654866695404053,2.094399929046631,2.094399929046631,3.1415998935699463,3.1415998935699463,3.1415998935699463,3.1415998935699463,2.094399929046631,2.094399929046631,3.1415998935699463,3.1415998935699463,3.1415998935699463,3.1415998935699463,0.5598740577697754,0.14356638491153717,0.23149436712265015,-0.06958106905221939,-0.27314627170562744,0.9593484401702881,-0.014148026704788208,NA,NA,NA,NA,NA,NA,NA,0.5127236843109131,0.16527187824249268,0.168507918715477,-1.0043902598511067e-08,0.22977770864963531,-0.9732431173324585,4.2541806521967374e-08
40,0.32,0,0,40,-0.033928368240594864,-1.453984260559082,2.3182661533355713,-2.3176424503326416,-1.6352064609527588,1.0052783489227295,0.0,-1.5700000524520874,1.5700000524520874,-1.5700000524520874,-1.5700000524520874,0.0,1.041499137878418,0.2806291878223419,1.9106297492980957,-3.126300811767578,0.7492901086807251,3.1415998935699463,1.2206223011016846,0.10680337250232697,1.8106664419174194,-3.141590118408203,0.7618063688278198,3.141590118408203,-6.2831854820251465,6.2831854820251465,-6.2831854820251465,6.2831854820251465,-3.1415927410125732,3.1415927410125732,-6.2831854820251465,6.2831854820251465,-6.2831854820251465,6.2831854820251465,-6.2831854820251465,6.2831854820251465,-5.654866695404053,5.654866695404053,-5.654866695404053,5.654866695404053,-2.8274333477020264,2.8274333477020264,-5.654866695404053,5.654866695404053,-5.654866695404053,5.654866695404053,-5.654866695404053,5.654866695404053,2.094399929046631,2.094399929046631,3.1415998935699463,3.1415998935699463,3.1415998935699463,3.1415998935699463,2.094399929046631,2.094399929046631,3.1415998935699463,3.1415998935699463,3.1415998935699463,3.1415998935699463,0.5531850457191467,0.14796841144561768,0.22493688762187958,-0.06552985310554504,-0.26391148567199707,0.962225079536438,-0.013392835855484009,NA,NA,NA,NA,NA,NA,NA,0.5127236843109131,0.16527187824249268,0.168507918715477,-1.0043902598511067e-08,0.22977770864963531,-0.9732431173324585,4.2541806521967374e-08
41,0.328,0,0,41,-0.03093433938920498,-1.451358675956726,2.3343746662139893,-2.3427655696868896,-1.6313560009002686,1.030409574508667,0.0,-1.5700000524520874,1.5700000524520874,-1.5700000524520874,-1.5700000524520874,0.0,0.282845139503479,0.43563541769981384,1.9955390691757202,-3.1416032314300537,0.43858104944229126,3.1416001319885254,-0.9621728658676147,0.5866955518722534,2.0314581394195557,-3.141590118408203,0.44116729497909546,3.141590118408203,-6.2831854820251465,6.2831854820251465,-6.2831854820251465,6.2831854820251465,-3.1415927410125732,3.1415927410125732,-6.2831854820251465,6.2831854820251465,-6.2831854820251465,6.2831854820251465,-6.2831854820251465,6.2831854820251465,-5.654866695404053,5.654866695404053,-5.654866695404053,5.654866695404053,-2.8274333477020264,2.8274333477020264,-5.654866695404053,5.654866695404053,-5.654866695404053,5.654866695404053,-5.654866695404053,5.654866695404053,2.094399929046631,2.094399929046631,3.1415998935699463,3.1415998935699463,3.1415998935699463,3.1415998935699463,2.094399929046631,2.094399929046631,3.1415998935699463,3.1415998935699463,3.1415998935699463,3.1415998935699463,0.5469673275947571,0.15025070309638977,0.21852143108844757,-0.06173962354660034,-0.2531030774116516,0.9653746485710144,-0.013372600078582764,NA,NA,NA,NA,NA,NA,NA,0.5127236843109131,0.16527187824249268,0.168507918715477,-1.0043902598511067e-08,0.22977770864963531,-0.9732431173324585,4.2541806521967374e-08
42,0.336,0,0,42,-0.025207631289958954,-1.4481656551361084,2.347883462905884,-2.367591381072998,-1.62577486038208,1.0555408000946045,0.0,-1.5700000524520874,1.5700000524520874,-1.5700000524520874,-1.5700000524520874,0.0,0.9266914129257202,0.26376140117645264,1.6673766374588013,-3.1360912322998047,0.7182320356369019,3.1416001319885254,1.1275399923324585,0.015933066606521606,1.0104608535766602,-3.141590118408203,0.7293241620063782,3.141590118408203,-6.2831854820251465,6.2831854820251465,-6.2831854820251465,6.2831854820251465,-3.1415927410125732,3.1415927410125732,-6.2831854820251465,6.2831854820251465,-6.2831854820251465,6.2831854820251465,-6.2831854820251465,6.2831854820251465,-5.654866695404053,5.654866695404053,-5.654866695404053,5.654866695404053,-2.8274333477020264,2.8274333477020264,-5.654866695404053,5.654866695404053,-5.654866695404053,5.654866695404053,-5.654866695404053,5.654866695404053,2.094399929046631,2.094399929046631,3.1415998935699463,3.1415998935699463,3.1415998935699463,3.1415998935699463,2.094399929046631,2.094399929046631,3.1415998935699463,3.1415998935699463,3.1415998935699463,3.1415998935699463,0.5416717529296875,0.15414176881313324,0.21311701834201813,-0.05688074976205826,-0.24353915452957153,0.9681380987167358,-0.01272648572921753,NA,NA,NA,NA,NA,NA,NA,0.5127236843109131,0.16527187824249268,0.168507918715477,-1.0043902598511067e-08,0.22977770864963531,-0.9732431173324585,4.2541806521967374e-08
43,0.34400000000000003,0,0,43,-0.022497303783893585,-1.443324327468872,2.3600950241088867,-2.3926680088043213,-1.6213740110397339,1.080672025680542,0.0,-1.5700000524520874,1.5700000524520874,-1.5700000524520874,-1.5700000524520874,0.0,0.30398210883140564,0.8423506021499634,1.3983888626098633,-3.140206813812256,0.5183396935462952,3.141591787338257,-1.1586304903030396,1.1714253425598145,1.3872061967849731,-3.141590118408203,0.518557071685791,3.141590118408203,-6.2831854820251465,6.2831854820251465,-6.2831854820251465,6.2831854820251465,-3.1415927410125732,3.1415927410125732,-6.2831854820251465,6.2831854820251465,-6.2831854820251465,6.2831854820251465,-6.2831854820251465,6.2831854820251465,-5.654866695404053,5.654866695404053,-5.654866695404053,5.654866695404053,-2.8274333477020264,2.8274333477020264,-5.654866695404053,5.654866695404053,-5.654866695404053,5.654866695404053,-5.654866695404053,5.654866695404053,2.094399929046631,2.094399929046631,3.1415998935699463,3.1415998935699463,3.1415998935699463,3.1415998935699463,2.094399929046631,2.094399929046631,3.1415998935699463,3.1415998935699463,3.1415998935699463,3.1415998935699463,0.5375446081161499,0.15620507299900055,0.20758938789367676,-0.052270710468292236,-0.23252153396606445,0.971106231212616,-0.012411713600158691,NA,NA,NA,NA,NA,NA,NA,0.5127236843109131,0.16527187824249268,0.168507918715477,-1.0043902598511067e-08,0.22977770864963531,-0.9732431173324585,4.2541806521967374e-08
44,0.352,0,0,44,-0.017850399017333984,-1.4397042989730835,2.370978832244873,-2.4175100326538086,-1.6162744760513306,1.1058032512664795,0.0,-1.5700000524520874,1.5700000524520874,-1.5700000524520874,-1.5700000524520874,0.0,0.8161298632621765,0.41814640164375305,1.250174641609192,-3.1328909397125244,0.6482325196266174,3.1416008472442627,0.9527961611747742,-0.694880485534668,1.1751141548156738,-3.141590118408203,0.6612638831138611,3.141590118408203,-6.2831854820251465,6.2831854820251465,-6.2831854820251465,6.2831854820251465,-3.1415927410125732,3.1415927410125732,-6.2831854820251465,6.2831854820251465,-6.2831854820251465,6.2831854820251465,-6.2831854820251465,6.2831854820251465,-5.654866695404053,5.654866695404053,-5.654866695404053,5.654866695404053,-2.8274333477020264,2.8274333477020264,-5.654866695404053,5.654866695404053,-5.654866695404053,5.654866695404053,-5.654866695404053,5.654866695404053,2.094399929046631,2.094399929046631,3.1415998935699463,3.1415998935699463,3.1415998935699463,3.1415998935699463,2.094399929046631,2.094399929046631,3.1415998935699463,3.1415998935699463,3.1415998935699463,3.1415998935699463,0.5337151885032654,0.15935033559799194,0.20340591669082642,-0.046462416648864746,-0.22239571809768677,0.973775327205658,-0.011954918503761292,NA,NA,NA,NA,NA,NA,NA,0.5127236843109131,0.16527187824249268,0.168507918715477,-1.0043902598511067e-08,0.22977770864963531,-0.9732431173324585,4.2541806521967374e-08
45,0.36,0,0,45,-0.01666865311563015,-1.434476375579834,2.3811190128326416,-2.4407243728637695,-1.6121432781219482,1.1239467859268188,0.0,-1.5700000524520874,1.5700000524520874,-1.5700000524520874,-1.5700000524520874,0.0,0.07835367321968079,0.8890171051025391,1.2251617908477783,-2.896538496017456,0.47880956530570984,2.2677958011627197,-1.1610872745513916,1.183369755744934,1.3125580549240112,-2.8801229000091553,0.48076361417770386,2.267792224884033,-6.2831854820251465,6.2831854820251465,-6.2831854820251465,6.2831854820251465,-3.1415927410125732,3.1415927410125732,-6.2831854820251465,6.2831854820251465,-6.2831854820251465,6.2831854820251465,-6.2831854820251465,6.2831854820251465,-5.654866695404053,5.654866695404053,-5.654866695404053,5.654866695404053,-2.8274333477020264,2.8274333477020264,-5.654866695404053,5.654866695404053,-5.654866695404053,5.654866695404053,-5.654866695404053,5.654866695404053,2.094399929046631,2.094399929046631,3.1415998935699463,3.1415998935699463,3.1415998935699463,3.1415998935699463,2.094399929046631,2.094399929046631,3.1415998935699463,3.1415998935699463,3.1415998935699463,3.1415998935699463,0.5306065082550049,0.1605105847120285,0.1986340433359146,-0.042059242725372314,-0.21400809288024902,0.975860595703125,-0.011298149824142456,NA,NA,NA,NA,NA,NA,NA,0.5127236843109131,0.16527187824249268,0.168507918715477,-1.0043902598511067e-08,0.22977770864963531,-0.9732431173324585,4.2541806521967374e-08
46,0.368,0,0,46,-0.01028780173510313,-1.4296296834945679,2.3885090351104736,-2.4631288051605225,-1.608847737312317,1.1368869543075562,0.0,-1.5700000524520874,1.5700000524520874,-1.5700000524520874,-1.5700000524520874,0.0,0.9514153599739075,0.559169590473175,0.8910033702850342,-2.845590591430664,0.45079654455184937,1.6172385215759277,1.8583636283874512,-0.9703282117843628,-0.11982787400484085,-2.8455891609191895,0.45079678297042847,1.617238998413086,-6.2831854820251465,6.2831854820251465,-6.2831854820251465,6.2831854820251465,-3.1415927410125732,3.1415927410125732,-6.2831854820251465,6.2831854820251465,-6.2831854820251465,6.2831854820251465,-6.2831854820251465,6.2831854820251465,-5.654866695404053,5.654866695404053,-5.654866695404053,5.654866695404053,-2.8274333477020264,2.8274333477020264,-5.654866695404053,5.654866695404053,-5.654866695404053,5.654866695404053,-5.654866695404053,5.654866695404053,2.094399929046631,2.094399929046631,3.1415998935699463,3.1415998935699463,3.1415998935699463,3.1415998935699463,2.094399929046631,2.094399929046631,3.1415998935699463,3.1415998935699463,3.1415998935699463,3.1415998935699463,0.5280839204788208,0.1642920821905136,0.19528613984584808,-0.036632537841796875,-0.2106950283050537,0.9768006801605225,-0.011220097541809082,NA,NA,NA,NA,NA,NA,NA,0.5127236843109131,0.16527187824249268,0.168507918715477,-1.0043902598511067e-08,0.22977770864963531,-0.9732431173324585,4.2541806521967374e-08
47,0.376,0,0,47,-0.00855342112481594,-1.42526113986969,2.394533157348633,-2.4768214225769043,-1.608917474746704,1.1430974006652832,0.0,-1.5700000524520874,1.5700000524520874,-1.5700000524520874,-1.5700000524520874,0.0,0.17361769080162048,0.6485843658447266,0.6520383358001709,-1.7113419771194458,-0.05279584601521492,0.7762789130210876,-1.6961535215377808,0.7206240892410278,0.5885408520698547,-1.7165074348449707,-0.04990338534116745,0.7762706875801086,-6.2831854820251465,6.2831854820251465,-6.2831854820251465,6.2831854820251465,-3.1415927410125732,3.1415927410125732,-6.2831854820251465,6.2831854820251465,-6.2831854820251465,6.2831854820251465,-6.2831854820251465,6.2831854820251465,-5.654866695404053,5.654866695404053,-5.654866695404053,5.654866695404053,-2.8274333477020264,2.8274333477020264,-5.654866695404053,5.654866695404053,-5.654866695404053,5.654866695404053,-5.654866695404053,5.654866695404053,2.094399929046631,2.094399929046631,3.1415998935699463,3.1415998935699463,3.1415998935699463,3.1415998935699463,2.094399929046631,2.094399929046631,3.1415998935699463,3.1415998935699463,3.1415998935699463,3.1415998935699463,0.5259766578674316,0.1652151197195053,0.19188722968101501,-0.03498566150665283,-0.20848985016345978,0.9773278832435608,-0.01175747811794281,NA,NA,NA,NA,NA,NA,NA,0.5127236843109131,0.16527187824249268,0.168507918715477,-1.0043902598511067e-08,0.22977770864963531,-0.9732431173324585,4.2541806521967374e-08
48,0.384,0,0,48,-0.002386127831414342,-1.42253839969635,2.398329257965088,-2.486908197402954,-1.6043084859848022,1.144990086555481,0.0,-1.5700000524520874,1.5700000524520874,-1.5700000524520874,-1.5700000524520874,0.0,0.9584473371505737,0.22917282581329346,0.403150349855423,-1.281997799873352,0.6158291697502136,0.23666849732398987,1.63416588306427,-0.430524080991745,0.3064020574092865,-1.2935808897018433,0.6178726553916931,0.23666316270828247,-6.2831854820251465,6.2831854820251465,-6.2831854820251465,6.2831854820251465,-3.1415927410125732,3.1415927410125732,-6.2831854820251465,6.2831854820251465,-6.2831854820251465,6.2831854820251465,-6.2831854820251465,6.2831854820251465,-5.654866695404053,5.654866695404053,-5.654866695404053,5.654866695404053,-2.8274333477020264,2.8274333477020264,-5.654866695404053,5.654866695404053,-5.654866695404053,5.654866695404053,-5.654866695404053,5.654866695404053,2.094399929046631,2.094399929046631,3.1415998935699463,3.1415998935699463,3.1415998935699463,3.1415998935699463,2.094399929046631,2.094399929046631,3.1415998935699463,3.1415998935699463,3.1415998935699463,3.1415998935699463,0.5239601135253906,0.16899505257606506,0.18992620706558228,-0.03270834684371948,-0.2104981392621994,0.9769954681396484,-0.01002742350101471,NA,NA,NA,NA,NA,NA,NA,0.5127236843109131,0.16527187824249268,0.168507918715477,-1.0043902598511067e-08,0.22977770864963531,-0.9732431173324585,4.2541806521967374e-08
49,0.392,0,0,49,-0.0005396715132519603,-1.4185231924057007,2.403310775756836,-2.4941115379333496,-1.607533574104309,1.1462558507919312,0.0,-1.5700000524520874,1.5700000524520874,-1.5700000524520874,-1.5700000524520874,0.0,0.1678045690059662,0.5967510938644409,0.6450797915458679,-0.8496807217597961,-0.4494156837463379,0.15836268663406372,-2.094399929046631,1.6029036045074463,1.2243765592575073,-0.849679708480835,-0.4494149386882782,0.15836277604103088,-6.2831854820251465,6.2831854820251465,-6.2831854820251465,6.2831854820251465,-3.1415927410125732,3.1415927410125732,-6.2831854820251465,6.2831854820251465,-6.2831854820251465,6.2831854820251465,-6.2831854820251465,6.2831854820251465,-5.654866695404053,5.654866695404053,-5.654866695404053,5.654866695404053,-2.8274333477020264,2.8274333477020264,-5.654866695404053,5.654866695404053,-5.654866695404053,5.654866695404053,-5.654866695404053,5.654866695404053,2.094399929046631,2.094399929046631,3.1415998935699463,3.1415998935699463,3.1415998935699463,3.1415998935699463,2.094399929046631,2.094399929046631,3.1415998935699463,3.1415998935699463,3.1415998935699463,3.1415998935699463,0.5215872526168823,0.16958776116371155,0.1865064650774002,-0.03390759229660034,-0.21083317697048187,0.9768664836883545,-0.011463969945907593,NA,NA,NA,NA,NA,NA,NA,0.5127236843109131,0.16527187824249268,0.168507918715477,-1.0043902598511067e-08,0.22977770864963531,-0.9732431173324585,4.2541806521967374e-08
50,0.4,0,0,50,0.004559996072202921,-1.4159914255142212,2.407435178756714,-2.508960723876953,-1.604406714439392,1.1483843326568604,0.0,-1.5700000524520874,1.5700000524520874,-1.5700000524520874,-1.5700000524520874,0.0,0.9522188305854797,0.25947654247283936,0.4701298773288727,-1.914039969444275,0.4163878858089447,0.26596665382385254,1.1584160327911377,-0.7421244382858276,-1.6803414821624756,-1.9134162664413452,0.43411561846733093,0.26591822504997253,-6.2831854820251465,6.2831854820251465,-6.2831854820251465,6.2831854820251465,-3.1415927410125732,3.1415927410125732,-6.2831854820251465,6.2831854820251465,-6.2831854820251465,6.2831854820251465,-6.2831854820251465,6.2831854820251465,-5.654866695404053,5.654866695404053,-5.654866695404053,5.654866695404053,-2.8274333477020264,2.8274333477020264,-5.654866695404053,5.654866695404053,-5.654866695404053,5.654866695404053,-5.654866695404053,5.654866695404053,2.094399929046631,2.094399929046631,3.1415998935699463,3.1415998935699463,3.1415998935699463,3.1415998935699463,2.094399929046631,2.094399929046631,3.1415998935699463,3.1415998935699463,3.1415998935699463,3.1415998935699463,0.5200790166854858,0.1726067066192627,0.18508854508399963,-0.029537856578826904,-0.21220050752162933,0.9767186641693115,-0.010909050703048706,NA,NA,NA,NA,NA,NA,NA,0.5127236843109131,0.16527187824249268,0.168507918715477,-1.0043902598511067e-08,0.22977770864963531,-0.9732431173324585,4.2541806521967374e-08
51,0.40800000000000003,0,0,51,0.0071994164027273655,-1.4109841585159302,2.4089839458465576,-2.514293670654297,-1.6075431108474731,1.1494090557098389,0.0,-1.5700000524520874,1.5700000524520874,-1.5700000524520874,-1.5700000524520874,0.0,0.30926528573036194,0.7846800088882446,0.10627613216638565,-0.646602988243103,-0.4297136664390564,0.1282251626253128,-2.094399929046631,1.4876174926757812,0.08343134075403214,-0.6493078470230103,-0.4292212128639221,0.12822379171848297,-6.2831854820251465,6.2831854820251465,-6.2831854820251465,6.2831854820251465,-3.1415927410125732,3.1415927410125732,-6.2831854820251465,6.2831854820251465,-6.2831854820251465,6.2831854820251465,-6.2831854820251465,6.2831854820251465,-5.654866695404053,5.654866695404053,-5.654866695404053,5.654866695404053,-2.8274333477020264,2.8274333477020264,-5.654866695404053,5.654866695404053,-5.654866695404053,5.654866695404053,-5.654866695404053,5.654866695404053,2.094399929046631,2.094399929046631,3.1415998935699463,3.1415998935699463,3.1415998935699463,3.1415998935699463,2.094399929046631,2.094399929046631,3.1415998935699463,3.1415998935699463,3.1415998935699463,3.1415998935699463,0.5193625688552856,0.17361167073249817,0.1824408620595932,-0.030437469482421875,-0.21303164958953857,0.9764926433563232,-0.012371301651000977,NA,NA,NA,NA,NA,NA,NA,0.5127236843109131,0.16527187824249268,0.168507918715477,-1.0043902598511067e-08,0.22977770864963531,-0.9732431173324585,4.2541806521967374e-08
52,0.41600000000000004,0,0,52,0.006638196296989918,-1.4093011617660522,2.4103832244873047,-2.5211422443389893,-1.6041229963302612,1.1493557691574097,0.0,-1.5700000524520874,1.5700000524520874,-1.5700000524520874,-1.5700000524520874,0.0,-0.173292875289917,0.1254405975341797,0.16793717443943024,-0.9085497856140137,0.41759151220321655,-0.006499189417809248,-0.23112531006336212,-1.419216513633728,-0.3523196876049042,-0.9087281823158264,0.4126136600971222,-0.006485532037913799,-6.2831854820251465,6.2831854820251465,-6.2831854820251465,6.2831854820251465,-3.1415927410125732,3.1415927410125732,-6.2831854820251465,6.2831854820251465,-6.2831854820251465,6.2831854820251465,-6.2831854820251465,6.2831854820251465,-5.654866695404053,5.654866695404053,-5.654866695404053,5.654866695404053,-2.8274333477020264,2.8274333477020264,-5.654866695404053,5.654866695404053,-5.654866695404053,5.654866695404053,-5.654866695404053,5.654866695404053,2.094399929046631,2.094399929046631,3.1415998935699463,3.1415998935699463,3.1415998935699463,3.1415998935699463,2.094399929046631,2.094399929046631,3.1415998935699463,3.1415998935699463,3.1415998935699463,3.1415998935699463,0.5194540619850159,0.1737186461687088,0.18173708021640778,-0.028248459100723267,-0.21272429823875427,0.9766409397125244,-0.011077433824539185,NA,NA,NA,NA,NA,NA,NA,0.5127236843109131,0.16527187824249268,0.168507918715477,-1.0043902598511067e-08,0.22977770864963531,-0.9732431173324585,4.2541806521967374e-08
53,0.424,0,0,53,0.00771820405498147,-1.4065747261047363,2.4115848541259766,-2.5201735496520996,-1.6000072956085205,1.1475402116775513,0.0,-1.5700000524520874,1.5700000524520874,-1.5700000524520874,-1.5700000524520874,0.0,0.33801281452178955,0.5425320267677307,0.06906063109636307,0.1684102863073349,0.5311047434806824,-0.22698919475078583,0.4006238877773285,0.700151801109314,1.1893506050109863,0.17486192286014557,0.5399209260940552,-0.22701315581798553,-6.2831854820251465,6.2831854820251465,-6.2831854820251465,6.2831854820251465,-3.1415927410125732,3.1415927410125732,-6.2831854820251465,6.2831854820251465,-6.2831854820251465,6.2831854820251465,-6.2831854820251465,6.2831854820251465,-5.654866695404053,5.654866695404053,-5.654866695404053,5.654866695404053,-2.8274333477020264,2.8274333477020264,-5.654866695404053,5.654866695404053,-5.654866695404053,5.654866695404053,-5.654866695404053,5.654866695404053,2.094399929046631,2.094399929046631,3.1415998935699463,3.1415998935699463,3.1415998935699463,3.1415998935699463,2.094399929046631,2.094399929046631,3.1415998935699463,3.1415998935699463,3.1415998935699463,3.1415998935699463,0.5184162855148315,0.17475232481956482,0.1796884685754776,-0.03022351861000061,-0.21411485970020294,0.9763033390045166,-0.008548527956008911,NA,NA,NA,NA,NA,NA,NA,0.5127236843109131,0.16527187824249268,0.168507918715477,-1.0043902598511067e-08,0.22977770864963531,-0.9732431173324585,4.2541806521967374e-08
54,0.432,0,0,54,0.005655073560774326,-1.4065760374069214,2.4139585494995117,-2.5296120643615723,-1.6020883321762085,1.1481425762176514,0.0,-1.5700000524520874,1.5700000524520874,-1.5700000524520874,-1.5700000524520874,0.0,-0.5731388926506042,-0.16734792292118073,0.38540053367614746,-1.2435585260391235,-0.2973727285861969,0.07531996071338654,-0.7321334481239319,-1.175498604774475,-0.7333254218101501,-1.2439380884170532,-0.3110596239566803,0.07535729557275772,-6.2831854820251465,6.2831854820251465,-6.2831854820251465,6.2831854820251465,-3.1415927410125732,3.1415927410125732,-6.2831854820251465,6.2831854820251465,-6.2831854820251465,6.2831854820251465,-6.2831854820251465,6.2831854820251465,-5.654866695404053,5.654866695404053,-5.654866695404053,5.654866695404053,-2.8274333477020264,2.8274333477020264,-5.654866695404053,5.654866695404053,-5.654866695404053,5.654866695404053,-5.654866695404053,5.654866695404053,2.094399929046631,2.094399929046631,3.1415998935699463,3.1415998935699463,3.1415998935699463,3.1415998935699463,2.094399929046631,2.094399929046631,3.1415998935699463,3.1415998935699463,3.1415998935699463,3.1415998935699463,0.5184974670410156,0.17343848943710327,0.17977294325828552,-0.026989907026290894,-0.2128041535615921,0.9766680002212524,-0.010276362299919128,NA,NA,NA,NA,NA,NA,NA,0.5127236843109131,0.16527187824249268,0.168507918715477,-1.0043902598511067e-08,0.22977770864963531,-0.9732431173324585,4.2541806521967374e-08
55,0.44,0,0,55,0.00790801178663969,-1.4033031463623047,2.414339303970337,-2.5272750854492188,-1.5946799516677856,1.1449615955352783,0.0,-1.5700000524520874,1.5700000524520874,-1.5700000524520874,-1.5700000524520874,0.0,0.41785699129104614,0.5557297468185425,0.02031783014535904,0.3587571978569031,0.9850926995277405,-0.39807936549186707,1.901421070098877,1.3534834384918213,0.7059942483901978,0.358757883310318,0.985092282295227,-0.3980795741081238,-6.2831854820251465,6.2831854820251465,-6.2831854820251465,6.2831854820251465,-3.1415927410125732,3.1415927410125732,-6.2831854820251465,6.2831854820251465,-6.2831854820251465,6.2831854820251465,-6.2831854820251465,6.2831854820251465,-5.654866695404053,5.654866695404053,-5.654866695404053,5.654866695404053,-2.8274333477020264,2.8274333477020264,-5.654866695404053,5.654866695404053,-5.654866695404053,5.654866695404053,-5.654866695404053,5.654866695404053,2.094399929046631,2.094399929046631,3.1415998935699463,3.1415998935699463,3.1415998935699463,3.1415998935699463,2.094399929046631,2.094399929046631,3.1415998935699463,3.1415998935699463,3.1415998935699463,3.1415998935699463,0.5175737142562866,0.17546503245830536,0.17762522399425507,-0.029156506061553955,-0.21539831161499023,0.9760722517967224,-0.006019473075866699,NA,NA,NA,NA,NA,NA,NA,0.5127236843109131,0.16527187824249268,0.168507918715477,-1.0043902598511067e-08,0.22977770864963531,-0.9732431173324585,4.2541806521967374e-08
56,0.448,0,0,56,0.005545519292354584,-1.4034372568130493,2.416870355606079,-2.5378870964050293,-1.600995659828186,1.1463115215301514,0.0,-1.5700000524520874,1.5700000524520874,-1.5700000524520874,-1.5700000524520874,0.0,-0.5252503752708435,-0.1469579041004181,0.38555601239204407,-1.3941335678100586,-0.8514775037765503,0.16922177374362946,-1.0961635112762451,-1.4759414196014404,-1.0359820127487183,-1.394133448600769,-0.8514772653579712,0.1692216992378235,-6.2831854820251465,6.2831854820251465,-6.2831854820251465,6.2831854820251465,-3.1415927410125732,3.1415927410125732,-6.2831854820251465,6.2831854820251465,-6.2831854820251465,6.2831854820251465,-6.2831854820251465,6.2831854820251465,-5.654866695404053,5.654866695404053,-5.654866695404053,5.654866695404053,-2.8274333477020264,2.8274333477020264,-5.654866695404053,5.654866695404053,-5.654866695404053,5.654866695404053,-5.654866695404053,5.654866695404053,2.094399929046631,2.094399929046631,3.1415998935699463,3.1415998935699463,3.1415998935699463,3.1415998935699463,2.094399929046631,2.094399929046631,3.1415998935699463,3.1415998935699463,3.1415998935699463,3.1415998935699463,0.5177545547485352,0.17350469529628754,0.1778675615787506,-0.025799304246902466,-0.21362273395061493,0.976524829864502,-0.009947538375854492,NA,NA,NA,NA,NA,NA,NA,0.5127236843109131,0.16527187824249268,0.168507918715477,-1.0043902598511067e-08,0.22977770864963531,-0.9732431173324585,4.2541806521967374e-08
57,0.456,0,0,57,0.007864979095757008,-1.400280237197876,2.4168686866760254,-2.5351438522338867,-1.5927259922027588,1.143153429031372,0.0,-1.5700000524520874,1.5700000524520874,-1.5700000524520874,-1.5700000524520874,0.0,0.4091067612171173,0.5548580884933472,0.01165013201534748,0.411670982837677,1.0966013669967651,-0.3950634002685547,2.094399929046631,1.1694647073745728,0.3693062663078308,0.4116716980934143,1.096600890159607,-0.39506322145462036,-6.2831854820251465,6.2831854820251465,-6.2831854820251465,6.2831854820251465,-3.1415927410125732,3.1415927410125732,-6.2831854820251465,6.2831854820251465,-6.2831854820251465,6.2831854820251465,-6.2831854820251465,6.2831854820251465,-5.654866695404053,5.654866695404053,-5.654866695404053,5.654866695404053,-2.8274333477020264,2.8274333477020264,-5.654866695404053,5.654866695404053,-5.654866695404053,5.654866695404053,-5.654866695404053,5.654866695404053,2.094399929046631,2.094399929046631,3.1415998935699463,3.1415998935699463,3.1415998935699463,3.1415998935699463,2.094399929046631,2.094399929046631,3.1415998935699463,3.1415998935699463,3.1415998935699463,3.1415998935699463,0.5169954895973206,0.1756659299135208,0.17589370906352997,-0.027826786041259766,-0.21623049676418304,0.9759314060211182,-0.0052787065505981445,NA,NA,NA,NA,NA,NA,NA,0.5127236843109131,0.16527187824249268,0.168507918715477,-1.0043902598511067e-08,0.22977770864963531,-0.9732431173324585,4.2541806521967374e-08
58,0.464,0,0,58,0.005689301062375307,-1.4004415273666382,2.4192633628845215,-2.545492172241211,-1.6000696420669556,1.1446025371551514,0.0,-1.5700000524520874,1.5700000524520874,-1.5700000524520874,-1.5700000524520874,0.0,-0.5141355991363525,-0.14217615127563477,0.3731614351272583,-1.3610554933547974,-0.9813793301582336,0.18162325024604797,-1.0233696699142456,-1.7432644367218018,-1.3299121856689453,-1.3610550165176392,-0.981379508972168,0.18162338435649872,-6.2831854820251465,6.2831854820251465,-6.2831854820251465,6.2831854820251465,-3.1415927410125732,3.1415927410125732,-6.2831854820251465,6.2831854820251465,-6.2831854820251465,6.2831854820251465,-6.2831854820251465,6.2831854820251465,-5.654866695404053,5.654866695404053,-5.654866695404053,5.654866695404053,-2.8274333477020264,2.8274333477020264,-5.654866695404053,5.654866695404053,-5.654866695404053,5.654866695404053,-5.654866695404053,5.654866695404053,2.094399929046631,2.094399929046631,3.1415998935699463,3.1415998935699463,3.1415998935699463,3.1415998935699463,2.094399929046631,2.094399929046631,3.1415998935699463,3.1415998935699463,3.1415998935699463,3.1415998935699463,0.5171899795532227,0.17368394136428833,0.17618779838085175,-0.024627026170492172,-0.21450777351856232,0.9763634204864502,-0.009706228040158749,NA,NA,NA,NA,NA,NA,NA,0.5127236843109131,0.16527187824249268,0.168507918715477,-1.0043902598511067e-08,0.22977770864963531,-0.9732431173324585,4.2541806521967374e-08
59,0.47200000000000003,0,0,59,0.00816614180803299,-1.3975074291229248,2.418455123901367,-2.5423943996429443,-1.5918062925338745,1.1417348384857178,0.0,-1.5700000524520874,1.5700000524520874,-1.5700000524520874,-1.5700000524520874,0.0,0.44426000118255615,0.5936830639839172,-0.09358306229114532,0.4279133677482605,1.1019188165664673,-0.35869985818862915,2.094399929046631,0.9326928853988647,0.0785985216498375,0.44808143377304077,1.0981419086456299,-0.35868972539901733,-6.2831854820251465,6.2831854820251465,-6.2831854820251465,6.2831854820251465,-3.1415927410125732,3.1415927410125732,-6.2831854820251465,6.2831854820251465,-6.2831854820251465,6.2831854820251465,-6.2831854820251465,6.2831854820251465,-5.654866695404053,5.654866695404053,-5.654866695404053,5.654866695404053,-2.8274333477020264,2.8274333477020264,-5.654866695404053,5.654866695404053,-5.654866695404053,5.654866695404053,-5.654866695404053,5.654866695404053,2.094399929046631,2.094399929046631,3.1415998935699463,3.1415998935699463,3.1415998935699463,3.1415998935699463,2.094399929046631,2.094399929046631,3.1415998935699463,3.1415998935699463,3.1415998935699463,3.1415998935699463,0.5168478488922119,0.17592795193195343,0.17462296783924103,-0.02632087469100952,-0.21705210208892822,0.9757916331291199,-0.005116105079650879,NA,NA,NA,NA,NA,NA,NA,0.5127236843109131,0.16527187824249268,0.168507918715477,-1.0043902598511067e-08,0.22977770864963531,-0.9732431173324585,4.2541806521967374e-08
60,0.48,0,0,60,0.005974959582090378,-1.3975930213928223,2.4199700355529785,-2.5508737564086914,-1.5996057987213135,1.1430466175079346,0.0,-1.5700000524520874,1.5700000524520874,-1.5700000524520874,-1.5700000524520874,0.0,-0.47471854090690613,-0.1109674945473671,0.23974435031414032,-1.1261705160140991,-1.0388647317886353,0.16407257318496704,-1.1848405599594116,-2.016982078552246,-1.0469094514846802,-1.1261701583862305,-1.038864254951477,0.16407251358032227,-6.2831854820251465,6.2831854820251465,-6.2831854820251465,6.2831854820251465,-3.1415927410125732,3.1415927410125732,-6.2831854820251465,6.2831854820251465,-6.2831854820251465,6.2831854820251465,-6.2831854820251465,6.2831854820251465,-5.654866695404053,5.654866695404053,-5.654866695404053,5.654866695404053,-2.8274333477020264,2.8274333477020264,-5.654866695404053,5.654866695404053,-5.654866695404053,5.654866695404053,-5.654866695404053,5.654866695404053,2.094399929046631,2.094399929046631,3.1415998935699463,3.1415998935699463,3.1415998935699463,3.1415998935699463,2.094399929046631,2.094399929046631,3.1415998935699463,3.1415998935699463,3.1415998935699463,3.1415998935699463,0.5173495411872864,0.1738869994878769,0.17503498494625092,-0.02369225025177002,-0.21539387106895447,0.976192057132721,-0.009655490517616272,NA,NA,NA,NA,NA,NA,NA,0.5127236843109131,0.16527187824249268,0.168507918715477,-1.0043902598511067e-08,0.22977770864963531,-0.9732431173324585,4.2541806521967374e-08
61,0.488,0,0,61,0.00796196423470974,-1.395939588546753,2.419785499572754,-2.5465712547302246,-1.591296672821045,1.1404309272766113,0.0,-1.5700000524520874,1.5700000524520874,-1.5700000524520874,-1.5700000524520874,0.0,0.38554856181144714,0.40253371000289917,-0.04467085376381874,0.5920234322547913,1.0955836772918701,-0.32713717222213745,2.088747501373291,0.605267345905304,0.41737285256385803,0.6005473136901855,1.099777340888977,-0.32714903354644775,-6.2831854820251465,6.2831854820251465,-6.2831854820251465,6.2831854820251465,-3.1415927410125732,3.1415927410125732,-6.2831854820251465,6.2831854820251465,-6.2831854820251465,6.2831854820251465,-6.2831854820251465,6.2831854820251465,-5.654866695404053,5.654866695404053,-5.654866695404053,5.654866695404053,-2.8274333477020264,2.8274333477020264,-5.654866695404053,5.654866695404053,-5.654866695404053,5.654866695404053,-5.654866695404053,5.654866695404053,2.094399929046631,2.094399929046631,3.1415998935699463,3.1415998935699463,3.1415998935699463,3.1415998935699463,2.094399929046631,2.094399929046631,3.1415998935699463,3.1415998935699463,3.1415998935699463,3.1415998935699463,0.5165722966194153,0.17587922513484955,0.17373774945735931,-0.025646239519119263,-0.21757975220680237,0.975692868232727,-0.004981189966201782,NA,NA,NA,NA,NA,NA,NA,0.5127236843109131,0.16527187824249268,0.168507918715477,-1.0043902598511067e-08,0.22977770864963531,-0.9732431173324585,4.2541806521967374e-08
62,0.496,0,0,62,0.005544950254261494,-1.3972480297088623,2.4216151237487793,-2.5544393062591553,-1.5986461639404297,1.1419446468353271,0.0,-1.5700000524520874,1.5700000524520874,-1.5700000524520874,-1.5700000524520874,0.0,-0.5384857058525085,-0.2996806502342224,0.3011314570903778,-1.0500917434692383,-0.9819453358650208,0.18937119841575623,-1.0842649936676025,-1.548278570175171,-1.1392301321029663,-1.0500907897949219,-0.9819448590278625,0.18937109410762787,-6.2831854820251465,6.2831854820251465,-6.2831854820251465,6.2831854820251465,-3.1415927410125732,3.1415927410125732,-6.2831854820251465,6.2831854820251465,-6.2831854820251465,6.2831854820251465,-6.2831854820251465,6.2831854820251465,-5.654866695404053,5.654866695404053,-5.654866695404053,5.654866695404053,-2.8274333477020264,2.8274333477020264,-5.654866695404053,5.654866695404053,-5.654866695404053,5.654866695404053,-5.654866695404053,5.654866695404053,2.094399929046631,2.094399929046631,3.1415998935699463,3.1415998935699463,3.1415998935699463,3.1415998935699463,2.094399929046631,2.094399929046631,3.1415998935699463,3.1415998935699463,3.1415998935699463,3.1415998935699463,0.5168516635894775,0.17377299070358276,0.1745842695236206,-0.0228290855884552,-0.2157060205936432,0.9761468172073364,-0.009333759546279907,NA,NA,NA,NA,NA,NA,NA,0.5127236843109131,0.16527187824249268,0.168507918715477,-1.0043902598511067e-08,0.22977770864963531,-0.9732431173324585,4.2541806521967374e-08
63,0.504,0,0,63,0.007708539720624685,-1.3951857089996338,2.4210989475250244,-2.549492359161377,-1.5904951095581055,1.1389925479888916,0.0,-1.5700000524520874,1.5700000524520874,-1.5700000524520874,-1.5700000524520874,0.0,0.3875546455383301,0.40160760283470154,-0.060580357909202576,0.6870433688163757,1.0824223756790161,-0.3694736063480377,2.094399929046631,1.145272135734558,0.3710271418094635,0.6870437860488892,1.0824214220046997,-0.3694736361503601,-6.2831854820251465,6.2831854820251465,-6.2831854820251465,6.2831854820251465,-3.1415927410125732,3.1415927410125732,-6.2831854820251465,6.2831854820251465,-6.2831854820251465,6.2831854820251465,-6.2831854820251465,6.2831854820251465,-5.654866695404053,5.654866695404053,-5.654866695404053,5.654866695404053,-2.8274333477020264,2.8274333477020264,-5.654866695404053,5.654866695404053,-5.654866695404053,5.654866695404053,-5.654866695404053,5.654866695404053,2.094399929046631,2.094399929046631,3.1415998935699463,3.1415998935699463,3.1415998935699463,3.1415998935699463,2.094399929046631,2.094399929046631,3.1415998935699463,3.1415998935699463,3.1415998935699463,3.1415998935699463,0.516165018081665,0.17583830654621124,0.17313948273658752,-0.025149017572402954,-0.21814769506454468,0.9755805730819702,-0.004657849669456482,NA,NA,NA,NA,NA,NA,NA,0.5127236843109131,0.16527187824249268,0.168507918715477,-1.0043902598511067e-08,0.22977770864963531,-0.9732431173324585,4.2541806521967374e-08
64,0.512,0,0,64,0.005445442162454128,-1.3964627981185913,2.4228556156158447,-2.5574824810028076,-1.5981345176696777,1.140769600868225,0.0,-1.5700000524520874,1.5700000524520874,-1.5700000524520874,-1.5700000524520874,0.0,-0.5355520844459534,-0.2960553467273712,0.29771873354911804,-1.0670064687728882,-1.0183111429214478,0.22210390865802765,-1.0079967975616455,-1.6162775754928589,-1.2602368593215942,-1.0670065879821777,-1.0183109045028687,0.2221040278673172,-6.2831854820251465,6.2831854820251465,-6.2831854820251465,6.2831854820251465,-3.1415927410125732,3.1415927410125732,-6.2831854820251465,6.2831854820251465,-6.2831854820251465,6.2831854820251465,-6.2831854820251465,6.2831854820251465,-5.654866695404053,5.654866695404053,-5.654866695404053,5.654866695404053,-2.8274333477020264,2.8274333477020264,-5.654866695404053,5.654866695404053,-5.654866695404053,5.654866695404053,-5.654866695404053,5.654866695404053,2.094399929046631,2.094399929046631,3.1415998935699463,3.1415998935699463,3.1415998935699463,3.1415998935699463,2.094399929046631,2.094399929046631,3.1415998935699463,3.1415998935699463,3.1415998935699463,3.1415998935699463,0.5164760947227478,0.17377911508083344,0.17401595413684845,-0.02228403091430664,-0.2162221223115921,0.976046621799469,-0.009176596999168396,NA,NA,NA,NA,NA,NA,NA,0.5127236843109131,0.16527187824249268,0.168507918715477,-1.0043902598511067e-08,0.22977770864963531,-0.9732431173324585,4.2541806521967374e-08
65,0.52,0,0,65,0.007655617315322161,-1.394405484199524,2.4221506118774414,-2.55238676071167,-1.5900640487670898,1.1380623579025269,0.0,-1.5700000524520874,1.5700000524520874,-1.5700000524520874,-1.5700000524520874,0.0,0.3893895745277405,0.40369680523872375,-0.06747835129499435,0.7059025168418884,1.0724369287490845,-0.33863553404808044,2.094399929046631,1.090259075164795,0.26677021384239197,0.7059025168418884,1.072435975074768,-0.3386354446411133,-6.2831854820251465,6.2831854820251465,-6.2831854820251465,6.2831854820251465,-3.1415927410125732,3.1415927410125732,-6.2831854820251465,6.2831854820251465,-6.2831854820251465,6.2831854820251465,-6.2831854820251465,6.2831854820251465,-5.654866695404053,5.654866695404053,-5.654866695404053,5.654866695404053,-2.8274333477020264,2.8274333477020264,-5.654866695404053,5.654866695404053,-5.654866695404053,5.654866695404053,-5.654866695404053,5.654866695404053,2.094399929046631,2.094399929046631,3.1415998935699463,3.1415998935699463,3.1415998935699463,3.1415998935699463,2.094399929046631,2.094399929046631,3.1415998935699463,3.1415998935699463,3.1415998935699463,3.1415998935699463,0.5158783197402954,0.17585888504981995,0.1726343035697937,-0.024586856365203857,-0.21856854856014252,0.9755011796951294,-0.004546850919723511,NA,NA,NA,NA,NA,NA,NA,0.5127236843109131,0.16527187824249268,0.168507918715477,-1.0043902598511067e-08,0.22977770864963531,-0.9732431173324585,4.2541806521967374e-08
66,0.528,0,0,66,0.00546048441901803,-1.3956812620162964,2.423828363418579,-2.5602059364318848,-1.5978559255599976,1.1399518251419067,0.0,-1.5700000524520874,1.5700000524520874,-1.5700000524520874,-1.5700000524520874,0.0,-0.5338906049728394,-0.29419001936912537,0.29008203744888306,-1.0453070402145386,-1.037537932395935,0.23624537885189056,-0.9782111644744873,-1.6829485893249512,-1.3468281030654907,-1.0453063249588013,-1.0375375747680664,0.23624511063098907,-6.2831854820251465,6.2831854820251465,-6.2831854820251465,6.2831854820251465,-3.1415927410125732,3.1415927410125732,-6.2831854820251465,6.2831854820251465,-6.2831854820251465,6.2831854820251465,-6.2831854820251465,6.2831854820251465,-5.654866695404053,5.654866695404053,-5.654866695404053,5.654866695404053,-2.8274333477020264,2.8274333477020264,-5.654866695404053,5.654866695404053,-5.654866695404053,5.654866695404053,-5.654866695404053,5.654866695404053,2.094399929046631,2.094399929046631,3.1415998935699463,3.1415998935699463,3.1415998935699463,3.1415998935699463,2.094399929046631,2.094399929046631,3.1415998935699463,3.1415998935699463,3.1415998935699463,3.1415998935699463,0.516203761100769,0.17381784319877625,0.17352475225925446,-0.02178490161895752,-0.21662205457687378,0.975969672203064,-0.009133949875831604,NA,NA,NA,NA,NA,NA,NA,0.5127236843109131,0.16527187824249268,0.168507918715477,-1.0043902598511067e-08,0.22977770864963531,-0.9732431173324585,4.2541806521967374e-08
67,0.536,0,0,67,0.007714813109487295,-1.3936445713043213,2.422917366027832,-2.5549581050872803,-1.5898350477218628,1.1374212503433228,0.0,-1.5700000524520874,1.5700000524520874,-1.5700000524520874,-1.5700000524520874,0.0,0.390775203704834,0.40561553835868835,-0.07431108504533768,0.7249751687049866,1.066467523574829,-0.3162975311279297,2.094399929046631,1.0266609191894531,0.18202759325504303,0.7249761819839478,1.0664665699005127,-0.31629741191864014,-6.2831854820251465,6.2831854820251465,-6.2831854820251465,6.2831854820251465,-3.1415927410125732,3.1415927410125732,-6.2831854820251465,6.2831854820251465,-6.2831854820251465,6.2831854820251465,-6.2831854820251465,6.2831854820251465,-5.654866695404053,5.654866695404053,-5.654866695404053,5.654866695404053,-2.8274333477020264,2.8274333477020264,-5.654866695404053,5.654866695404053,-5.654866695404053,5.654866695404053,-5.654866695404053,5.654866695404053,2.094399929046631,2.094399929046631,3.1415998935699463,3.1415998935699463,3.1415998935699463,3.1415998935699463,2.094399929046631,2.094399929046631,3.1415998935699463,3.1415998935699463,3.1415998935699463,3.1415998935699463,0.5157060623168945,0.17591486871242523,0.17222066223621368,-0.024054083973169327,-0.21890555322170258,0.9754389524459839,-0.00453832745552063,NA,NA,NA,NA,NA,NA,NA,0.5127236843109131,0.16527187824249268,0.168507918715477,-1.0043902598511067e-08,0.22977770864963531,-0.9732431173324585,4.2541806521967374e-08
